; generated by Slic3r 0.9.9-dev on 2013-02-17 at 00:25:36

; This Slic3r config is for the Rostock delta robot 3D printer prototype.

; layer_height = 0.1
; perimeters = 3
; top_solid_layers = 3
; bottom_solid_layers = 3
; fill_density = 1
; perimeter_speed = 30
; infill_speed = 60
; travel_speed = 200
; scale = 1
; nozzle_diameter = 0.35
; filament_diameter = 1.75
; extrusion_multiplier = 1
; perimeters extrusion width = 0.56mm
; infill extrusion width = 0.56mm
; first layer extrusion width = 0.40mm

M107
M190 S60 ; wait for bed temperature to be reached
M104 S185 ; set temperature
M109 S185 ; wait for temperature to be reached
G28 ; home all axes
G1 Z10 F24000 ; move to print surface
G90 ; use absolute coordinates
G21 ; set units to millimeters
G92 E0
M82 ; use absolute distances for extrusion
G1 F30000.000 E-10.00000
G1 Z0.500
G92 E0
G1 X-9.800 Y16.580 F12000.000
G1 Z0.200
G1 F30000.000 E10.00000
G1 X-10.350 Y16.560 F540.000 E10.01781
G1 X-10.890 Y16.490 E10.03544
G1 X-11.420 Y16.380 E10.05296
G1 X-11.950 Y16.230 E10.07079
G1 X-12.460 Y16.040 E10.08840
G1 X-13.190 Y15.670 E10.11489
G1 X-13.650 Y15.380 E10.13250
G1 X-14.090 Y15.050 E10.15030
G1 X-14.500 Y14.690 E10.16796
G1 X-15.050 Y14.090 E10.19430
G1 X-15.380 Y13.650 E10.21211
G1 X-15.670 Y13.190 E10.22971
G1 X-16.040 Y12.460 E10.25620
G1 X-16.230 Y11.950 E10.27381
G1 X-16.380 Y11.420 E10.29164
G1 X-16.490 Y10.890 E10.30916
G1 X-16.560 Y10.350 E10.32679
G1 X-16.580 Y9.800 E10.34460
G1 X-16.580 Y-9.800 E10.97901
G1 X-16.560 Y-10.350 E10.99683
G1 X-16.440 Y-11.160 E11.02333
G1 X-16.310 Y-11.690 E11.04100
G1 X-16.140 Y-12.200 E11.05840
G1 X-16.040 Y-12.460 E11.06741
G1 X-15.670 Y-13.190 E11.09390
G1 X-15.220 Y-13.870 E11.12030
G1 X-14.690 Y-14.500 E11.14694
G1 X-14.300 Y-14.870 E11.16435
G1 X-13.650 Y-15.380 E11.19109
G1 X-13.190 Y-15.670 E11.20869
G1 X-12.460 Y-16.040 E11.23518
G1 X-11.950 Y-16.230 E11.25280
G1 X-11.160 Y-16.440 E11.27925
G1 X-10.350 Y-16.560 E11.30576
G1 X-9.800 Y-16.580 E11.32357
G1 X9.800 Y-16.580 E11.95798
G1 X10.350 Y-16.560 E11.97580
G1 X11.160 Y-16.440 E12.00230
G1 X11.690 Y-16.310 E12.01997
G1 X12.200 Y-16.140 E12.03737
G1 X12.460 Y-16.040 E12.04638
G1 X13.190 Y-15.670 E12.07287
G1 X13.870 Y-15.220 E12.09927
G1 X14.500 Y-14.690 E12.12591
G1 X14.870 Y-14.300 E12.14331
G1 X15.380 Y-13.650 E12.17006
G1 X15.670 Y-13.190 E12.18766
G1 X16.040 Y-12.460 E12.21415
G1 X16.230 Y-11.950 E12.23176
G1 X16.440 Y-11.160 E12.25822
G1 X16.560 Y-10.350 E12.28473
G1 X16.580 Y-9.800 E12.30254
G1 X16.580 Y9.800 E12.93695
G1 X16.560 Y10.350 E12.95477
G1 X16.440 Y11.160 E12.98127
G1 X16.310 Y11.690 E12.99893
G1 X16.140 Y12.200 E13.01634
G1 X16.040 Y12.460 E13.02535
G1 X15.670 Y13.190 E13.05184
G1 X15.220 Y13.870 E13.07824
G1 X14.690 Y14.500 E13.10488
G1 X14.300 Y14.870 E13.12228
G1 X13.650 Y15.380 E13.14903
G1 X13.190 Y15.670 E13.16663
G1 X12.460 Y16.040 E13.19312
G1 X11.950 Y16.230 E13.21073
G1 X11.160 Y16.440 E13.23719
G1 X10.350 Y16.560 E13.26370
G1 X9.800 Y16.580 E13.28151
G1 X-9.742 Y16.580 E13.91403
G1 X-9.800 Y16.190 F12000.000
G1 X-10.330 Y16.170 F540.000 E13.93120
G1 X-10.850 Y16.100 E13.94818
G1 X-11.370 Y15.990 E13.96539
G1 X-12.120 Y15.750 E13.99087
G1 X-12.610 Y15.540 E14.00813
G1 X-13.070 Y15.290 E14.02508
G1 X-13.510 Y15.000 E14.04213
G1 X-13.930 Y14.680 E14.05922
G1 X-14.320 Y14.320 E14.07640
G1 X-14.680 Y13.930 E14.09358
G1 X-15.000 Y13.510 E14.11067
G1 X-15.290 Y13.070 E14.12773
G1 X-15.540 Y12.610 E14.14468
G1 X-15.750 Y12.120 E14.16193
G1 X-15.990 Y11.370 E14.18742
G1 X-16.100 Y10.850 E14.20462
G1 X-16.170 Y10.330 E14.22161
G1 X-16.190 Y9.800 E14.23877
G1 X-16.190 Y-9.800 E14.87319
G1 X-16.170 Y-10.330 E14.89035
G1 X-16.100 Y-10.850 E14.90734
G1 X-15.990 Y-11.370 E14.92454
G1 X-15.750 Y-12.120 E14.95003
G1 X-15.650 Y-12.370 E14.95874
G1 X-15.420 Y-12.840 E14.97568
G1 X-15.000 Y-13.510 E15.00128
G1 X-14.680 Y-13.930 E15.01837
G1 X-14.130 Y-14.500 E15.04401
G1 X-13.930 Y-14.680 E15.05271
G1 X-13.510 Y-15.000 E15.06981
G1 X-13.070 Y-15.290 E15.08686
G1 X-12.610 Y-15.540 E15.10381
G1 X-11.870 Y-15.840 E15.12965
G1 X-11.110 Y-16.050 E15.15518
G1 X-10.330 Y-16.170 E15.18072
G1 X-9.800 Y-16.190 E15.19789
G1 X9.800 Y-16.190 E15.83230
G1 X10.330 Y-16.170 E15.84947
G1 X10.850 Y-16.100 E15.86645
G1 X11.370 Y-15.990 E15.88365
G1 X12.120 Y-15.750 E15.90914
G1 X12.370 Y-15.650 E15.91786
G1 X12.840 Y-15.420 E15.93479
G1 X13.510 Y-15.000 E15.96039
G1 X13.930 Y-14.680 E15.97748
G1 X14.500 Y-14.130 E16.00312
G1 X14.680 Y-13.930 E16.01183
G1 X15.000 Y-13.510 E16.02892
G1 X15.290 Y-13.070 E16.04597
G1 X15.540 Y-12.610 E16.06292
G1 X15.840 Y-11.870 E16.08877
G1 X16.050 Y-11.110 E16.11429
G1 X16.170 Y-10.330 E16.13983
G1 X16.190 Y-9.800 E16.15700
G1 X16.190 Y9.800 E16.79141
G1 X16.170 Y10.330 E16.80858
G1 X16.100 Y10.850 E16.82556
G1 X15.990 Y11.370 E16.84276
G1 X15.750 Y12.120 E16.86825
G1 X15.650 Y12.370 E16.87697
G1 X15.420 Y12.840 E16.89391
G1 X15.000 Y13.510 E16.91950
G1 X14.680 Y13.930 E16.93659
G1 X14.130 Y14.500 E16.96223
G1 X13.930 Y14.680 E16.97094
G1 X13.510 Y15.000 E16.98803
G1 X13.070 Y15.290 E17.00509
G1 X12.610 Y15.540 E17.02203
G1 X11.870 Y15.840 E17.04788
G1 X11.110 Y16.050 E17.07340
G1 X10.330 Y16.170 E17.09894
G1 X9.800 Y16.190 E17.11611
G1 X-9.742 Y16.190 E17.74863
G1 F30000.000 E7.74863
G1 Z0.500
G92 E0
G1 X9.021 Y-9.021 F12000.000
G1 Z0.200
G1 F30000.000 E10.00000
G1 X9.021 Y9.021 F540.000 E10.58401
G1 X-9.021 Y9.021 E11.16802
G1 X-9.021 Y-9.021 E11.75204
G1 X8.963 Y-9.021 E12.33416
G1 X9.411 Y-9.411 F12000.000
G1 X9.411 Y9.411 F540.000 E12.94337
G1 X-9.411 Y9.411 E13.55258
G1 X-9.411 Y-9.411 E14.16179
G1 X9.352 Y-9.411 E14.76911
G1 X9.800 Y-9.800 F12000.000
G1 X9.800 Y9.800 F540.000 E15.40353
G1 X-9.800 Y9.800 E16.03794
G1 X-9.800 Y-9.800 E16.67235
G1 X9.742 Y-9.800 E17.30487
G1 X9.605 Y-9.463 F12000.000
G1 F30000.000 E7.30487
G1 Z0.500
G92 E0
G1 X8.508 Y-8.756 F12000.000
G1 Z0.200
G1 F30000.000 E10.00000
G1 X8.756 Y-8.508 F1080.000 E10.01148
G1 X8.756 Y-7.951 E10.02971
G1 X7.951 Y-8.756 E10.06698
G1 X7.394 Y-8.756 E10.08522
G1 X8.756 Y-7.394 E10.14827
G1 X8.756 Y-6.838 E10.16651
G1 X6.838 Y-8.756 E10.25536
G1 X6.281 Y-8.756 E10.27359
G1 X8.756 Y-6.281 E10.38823
G1 X8.756 Y-5.724 E10.40646
G1 X5.724 Y-8.756 E10.54689
G1 X5.167 Y-8.756 E10.56513
G1 X8.756 Y-5.167 E10.73134
G1 X8.756 Y-4.610 E10.74958
G1 X4.610 Y-8.756 E10.94158
G1 X4.053 Y-8.756 E10.95982
G1 X8.756 Y-4.053 E11.17761
G1 X8.756 Y-3.496 E11.19585
G1 X3.496 Y-8.756 E11.43943
G1 X2.939 Y-8.756 E11.45767
G1 X8.756 Y-2.939 E11.72704
G1 X8.756 Y-2.382 E11.74528
G1 X2.382 Y-8.756 E12.04044
G1 X1.825 Y-8.756 E12.05868
G1 X8.756 Y-1.825 E12.37963
G1 X8.756 Y-1.268 E12.39787
G1 X1.268 Y-8.756 E12.74461
G1 X0.711 Y-8.756 E12.76285
G1 X8.756 Y-0.711 E13.13538
G1 X8.756 Y-0.155 E13.15362
G1 X0.155 Y-8.756 E13.55194
G1 X-0.402 Y-8.756 E13.57018
G1 X8.756 Y0.402 E13.99429
G1 X8.756 Y0.959 E14.01253
G1 X-0.959 Y-8.756 E14.46243
G1 X-1.516 Y-8.756 E14.48066
G1 X8.756 Y1.516 E14.95635
G1 X8.756 Y2.073 E14.97459
G1 X-2.073 Y-8.756 E15.47607
G1 X-2.630 Y-8.756 E15.49431
G1 X8.756 Y2.630 E16.02158
G1 X8.756 Y3.187 E16.03981
G1 X-3.187 Y-8.756 E16.59288
G1 X-3.744 Y-8.756 E16.61111
G1 X8.756 Y3.744 E17.18996
G1 X8.756 Y4.301 E17.20820
G1 X-4.301 Y-8.756 E17.81284
G1 X-4.858 Y-8.756 E17.83107
G1 X8.756 Y4.858 E18.46150
G1 X8.756 Y5.415 E18.47974
G1 X-5.415 Y-8.756 E19.13596
G1 X-5.972 Y-8.756 E19.15419
G1 X8.756 Y5.972 E19.83620
G1 X8.756 Y6.528 E19.85444
G1 X-6.528 Y-8.756 E20.56224
G1 X-7.085 Y-8.756 E20.58047
G1 X8.756 Y7.085 E21.31406
G1 X8.756 Y7.642 E21.33230
G1 X-7.642 Y-8.756 E22.09168
G1 X-8.199 Y-8.756 E22.10991
G1 X8.756 Y8.199 E22.89508
G1 X8.756 Y8.756 E22.91331
G1 X-8.756 Y-8.756 E23.72426
G1 X-8.756 Y-8.199 E23.74249
G1 X8.199 Y8.756 E24.52767
G1 X7.642 Y8.756 E24.54590
G1 X-8.756 Y-7.642 E25.30528
G1 X-8.756 Y-7.085 E25.32352
G1 X7.085 Y8.756 E26.05711
G1 X6.529 Y8.756 E26.07535
G1 X-8.756 Y-6.529 E26.78315
G1 X-8.756 Y-5.972 E26.80139
G1 X5.972 Y8.756 E27.48340
G1 X5.415 Y8.756 E27.50163
G1 X-8.756 Y-5.415 E28.15786
G1 X-8.756 Y-4.858 E28.17609
G1 X4.858 Y8.756 E28.80653
G1 X4.301 Y8.756 E28.82476
G1 X-8.756 Y-4.301 E29.42941
G1 X-8.756 Y-3.744 E29.44764
G1 X3.744 Y8.756 E30.02649
G1 X3.187 Y8.756 E30.04473
G1 X-8.756 Y-3.187 E30.59780
G1 X-8.756 Y-2.630 E30.61603
G1 X2.630 Y8.756 E31.14331
G1 X2.073 Y8.756 E31.16154
G1 X-8.756 Y-2.073 E31.66303
G1 X-8.756 Y-1.516 E31.68126
G1 X1.516 Y8.756 E32.15696
G1 X0.959 Y8.756 E32.17519
G1 X-8.756 Y-0.959 E32.62510
G1 X-8.756 Y-0.402 E32.64333
G1 X0.402 Y8.756 E33.06745
G1 X-0.154 Y8.756 E33.08569
G1 X-8.756 Y0.154 E33.48401
G1 X-8.756 Y0.711 E33.50225
G1 X-0.711 Y8.756 E33.87479
G1 X-1.268 Y8.756 E33.89302
G1 X-8.756 Y1.268 E34.23977
G1 X-8.756 Y1.825 E34.25800
G1 X-1.825 Y8.756 E34.57896
G1 X-2.382 Y8.756 E34.59720
G1 X-8.756 Y2.382 E34.89236
G1 X-8.756 Y2.939 E34.91060
G1 X-2.939 Y8.756 E35.17998
G1 X-3.496 Y8.756 E35.19821
G1 X-8.756 Y3.496 E35.44180
G1 X-8.756 Y4.053 E35.46004
G1 X-4.053 Y8.756 E35.67784
G1 X-4.610 Y8.756 E35.69607
G1 X-8.756 Y4.610 E35.88808
G1 X-8.756 Y5.167 E35.90632
G1 X-5.167 Y8.756 E36.07254
G1 X-5.724 Y8.756 E36.09077
G1 X-8.756 Y5.724 E36.23120
G1 X-8.756 Y6.281 E36.24944
G1 X-6.281 Y8.756 E36.36408
G1 X-6.837 Y8.756 E36.38231
G1 X-8.756 Y6.837 E36.47116
G1 X-8.756 Y7.394 E36.48940
G1 X-7.394 Y8.756 E36.55246
G1 X-7.951 Y8.756 E36.57070
G1 X-8.756 Y7.951 E36.60797
G1 X-8.756 Y8.508 E36.62620
G1 X-8.508 Y8.756 E36.63768
M106 S250
G1 F30000.000 E26.63768
G1 Z0.600
G92 E0
G1 X-8.643 Y-8.643 F12000.000
G1 Z0.300
G1 F30000.000 E10.00000
G1 X8.643 Y-8.643 F1800.000 E10.38703
G1 X8.643 Y8.643 E10.77406
G1 X-8.643 Y8.643 E11.16108
G1 X-8.643 Y-8.562 E11.54630
G1 F30000.000 E1.54630
G1 Z0.600
G92 E0
G1 X-9.181 Y-9.181 F12000.000
G1 Z0.300
G1 F30000.000 E10.00000
G1 X9.181 Y-9.181 F1800.000 E10.41114
G1 X9.181 Y9.181 E10.82229
G1 X-9.181 Y9.181 E11.23343
G1 X-9.181 Y-9.101 E11.64277
G1 F30000.000 E1.64277
G1 Z0.600
G92 E0
G1 X-9.720 Y-9.720 F12000.000
G1 Z0.300
G1 F30000.000 E10.00000
G1 X9.720 Y-9.720 F1800.000 E10.43526
G1 X9.720 Y9.720 E10.87052
G1 X-9.720 Y9.720 E11.30578
G1 X-9.720 Y-9.639 E11.73923
G1 X-9.254 Y-9.451 F12000.000
G1 F30000.000 E1.73923
G1 Z0.600
G92 E0
G1 X-8.276 Y-7.933 F12000.000
G1 Z0.300
G1 F30000.000 E10.00000
G1 X-7.933 Y-8.276 F3600.000 E10.01100
G1 X-7.161 Y-8.276 E10.02852
G1 X-8.276 Y-7.161 E10.06429
G1 X-8.276 Y-6.389 E10.08180
G1 X-6.389 Y-8.276 E10.14234
G1 X-5.617 Y-8.276 E10.15986
G1 X-8.276 Y-5.617 E10.24516
G1 X-8.276 Y-4.846 E10.26268
G1 X-4.846 Y-8.276 E10.37275
G1 X-4.074 Y-8.276 E10.39027
G1 X-8.276 Y-4.074 E10.52511
G1 X-8.276 Y-3.302 E10.54263
G1 X-3.302 Y-8.276 E10.70224
G1 X-2.530 Y-8.276 E10.71975
G1 X-8.276 Y-2.530 E10.90414
G1 X-8.276 Y-1.758 E10.92165
G1 X-1.758 Y-8.276 E11.13080
G1 X-0.986 Y-8.276 E11.14831
G1 X-8.276 Y-0.986 E11.38223
G1 X-8.276 Y-0.214 E11.39975
G1 X-0.215 Y-8.276 E11.65843
G1 X0.557 Y-8.276 E11.67595
G1 X-8.276 Y0.557 E11.95940
G1 X-8.276 Y1.329 E11.97692
G1 X1.329 Y-8.276 E12.28514
G1 X2.101 Y-8.276 E12.30266
G1 X-8.276 Y2.101 E12.63565
G1 X-8.276 Y2.873 E12.65316
G1 X2.873 Y-8.276 E13.01092
G1 X3.645 Y-8.276 E13.02844
G1 X-8.276 Y3.645 E13.41097
G1 X-8.276 Y4.417 E13.42848
G1 X4.417 Y-8.276 E13.83578
G1 X5.188 Y-8.276 E13.85329
G1 X-8.276 Y5.188 E14.28536
G1 X-8.276 Y5.960 E14.30287
G1 X5.960 Y-8.276 E14.75971
G1 X6.732 Y-8.276 E14.77722
G1 X-8.276 Y6.732 E15.25882
G1 X-8.276 Y7.504 E15.27634
G1 X7.504 Y-8.276 E15.78271
G1 X8.276 Y-8.276 E15.80022
G1 X-8.276 Y8.276 E16.33136
G1 X-7.504 Y8.276 E16.34887
G1 X8.276 Y-7.504 E16.85524
G1 X8.276 Y-6.732 E16.87275
G1 X-6.732 Y8.276 E17.35436
G1 X-5.960 Y8.276 E17.37187
G1 X8.276 Y-5.960 E17.82871
G1 X8.276 Y-5.188 E17.84622
G1 X-5.188 Y8.276 E18.27829
G1 X-4.417 Y8.276 E18.29580
G1 X8.276 Y-4.417 E18.70310
G1 X8.276 Y-3.645 E18.72062
G1 X-3.645 Y8.276 E19.10315
G1 X-2.873 Y8.276 E19.12066
G1 X8.276 Y-2.873 E19.47843
G1 X8.276 Y-2.101 E19.49594
G1 X-2.101 Y8.276 E19.82893
G1 X-1.329 Y8.276 E19.84645
G1 X8.276 Y-1.329 E20.15467
G1 X8.276 Y-0.557 E20.17219
G1 X-0.557 Y8.276 E20.45564
G1 X0.214 Y8.276 E20.47316
G1 X8.276 Y0.214 E20.73185
G1 X8.276 Y0.986 E20.74936
G1 X0.986 Y8.276 E20.98328
G1 X1.758 Y8.276 E21.00079
G1 X8.276 Y1.758 E21.20995
G1 X8.276 Y2.530 E21.22746
G1 X2.530 Y8.276 E21.41184
G1 X3.302 Y8.276 E21.42936
G1 X8.276 Y3.302 E21.58897
G1 X8.276 Y4.074 E21.60649
G1 X4.074 Y8.276 E21.74133
G1 X4.846 Y8.276 E21.75885
G1 X8.276 Y4.846 E21.86893
G1 X8.276 Y5.617 E21.88644
G1 X5.617 Y8.276 E21.97175
G1 X6.389 Y8.276 E21.98926
G1 X8.276 Y6.389 E22.04980
G1 X8.276 Y7.161 E22.06732
G1 X7.161 Y8.276 E22.10309
G1 X7.933 Y8.276 E22.12060
G1 X8.276 Y7.933 E22.13161
M106 S250
G1 F30000.000 E12.13161
G1 Z0.700
G92 E0
G1 X8.643 Y8.643 F12000.000
G1 Z0.400
G1 F30000.000 E10.00000
G1 X-8.643 Y8.643 F1800.000 E10.38703
G1 X-8.643 Y-8.643 E10.77406
G1 X8.643 Y-8.643 E11.16108
G1 X8.643 Y8.562 E11.54630
G1 F30000.000 E1.54630
G1 Z0.700
G92 E0
G1 X9.181 Y9.181 F12000.000
G1 Z0.400
G1 F30000.000 E10.00000
G1 X-9.181 Y9.181 F1800.000 E10.41114
G1 X-9.181 Y-9.181 E10.82229
G1 X9.181 Y-9.181 E11.23343
G1 X9.181 Y9.101 E11.64277
G1 F30000.000 E1.64277
G1 Z0.700
G92 E0
G1 X9.720 Y9.720 F12000.000
G1 Z0.400
G1 F30000.000 E10.00000
G1 X-9.720 Y9.720 F1800.000 E10.43526
G1 X-9.720 Y-9.720 E10.87052
G1 X9.720 Y-9.720 E11.30578
G1 X9.720 Y9.639 E11.73923
G1 X9.254 Y9.451 F12000.000
G1 F30000.000 E1.73923
G1 Z0.700
G92 E0
G1 X-7.933 Y8.276 F12000.000
G1 Z0.400
G1 F30000.000 E10.00000
G1 X-8.276 Y7.933 F3600.000 E10.01100
G1 X-8.276 Y7.161 E10.02852
G1 X-7.161 Y8.276 E10.06429
G1 X-6.389 Y8.276 E10.08180
G1 X-8.276 Y6.389 E10.14235
G1 X-8.276 Y5.617 E10.15986
G1 X-5.617 Y8.276 E10.24517
G1 X-4.846 Y8.276 E10.26268
G1 X-8.276 Y4.846 E10.37276
G1 X-8.276 Y4.074 E10.39028
G1 X-4.074 Y8.276 E10.52512
G1 X-3.302 Y8.276 E10.54264
G1 X-8.276 Y3.302 E10.70225
G1 X-8.276 Y2.530 E10.71977
G1 X-2.530 Y8.276 E10.90415
G1 X-1.758 Y8.276 E10.92166
G1 X-8.276 Y1.758 E11.13081
G1 X-8.276 Y0.986 E11.14833
G1 X-0.986 Y8.276 E11.38225
G1 X-0.214 Y8.276 E11.39976
G1 X-8.276 Y0.214 E11.65845
G1 X-8.276 Y-0.557 E11.67596
G1 X0.557 Y8.276 E11.95942
G1 X1.329 Y8.276 E11.97694
G1 X-8.276 Y-1.329 E12.28516
G1 X-8.276 Y-2.101 E12.30268
G1 X2.101 Y8.276 E12.63567
G1 X2.873 Y8.276 E12.65318
G1 X-8.276 Y-2.873 E13.01095
G1 X-8.276 Y-3.645 E13.02846
G1 X3.645 Y8.276 E13.41099
G1 X4.417 Y8.276 E13.42850
G1 X-8.276 Y-4.417 E13.83580
G1 X-8.276 Y-5.188 E13.85332
G1 X5.188 Y8.276 E14.28539
G1 X5.960 Y8.276 E14.30290
G1 X-8.276 Y-5.960 E14.75974
G1 X-8.276 Y-6.732 E14.77725
G1 X6.732 Y8.276 E15.25885
G1 X7.504 Y8.276 E15.27637
G1 X-8.276 Y-7.504 E15.78274
G1 X-8.276 Y-8.276 E15.80025
G1 X8.276 Y8.276 E16.33139
G1 X8.276 Y7.504 E16.34890
G1 X-7.504 Y-8.276 E16.85527
G1 X-6.732 Y-8.276 E16.87278
G1 X8.276 Y6.732 E17.35439
G1 X8.276 Y5.960 E17.37190
G1 X-5.960 Y-8.276 E17.82874
G1 X-5.188 Y-8.276 E17.84625
G1 X8.276 Y5.188 E18.27832
G1 X8.276 Y4.417 E18.29583
G1 X-4.417 Y-8.276 E18.70313
G1 X-3.645 Y-8.276 E18.72064
G1 X8.276 Y3.645 E19.10317
G1 X8.276 Y2.873 E19.12069
G1 X-2.873 Y-8.276 E19.47845
G1 X-2.101 Y-8.276 E19.49596
G1 X8.276 Y2.101 E19.82895
G1 X8.276 Y1.329 E19.84647
G1 X-1.329 Y-8.276 E20.15469
G1 X-0.557 Y-8.276 E20.17220
G1 X8.276 Y0.557 E20.45566
G1 X8.276 Y-0.215 E20.47317
G1 X0.214 Y-8.276 E20.73186
G1 X0.986 Y-8.276 E20.74938
G1 X8.276 Y-0.986 E20.98329
G1 X8.276 Y-1.758 E21.00081
G1 X1.758 Y-8.276 E21.20996
G1 X2.530 Y-8.276 E21.22747
G1 X8.276 Y-2.530 E21.41185
G1 X8.276 Y-3.302 E21.42937
G1 X3.302 Y-8.276 E21.58898
G1 X4.074 Y-8.276 E21.60650
G1 X8.276 Y-4.074 E21.74134
G1 X8.276 Y-4.846 E21.75885
G1 X4.846 Y-8.276 E21.86893
G1 X5.617 Y-8.276 E21.88644
G1 X8.276 Y-5.617 E21.97175
G1 X8.276 Y-6.389 E21.98927
G1 X6.389 Y-8.276 E22.04981
G1 X7.161 Y-8.276 E22.06732
G1 X8.276 Y-7.161 E22.10309
G1 X8.276 Y-7.933 E22.12061
G1 X7.933 Y-8.276 E22.13161
M106 S250
G1 F30000.000 E12.13161
G1 Z0.800
G92 E0
G1 X-8.643 Y8.643 F12000.000
G1 Z0.500
G1 F30000.000 E10.00000
G1 X-8.643 Y-8.643 F1800.000 E10.38703
G1 X8.643 Y-8.643 E10.77406
