; generated by Slic3r 0.9.9-dev on 2013-02-23 at 14:50:55

; This Slic3r config is for the Rostock delta robot 3D printer prototype.

; layer_height = 0.1
; perimeters = 3
; top_solid_layers = 3
; bottom_solid_layers = 3
; fill_density = 1
; perimeter_speed = 25
; infill_speed = 35
; travel_speed = 200
; scale = 1
; nozzle_diameter = 0.35
; filament_diameter = 1.75
; extrusion_multiplier = .98
; perimeters extrusion width = 0.56mm
; infill extrusion width = 0.56mm
; first layer extrusion width = 0.20mm

M107
M190 S50 ; wait for bed temperature to be reached
M104 S215 ; set temperature
M109 S215 ; wait for temperature to be reached
G28 ; home all axes
G1 Z10 F24000 ; move to print surface
G90 ; use absolute coordinates
G21 ; set units to millimeters
G92 E0
M82 ; use absolute distances for extrusion
G1 F54000.000 E-5.00000
G1 Z0.600
G92 E0
G1 X-10.170 Y16.360 F12000.000
G1 Z0.300
G1 F54000.000 E5.00000
G1 X-10.960 Y16.280 F375.000 E5.00751
G1 X-11.490 Y16.170 E5.01263
G1 X-12.000 Y16.010 E5.01769
G1 X-12.500 Y15.820 E5.02275
G1 X-12.980 Y15.590 E5.02778
G1 X-13.440 Y15.310 E5.03288
G1 X-13.870 Y15.000 E5.03789
G1 X-14.280 Y14.660 E5.04293
G1 X-14.660 Y14.280 E5.04802
G1 X-15.000 Y13.870 E5.05306
G1 X-15.310 Y13.440 E5.05807
G1 X-15.590 Y12.980 E5.06317
G1 X-15.820 Y12.500 E5.06820
G1 X-16.100 Y11.740 E5.07586
G1 X-16.280 Y10.960 E5.08344
G1 X-16.360 Y10.170 E5.09095
G1 X-16.360 Y-10.170 E5.28337
G1 X-16.280 Y-10.960 E5.29088
G1 X-16.100 Y-11.740 E5.29845
G1 X-15.920 Y-12.250 E5.30357
G1 X-15.710 Y-12.740 E5.30861
G1 X-15.590 Y-12.980 E5.31115
G1 X-15.160 Y-13.660 E5.31876
G1 X-14.660 Y-14.280 E5.32630
G1 X-14.280 Y-14.660 E5.33138
G1 X-13.660 Y-15.160 E5.33892
G1 X-12.980 Y-15.590 E5.34653
G1 X-12.250 Y-15.920 E5.35411
G1 X-11.490 Y-16.170 E5.36168
G1 X-10.960 Y-16.280 E5.36680
G1 X-10.170 Y-16.360 E5.37431
G1 X10.170 Y-16.360 E5.56673
G1 X10.960 Y-16.280 E5.57424
G1 X11.740 Y-16.100 E5.58182
G1 X12.250 Y-15.920 E5.58693
G1 X12.740 Y-15.710 E5.59198
G1 X12.980 Y-15.590 E5.59451
G1 X13.660 Y-15.160 E5.60213
G1 X14.280 Y-14.660 E5.60966
G1 X14.660 Y-14.280 E5.61475
G1 X15.160 Y-13.660 E5.62228
G1 X15.590 Y-12.980 E5.62989
G1 X15.920 Y-12.250 E5.63747
G1 X16.170 Y-11.490 E5.64504
G1 X16.280 Y-10.960 E5.65016
G1 X16.360 Y-10.170 E5.65767
G1 X16.360 Y10.170 E5.85009
G1 X16.280 Y10.960 E5.85761
G1 X16.100 Y11.740 E5.86518
G1 X15.920 Y12.250 E5.87030
G1 X15.710 Y12.740 E5.87534
G1 X15.590 Y12.980 E5.87788
G1 X15.160 Y13.660 E5.88549
G1 X14.660 Y14.280 E5.89302
G1 X14.280 Y14.660 E5.89811
G1 X13.660 Y15.160 E5.90564
G1 X12.980 Y15.590 E5.91325
G1 X12.500 Y15.820 E5.91829
G1 X11.740 Y16.100 E5.92595
G1 X10.960 Y16.280 E5.93352
G1 X10.430 Y16.340 E5.93857
G1 X10.170 Y16.360 E5.94104
G1 X-10.135 Y16.360 E6.13313
G1 X-10.160 Y16.130 F12000.000
G1 X-10.930 Y16.050 F375.000 E6.14045
G1 X-11.180 Y16.000 E6.14287
G1 X-11.680 Y15.870 E6.14775
G1 X-12.170 Y15.710 E6.15263
G1 X-12.640 Y15.500 E6.15750
G1 X-13.310 Y15.120 E6.16479
G1 X-13.930 Y14.660 E6.17209
G1 X-14.310 Y14.310 E6.17698
G1 X-14.660 Y13.930 E6.18186
G1 X-15.120 Y13.310 E6.18917
G1 X-15.380 Y12.870 E6.19400
G1 X-15.710 Y12.170 E6.20132
G1 X-15.940 Y11.430 E6.20865
G1 X-16.050 Y10.930 E6.21350
G1 X-16.130 Y10.160 E6.22082
G1 X-16.130 Y-10.160 E6.41305
G1 X-16.050 Y-10.930 E6.42038
G1 X-16.000 Y-11.180 E6.42279
G1 X-15.870 Y-11.680 E6.42768
G1 X-15.710 Y-12.170 E6.43255
G1 X-15.380 Y-12.870 E6.43987
G1 X-15.120 Y-13.310 E6.44471
G1 X-14.820 Y-13.730 E6.44959
G1 X-14.310 Y-14.310 E6.45690
G1 X-13.930 Y-14.660 E6.46179
G1 X-13.310 Y-15.120 E6.46909
G1 X-12.640 Y-15.500 E6.47638
G1 X-12.170 Y-15.710 E6.48125
G1 X-11.430 Y-15.940 E6.48858
G1 X-10.930 Y-16.050 E6.49342
G1 X-10.160 Y-16.130 E6.50074
G1 X10.160 Y-16.130 E6.69298
G1 X10.930 Y-16.050 E6.70030
G1 X11.180 Y-16.000 E6.70271
G1 X11.680 Y-15.870 E6.70760
G1 X12.170 Y-15.710 E6.71248
G1 X12.870 Y-15.380 E6.71980
G1 X13.310 Y-15.120 E6.72463
G1 X13.730 Y-14.820 E6.72952
G1 X14.310 Y-14.310 E6.73682
G1 X14.660 Y-13.930 E6.74171
G1 X15.120 Y-13.310 E6.74901
G1 X15.500 Y-12.640 E6.75630
G1 X15.710 Y-12.170 E6.76117
G1 X15.940 Y-11.430 E6.76850
G1 X16.050 Y-10.930 E6.77334
G1 X16.130 Y-10.160 E6.78067
G1 X16.130 Y10.160 E6.97290
G1 X16.050 Y10.930 E6.98022
G1 X16.000 Y11.180 E6.98264
G1 X15.870 Y11.680 E6.98752
G1 X15.710 Y12.170 E6.99240
G1 X15.380 Y12.870 E6.99972
G1 X15.120 Y13.310 E7.00456
G1 X14.820 Y13.730 E7.00944
G1 X14.310 Y14.310 E7.01675
G1 X13.930 Y14.660 E7.02163
G1 X13.310 Y15.120 E7.02894
G1 X12.870 Y15.380 E7.03377
G1 X12.170 Y15.710 E7.04109
G1 X11.680 Y15.870 E7.04597
G1 X10.930 Y16.050 E7.05327
G1 X10.410 Y16.110 E7.05822
G1 X10.160 Y16.130 E7.06059
G1 X-10.125 Y16.130 E7.25249
G1 F54000.000 E2.25249
G1 Z0.600
G92 E0
G1 X9.436 Y9.436 F12000.000
G1 Z0.300
G1 F54000.000 E5.00000
G1 X-9.436 Y9.436 F375.000 E5.17853
G1 X-9.436 Y-9.436 E5.35705
G1 X9.436 Y-9.436 E5.53558
G1 X9.436 Y9.401 E5.71378
G1 X9.668 Y9.668 F12000.000
G1 X-9.668 Y9.668 F375.000 E5.89670
G1 X-9.668 Y-9.668 E6.07962
G1 X9.668 Y-9.668 E6.26254
G1 X9.668 Y9.633 E6.44513
G1 X9.900 Y9.900 F12000.000
G1 X-9.900 Y9.900 F375.000 E6.63245
G1 X-9.900 Y-9.900 E6.81976
G1 X9.900 Y-9.900 E7.00707
G1 X9.900 Y9.865 E7.19406
G1 X9.699 Y9.784 F12000.000
G1 F54000.000 E2.19406
G1 Z0.600
G92 E0
G1 X-9.129 Y9.277 F12000.000
G1 Z0.300
G1 F54000.000 E5.00000
G1 X-9.277 Y9.129 F393.750 E5.00198
G1 X-9.277 Y8.801 E5.00509
G1 X-8.801 Y9.277 E5.01148
G1 X-8.472 Y9.277 E5.01459
G1 X-9.277 Y8.472 E5.02538
G1 X-9.277 Y8.143 E5.02849
G1 X-8.143 Y9.277 E5.04368
G1 X-7.815 Y9.277 E5.04679
G1 X-9.277 Y7.815 E5.06638
G1 X-9.277 Y7.486 E5.06949
G1 X-7.486 Y9.277 E5.09348
G1 X-7.157 Y9.277 E5.09659
G1 X-9.277 Y7.157 E5.12499
G1 X-9.277 Y6.829 E5.12810
G1 X-6.829 Y9.277 E5.16090
G1 X-6.500 Y9.277 E5.16401
G1 X-9.277 Y6.500 E5.20121
G1 X-9.277 Y6.171 E5.20432
G1 X-6.171 Y9.277 E5.24592
G1 X-5.843 Y9.277 E5.24903
G1 X-9.277 Y5.843 E5.29503
G1 X-9.277 Y5.514 E5.29814
G1 X-5.514 Y9.277 E5.34855
G1 X-5.185 Y9.277 E5.35166
G1 X-9.277 Y5.185 E5.40646
G1 X-9.277 Y4.856 E5.40958
G1 X-4.856 Y9.277 E5.46878
G1 X-4.528 Y9.277 E5.47190
G1 X-9.277 Y4.528 E5.53551
G1 X-9.277 Y4.199 E5.53862
G1 X-4.199 Y9.277 E5.60663
G1 X-3.870 Y9.277 E5.60974
G1 X-9.277 Y3.870 E5.68215
G1 X-9.277 Y3.542 E5.68527
G1 X-3.542 Y9.277 E5.76208
G1 X-3.213 Y9.277 E5.76519
G1 X-9.277 Y3.213 E5.84641
G1 X-9.277 Y2.884 E5.84952
G1 X-2.884 Y9.277 E5.93514
G1 X-2.556 Y9.277 E5.93826
G1 X-9.277 Y2.556 E6.02828
G1 X-9.277 Y2.227 E6.03139
G1 X-2.227 Y9.277 E6.12581
G1 X-1.898 Y9.277 E6.12892
G1 X-9.277 Y1.898 E6.22775
G1 X-9.277 Y1.569 E6.23086
G1 X-1.569 Y9.277 E6.33409
G1 X-1.241 Y9.277 E6.33720
G1 X-9.277 Y1.241 E6.44483
G1 X-9.277 Y0.912 E6.44794
G1 X-0.912 Y9.277 E6.55997
G1 X-0.583 Y9.277 E6.56308
G1 X-9.277 Y0.583 E6.67952
G1 X-9.277 Y0.255 E6.68263
G1 X-0.255 Y9.277 E6.80346
G1 X0.074 Y9.277 E6.80658
G1 X-9.277 Y-0.074 E6.93181
G1 X-9.277 Y-0.403 E6.93492
G1 X0.403 Y9.277 E7.06456
G1 X0.731 Y9.277 E7.06768
G1 X-9.277 Y-0.731 E7.20172
G1 X-9.277 Y-1.060 E7.20483
G1 X1.060 Y9.277 E7.34327
G1 X1.389 Y9.277 E7.34638
G1 X-9.277 Y-1.389 E7.48923
G1 X-9.277 Y-1.717 E7.49234
G1 X1.717 Y9.277 E7.63959
G1 X2.046 Y9.277 E7.64270
G1 X-9.277 Y-2.046 E7.79435
G1 X-9.277 Y-2.375 E7.79746
G1 X2.375 Y9.277 E7.95351
G1 X2.704 Y9.277 E7.95662
G1 X-9.277 Y-2.704 E8.11707
G1 X-9.277 Y-3.032 E8.12019
G1 X3.032 Y9.277 E8.28504
G1 X3.361 Y9.277 E8.28815
G1 X-9.277 Y-3.361 E8.45741
G1 X-9.277 Y-3.690 E8.46052
G1 X3.690 Y9.277 E8.63418
G1 X4.018 Y9.277 E8.63729
G1 X-9.277 Y-4.018 E8.81535
G1 X-9.277 Y-4.347 E8.81846
G1 X4.347 Y9.277 E9.00092
G1 X4.676 Y9.277 E9.00404
G1 X-9.277 Y-4.676 E9.19090
G1 X-9.277 Y-5.004 E9.19401
G1 X5.004 Y9.277 E9.38528
G1 X5.333 Y9.277 E9.38839
G1 X-9.277 Y-5.333 E9.58406
G1 X-9.277 Y-5.662 E9.58717
G1 X5.662 Y9.277 E9.78724
G1 X5.990 Y9.277 E9.79035
G1 X-9.277 Y-5.990 E9.99483
G1 X-9.277 Y-6.319 E9.99794
G1 X6.319 Y9.277 E10.20681
G1 X6.648 Y9.277 E10.20992
G1 X-9.277 Y-6.648 E10.42320
G1 X-9.277 Y-6.977 E10.42631
G1 X6.977 Y9.277 E10.64399
G1 X7.305 Y9.277 E10.64710
G1 X-9.277 Y-7.305 E10.86918
G1 X-9.277 Y-7.634 E10.87229
G1 X7.634 Y9.277 E11.09877
G1 X7.963 Y9.277 E11.10189
G1 X-9.277 Y-7.963 E11.33277
G1 X-9.277 Y-8.291 E11.33588
G1 X8.291 Y9.277 E11.57117
G1 X8.620 Y9.277 E11.57428
G1 X-9.277 Y-8.620 E11.81397
G1 X-9.277 Y-8.949 E11.81708
G1 X8.949 Y9.277 E12.06117
G1 X9.277 Y9.277 E12.06428
G1 X-9.277 Y-9.277 E12.31277
G1 X-8.949 Y-9.277 E12.31588
G1 X9.277 Y8.949 E12.55997
G1 X9.277 Y8.620 E12.56308
G1 X-8.620 Y-9.277 E12.80277
G1 X-8.291 Y-9.277 E12.80588
G1 X9.277 Y8.291 E13.04116
G1 X9.277 Y7.963 E13.04428
G1 X-7.963 Y-9.277 E13.27516
G1 X-7.634 Y-9.277 E13.27827
G1 X9.277 Y7.634 E13.50475
G1 X9.277 Y7.305 E13.50787
G1 X-7.305 Y-9.277 E13.72994
G1 X-6.977 Y-9.277 E13.73306
G1 X9.277 Y6.977 E13.95073
G1 X9.277 Y6.648 E13.95385
G1 X-6.648 Y-9.277 E14.16712
G1 X-6.319 Y-9.277 E14.17023
G1 X9.277 Y6.319 E14.37911
G1 X9.277 Y5.990 E14.38222
G1 X-5.990 Y-9.277 E14.58669
G1 X-5.662 Y-9.277 E14.58980
G1 X9.277 Y5.662 E14.78987
G1 X9.277 Y5.333 E14.79298
G1 X-5.333 Y-9.277 E14.98865
G1 X-5.004 Y-9.277 E14.99176
G1 X9.277 Y5.004 E15.18303
G1 X9.277 Y4.676 E15.18614
G1 X-4.676 Y-9.277 E15.37300
G1 X-4.347 Y-9.277 E15.37612
G1 X9.277 Y4.347 E15.55858
G1 X9.277 Y4.018 E15.56169
G1 X-4.018 Y-9.277 E15.73975
G1 X-3.690 Y-9.277 E15.74286
G1 X9.277 Y3.690 E15.91652
G1 X9.277 Y3.361 E15.91963
G1 X-3.361 Y-9.277 E16.08889
G1 X-3.032 Y-9.277 E16.09200
G1 X9.277 Y3.032 E16.25685
G1 X9.277 Y2.704 E16.25997
G1 X-2.704 Y-9.277 E16.42042
G1 X-2.375 Y-9.277 E16.42353
G1 X9.277 Y2.375 E16.57958
G1 X9.277 Y2.046 E16.58269
G1 X-2.046 Y-9.277 E16.73434
G1 X-1.717 Y-9.277 E16.73745
G1 X9.277 Y1.717 E16.88470
G1 X9.277 Y1.389 E16.88781
G1 X-1.389 Y-9.277 E17.03065
G1 X-1.060 Y-9.277 E17.03377
G1 X9.277 Y1.060 E17.17221
G1 X9.277 Y0.731 E17.17532
G1 X-0.731 Y-9.277 E17.30936
G1 X-0.403 Y-9.277 E17.31247
G1 X9.277 Y0.403 E17.44211
G1 X9.277 Y0.074 E17.44522
G1 X-0.074 Y-9.277 E17.57046
G1 X0.255 Y-9.277 E17.57357
G1 X9.277 Y-0.255 E17.69440
G1 X9.277 Y-0.583 E17.69752
G1 X0.583 Y-9.277 E17.81395
G1 X0.912 Y-9.277 E17.81706
G1 X9.277 Y-0.912 E17.92909
G1 X9.277 Y-1.241 E17.93220
G1 X1.241 Y-9.277 E18.03983
G1 X1.570 Y-9.277 E18.04294
G1 X9.277 Y-1.570 E18.14617
G1 X9.277 Y-1.898 E18.14928
G1 X1.898 Y-9.277 E18.24811
G1 X2.227 Y-9.277 E18.25122
G1 X9.277 Y-2.227 E18.34564
G1 X9.277 Y-2.556 E18.34875
G1 X2.556 Y-9.277 E18.43877
G1 X2.884 Y-9.277 E18.44189
G1 X9.277 Y-2.884 E18.52750
G1 X9.277 Y-3.213 E18.53062
G1 X3.213 Y-9.277 E18.61183
G1 X3.542 Y-9.277 E18.61495
G1 X9.277 Y-3.542 E18.69176
G1 X9.277 Y-3.870 E18.69487
G1 X3.870 Y-9.277 E18.76728
G1 X4.199 Y-9.277 E18.77040
G1 X9.277 Y-4.199 E18.83841
G1 X9.277 Y-4.528 E18.84152
G1 X4.528 Y-9.277 E18.90513
G1 X4.856 Y-9.277 E18.90824
G1 X9.277 Y-4.856 E18.96745
G1 X9.277 Y-5.185 E18.97056
G1 X5.185 Y-9.277 E19.02536
G1 X5.514 Y-9.277 E19.02848
G1 X9.277 Y-5.514 E19.07888
G1 X9.277 Y-5.843 E19.08199
G1 X5.843 Y-9.277 E19.12799
G1 X6.171 Y-9.277 E19.13111
G1 X9.277 Y-6.171 E19.17270
G1 X9.277 Y-6.500 E19.17582
G1 X6.500 Y-9.277 E19.21301
G1 X6.829 Y-9.277 E19.21613
G1 X9.277 Y-6.829 E19.24892
G1 X9.277 Y-7.157 E19.25203
G1 X7.157 Y-9.277 E19.28043
G1 X7.486 Y-9.277 E19.28354
G1 X9.277 Y-7.486 E19.30753
G1 X9.277 Y-7.815 E19.31064
G1 X7.815 Y-9.277 E19.33023
G1 X8.143 Y-9.277 E19.33334
G1 X9.277 Y-8.143 E19.34853
G1 X9.277 Y-8.472 E19.35164
G1 X8.472 Y-9.277 E19.36243
G1 X8.801 Y-9.277 E19.36554
G1 X9.277 Y-8.801 E19.37192
G1 X9.277 Y-9.130 E19.37504
G1 X9.129 Y-9.277 E19.37702
M106 S202
G1 F54000.000 E14.37702
G1 Z0.700
G92 E0
G1 X-8.643 Y-8.643 F12000.000
G1 Z0.400
G1 F54000.000 E5.00000
G1 X8.643 Y-8.643 F1500.000 E5.37929
G1 X8.643 Y8.643 E5.75857
G1 X-8.643 Y8.643 E6.13786
G1 X-8.643 Y-8.562 E6.51538
G1 X-9.181 Y-9.181 F12000.000
G1 X9.181 Y-9.181 F1500.000 E6.91830
G1 X9.181 Y9.181 E7.32122
G1 X-9.181 Y9.181 E7.72414
G1 X-9.181 Y-9.101 E8.12529
G1 X-9.720 Y-9.720 F12000.000
G1 X9.720 Y-9.720 F1500.000 E8.55184
G1 X9.720 Y9.720 E8.97840
G1 X-9.720 Y9.720 E9.40495
G1 X-9.720 Y-9.639 E9.82973
G1 X-9.254 Y-9.451 F12000.000
G1 X-8.276 Y-7.933
G1 X-7.933 Y-8.276 F1575.000 E9.84051
G1 X-7.161 Y-8.276 E9.85768
G1 X-8.276 Y-7.161 E9.89273
G1 X-8.276 Y-6.389 E9.90990
G1 X-6.389 Y-8.276 E9.96923
G1 X-5.617 Y-8.276 E9.98639
G1 X-8.276 Y-5.617 E10.06999
G1 X-8.276 Y-4.846 E10.08716
G1 X-4.846 Y-8.276 E10.19503
G1 X-4.074 Y-8.276 E10.21219
G1 X-8.276 Y-4.074 E10.34434
G1 X-8.276 Y-3.302 E10.36151
G1 X-3.302 Y-8.276 E10.51793
G1 X-2.530 Y-8.276 E10.53509
G1 X-8.276 Y-2.530 E10.71579
G1 X-8.276 Y-1.758 E10.73295
G1 X-1.758 Y-8.276 E10.93792
G1 X-0.986 Y-8.276 E10.95508
G1 X-8.276 Y-0.986 E11.18432
G1 X-8.276 Y-0.214 E11.20148
G1 X-0.215 Y-8.276 E11.45500
G1 X0.557 Y-8.276 E11.47216
G1 X-8.276 Y0.557 E11.74995
G1 X-8.276 Y1.329 E11.76711
G1 X1.329 Y-8.276 E12.06917
G1 X2.101 Y-8.276 E12.08633
G1 X-8.276 Y2.101 E12.41267
G1 X-8.276 Y2.873 E12.42983
G1 X2.873 Y-8.276 E12.78044
G1 X3.645 Y-8.276 E12.79760
G1 X-8.276 Y3.645 E13.17248
G1 X-8.276 Y4.417 E13.18964
G1 X4.417 Y-8.276 E13.58879
G1 X5.188 Y-8.276 E13.60596
G1 X-8.276 Y5.188 E14.02938
G1 X-8.276 Y5.960 E14.04655
G1 X5.960 Y-8.276 E14.49425
G1 X6.732 Y-8.276 E14.51141
G1 X-8.276 Y6.732 E14.98338
G1 X-8.276 Y7.504 E15.00054
G1 X7.504 Y-8.276 E15.49679
G1 X8.276 Y-8.276 E15.51395
G1 X-8.276 Y8.276 E16.03446
G1 X-7.504 Y8.276 E16.05162
G1 X8.276 Y-7.504 E16.54787
G1 X8.276 Y-6.732 E16.56503
G1 X-6.732 Y8.276 E17.03700
G1 X-5.960 Y8.276 E17.05417
G1 X8.276 Y-5.960 E17.50187
G1 X8.276 Y-5.188 E17.51903
G1 X-5.188 Y8.276 E17.94246
G1 X-4.417 Y8.276 E17.95962
G1 X8.276 Y-4.417 E18.35877
G1 X8.276 Y-3.645 E18.37594
G1 X-3.645 Y8.276 E18.75082
G1 X-2.873 Y8.276 E18.76798
G1 X8.276 Y-2.873 E19.11859
G1 X8.276 Y-2.101 E19.13575
G1 X-2.101 Y8.276 E19.46209
G1 X-1.329 Y8.276 E19.47925
G1 X8.276 Y-1.329 E19.78131
G1 X8.276 Y-0.557 E19.79847
G1 X-0.557 Y8.276 E20.07626
G1 X0.214 Y8.276 E20.09343
G1 X8.276 Y0.214 E20.34694
G1 X8.276 Y0.986 E20.36411
G1 X0.986 Y8.276 E20.59335
G1 X1.758 Y8.276 E20.61051
G1 X8.276 Y1.758 E20.81548
G1 X8.276 Y2.530 E20.83264
G1 X2.530 Y8.276 E21.01334
G1 X3.302 Y8.276 E21.03050
G1 X8.276 Y3.302 E21.18693
G1 X8.276 Y4.074 E21.20409
G1 X4.074 Y8.276 E21.33624
G1 X4.846 Y8.276 E21.35340
G1 X8.276 Y4.846 E21.46128
G1 X8.276 Y5.617 E21.47844
G1 X5.617 Y8.276 E21.56205
G1 X6.389 Y8.276 E21.57921
G1 X8.276 Y6.389 E21.63854
G1 X8.276 Y7.161 E21.65570
G1 X7.161 Y8.276 E21.69076
G1 X7.933 Y8.276 E21.70792
G1 X8.276 Y7.933 E21.71871
M106 S202
G1 F54000.000 E16.71871
G1 Z0.800
G92 E0
G1 X8.643 Y8.643 F12000.000
G1 Z0.500
G1 F54000.000 E5.00000
G1 X-8.643 Y8.643 F1500.000 E5.37929
G1 X-8.643 Y-8.643 E5.75857
G1 X8.643 Y-8.643 E6.13786
G1 X8.643 Y8.562 E6.51538
G1 X9.181 Y9.181 F12000.000
G1 X-9.181 Y9.181 F1500.000 E6.91830
G1 X-9.181 Y-9.181 E7.32122
G1 X9.181 Y-9.181 E7.72414
G1 X9.181 Y9.101 E8.12529
G1 X9.720 Y9.720 F12000.000
G1 X-9.720 Y9.720 F1500.000 E8.55184
G1 X-9.720 Y-9.720 E8.97840
G1 X9.720 Y-9.720 E9.40495
G1 X9.720 Y9.639 E9.82973
G1 X9.254 Y9.451 F12000.000
G1 F54000.000 E4.82973
G1 Z0.800
G92 E0
G1 X-7.933 Y8.276 F12000.000
G1 Z0.500
G1 F54000.000 E5.00000
G1 X-8.276 Y7.933 F1575.000 E5.01078
G1 X-8.276 Y7.161 E5.02795
G1 X-7.161 Y8.276 E5.06301
G1 X-6.389 Y8.276 E5.08017
G1 X-8.276 Y6.389 E5.13950
G1 X-8.276 Y5.617 E5.15666
G1 X-5.617 Y8.276 E5.24027
G1 X-4.846 Y8.276 E5.25743
G1 X-8.276 Y4.846 E5.36531
G1 X-8.276 Y4.074 E5.38247
G1 X-4.074 Y8.276 E5.51462
G1 X-3.302 Y8.276 E5.53178
G1 X-8.276 Y3.302 E5.68821
G1 X-8.276 Y2.530 E5.70537
G1 X-2.530 Y8.276 E5.88607
G1 X-1.758 Y8.276 E5.90323
G1 X-8.276 Y1.758 E6.10820
G1 X-8.276 Y0.986 E6.12536
G1 X-0.986 Y8.276 E6.35460
G1 X-0.214 Y8.276 E6.37177
G1 X-8.276 Y0.214 E6.62528
G1 X-8.276 Y-0.557 E6.64245
G1 X0.557 Y8.276 E6.92023
G1 X1.329 Y8.276 E6.93740
G1 X-8.276 Y-1.329 E7.23946
G1 X-8.276 Y-2.101 E7.25662
G1 X2.101 Y8.276 E7.58296
G1 X2.873 Y8.276 E7.60012
G1 X-8.276 Y-2.873 E7.95073
G1 X-8.276 Y-3.645 E7.96789
G1 X3.645 Y8.276 E8.34277
