; generated by Slic3r 0.9.9-dev on 2013-02-17 at 22:25:49

; This Slic3r config is for the Rostock delta robot 3D printer prototype.

; layer_height = 0.1
; perimeters = 3
; top_solid_layers = 3
; bottom_solid_layers = 3
; fill_density = 1
; perimeter_speed = 30
; infill_speed = 60
; travel_speed = 200
; scale = 1
; nozzle_diameter = 0.35
; filament_diameter = 1.75
; extrusion_multiplier = 1
; perimeters extrusion width = 0.56mm
; infill extrusion width = 0.56mm
; first layer extrusion width = 0.20mm

M107
M190 S60 ; wait for bed temperature to be reached
M104 S180 ; set temperature
M109 S185 ; wait for temperature to be reached
G28 ; home all axes
G1 Z10 F24000 ; move to print surface
G90 ; use absolute coordinates
G21 ; set units to millimeters
G92 E0
M82 ; use absolute distances for extrusion
G1 F60000.000 E-5.00000
G1 Z0.450
G92 E0
G1 X-10.170 Y16.360 F12000.000
G1 Z0.150
G1 F60000.000 E5.00000
G1 X-10.960 Y16.280 F450.000 E5.00767
G1 X-11.490 Y16.170 E5.01289
G1 X-12.000 Y16.010 E5.01805
G1 X-12.500 Y15.820 E5.02321
G1 X-12.980 Y15.590 E5.02835
G1 X-13.440 Y15.310 E5.03355
G1 X-13.870 Y15.000 E5.03867
G1 X-14.280 Y14.660 E5.04381
G1 X-14.660 Y14.280 E5.04900
G1 X-15.000 Y13.870 E5.05414
G1 X-15.310 Y13.440 E5.05926
G1 X-15.590 Y12.980 E5.06445
G1 X-15.820 Y12.500 E5.06959
G1 X-16.100 Y11.740 E5.07741
G1 X-16.280 Y10.960 E5.08514
G1 X-16.360 Y10.170 E5.09280
G1 X-16.360 Y-10.170 E5.28915
G1 X-16.280 Y-10.960 E5.29682
G1 X-16.100 Y-11.740 E5.30455
G1 X-15.920 Y-12.250 E5.30977
G1 X-15.710 Y-12.740 E5.31491
G1 X-15.590 Y-12.980 E5.31750
G1 X-15.160 Y-13.660 E5.32527
G1 X-14.660 Y-14.280 E5.33296
G1 X-14.280 Y-14.660 E5.33815
G1 X-13.660 Y-15.160 E5.34583
G1 X-12.980 Y-15.590 E5.35360
G1 X-12.250 Y-15.920 E5.36133
G1 X-11.490 Y-16.170 E5.36906
G1 X-10.960 Y-16.280 E5.37428
G1 X-10.170 Y-16.360 E5.38195
G1 X10.170 Y-16.360 E5.57830
G1 X10.960 Y-16.280 E5.58596
G1 X11.740 Y-16.100 E5.59369
G1 X12.250 Y-15.920 E5.59891
G1 X12.740 Y-15.710 E5.60406
G1 X12.980 Y-15.590 E5.60665
G1 X13.660 Y-15.160 E5.61441
G1 X14.280 Y-14.660 E5.62210
G1 X14.660 Y-14.280 E5.62729
G1 X15.160 Y-13.660 E5.63498
G1 X15.590 Y-12.980 E5.64275
G1 X15.920 Y-12.250 E5.65048
G1 X16.170 Y-11.490 E5.65820
G1 X16.280 Y-10.960 E5.66343
G1 X16.360 Y-10.170 E5.67109
G1 X16.360 Y10.170 E5.86744
G1 X16.280 Y10.960 E5.87511
G1 X16.100 Y11.740 E5.88284
G1 X15.920 Y12.250 E5.88806
G1 X15.710 Y12.740 E5.89320
G1 X15.590 Y12.980 E5.89579
G1 X15.160 Y13.660 E5.90356
G1 X14.660 Y14.280 E5.91125
G1 X14.280 Y14.660 E5.91644
G1 X13.660 Y15.160 E5.92412
G1 X12.980 Y15.590 E5.93189
G1 X12.500 Y15.820 E5.93703
G1 X11.740 Y16.100 E5.94485
G1 X10.960 Y16.280 E5.95258
G1 X10.430 Y16.340 E5.95772
G1 X10.170 Y16.360 E5.96024
G1 X-10.135 Y16.360 E6.15625
G1 X-10.160 Y16.130 F12000.000
G1 X-10.930 Y16.050 F450.000 E6.16373
G1 X-11.180 Y16.000 E6.16619
G1 X-11.680 Y15.870 E6.17118
G1 X-12.170 Y15.710 E6.17615
G1 X-12.640 Y15.500 E6.18112
G1 X-13.310 Y15.120 E6.18856
G1 X-13.930 Y14.660 E6.19601
G1 X-14.310 Y14.310 E6.20100
G1 X-14.660 Y13.930 E6.20598
G1 X-15.120 Y13.310 E6.21344
G1 X-15.380 Y12.870 E6.21837
G1 X-15.710 Y12.170 E6.22584
G1 X-15.940 Y11.430 E6.23332
G1 X-16.050 Y10.930 E6.23826
G1 X-16.130 Y10.160 E6.24574
G1 X-16.130 Y-10.160 E6.44189
G1 X-16.050 Y-10.930 E6.44937
G1 X-16.000 Y-11.180 E6.45183
G1 X-15.870 Y-11.680 E6.45681
G1 X-15.710 Y-12.170 E6.46179
G1 X-15.380 Y-12.870 E6.46926
G1 X-15.120 Y-13.310 E6.47419
G1 X-14.820 Y-13.730 E6.47918
G1 X-14.310 Y-14.310 E6.48663
G1 X-13.930 Y-14.660 E6.49162
G1 X-13.310 Y-15.120 E6.49907
G1 X-12.640 Y-15.500 E6.50651
G1 X-12.170 Y-15.710 E6.51148
G1 X-11.430 Y-15.940 E6.51896
G1 X-10.930 Y-16.050 E6.52390
G1 X-10.160 Y-16.130 E6.53137
G1 X10.160 Y-16.130 E6.72753
G1 X10.930 Y-16.050 E6.73500
G1 X11.180 Y-16.000 E6.73746
G1 X11.680 Y-15.870 E6.74245
G1 X12.170 Y-15.710 E6.74743
G1 X12.870 Y-15.380 E6.75490
G1 X13.310 Y-15.120 E6.75983
G1 X13.730 Y-14.820 E6.76481
G1 X14.310 Y-14.310 E6.77227
G1 X14.660 Y-13.930 E6.77725
G1 X15.120 Y-13.310 E6.78471
G1 X15.500 Y-12.640 E6.79214
G1 X15.710 Y-12.170 E6.79711
G1 X15.940 Y-11.430 E6.80459
G1 X16.050 Y-10.930 E6.80954
G1 X16.130 Y-10.160 E6.81701
G1 X16.130 Y10.160 E7.01316
G1 X16.050 Y10.930 E7.02064
G1 X16.000 Y11.180 E7.02310
G1 X15.870 Y11.680 E7.02809
G1 X15.710 Y12.170 E7.03306
G1 X15.380 Y12.870 E7.04053
G1 X15.120 Y13.310 E7.04547
G1 X14.820 Y13.730 E7.05045
G1 X14.310 Y14.310 E7.05790
G1 X13.930 Y14.660 E7.06289
G1 X13.310 Y15.120 E7.07034
G1 X12.870 Y15.380 E7.07528
G1 X12.170 Y15.710 E7.08275
G1 X11.680 Y15.870 E7.08772
G1 X10.930 Y16.050 E7.09517
G1 X10.410 Y16.110 E7.10022
G1 X10.160 Y16.130 E7.10264
G1 X-10.125 Y16.130 E7.29846
G1 F60000.000 E2.29846
G1 Z0.450
G92 E0
G1 X9.436 Y9.436 F12000.000
G1 Z0.150
G1 F60000.000 E5.00000
G1 X-9.436 Y9.436 F450.000 E5.18217
G1 X-9.436 Y-9.436 E5.36434
G1 X9.436 Y-9.436 E5.54651
G1 X9.436 Y9.401 E5.72835
G1 X9.668 Y9.668 F12000.000
G1 X-9.668 Y9.668 F450.000 E5.91500
G1 X-9.668 Y-9.668 E6.10165
G1 X9.668 Y-9.668 E6.28831
G1 X9.668 Y9.633 E6.47462
G1 X9.900 Y9.900 F12000.000
G1 X-9.900 Y9.900 F450.000 E6.66576
G1 X-9.900 Y-9.900 E6.85690
G1 X9.900 Y-9.900 E7.04803
G1 X9.900 Y9.865 E7.23883
G1 X9.699 Y9.784 F12000.000
G1 F60000.000 E2.23883
G1 Z0.450
G92 E0
G1 X-9.129 Y9.277 F12000.000
G1 Z0.150
G1 F60000.000 E5.00000
G1 X-9.277 Y9.129 F900.000 E5.00202
G1 X-9.277 Y8.801 E5.00520
G1 X-8.801 Y9.277 E5.01171
G1 X-8.472 Y9.277 E5.01489
G1 X-9.277 Y8.472 E5.02589
G1 X-9.277 Y8.143 E5.02907
G1 X-8.143 Y9.277 E5.04457
G1 X-7.815 Y9.277 E5.04774
G1 X-9.277 Y7.815 E5.06773
G1 X-9.277 Y7.486 E5.07091
G1 X-7.486 Y9.277 E5.09539
G1 X-7.157 Y9.277 E5.09857
G1 X-9.277 Y7.157 E5.12754
G1 X-9.277 Y6.829 E5.13071
G1 X-6.829 Y9.277 E5.16418
G1 X-6.500 Y9.277 E5.16736
G1 X-9.277 Y6.500 E5.20531
G1 X-9.277 Y6.171 E5.20849
G1 X-6.171 Y9.277 E5.25094
G1 X-5.843 Y9.277 E5.25411
G1 X-9.277 Y5.843 E5.30105
G1 X-9.277 Y5.514 E5.30423
G1 X-5.514 Y9.277 E5.35566
G1 X-5.185 Y9.277 E5.35884
G1 X-9.277 Y5.185 E5.41476
G1 X-9.277 Y4.856 E5.41794
G1 X-4.856 Y9.277 E5.47835
G1 X-4.528 Y9.277 E5.48153
G1 X-9.277 Y4.528 E5.54643
G1 X-9.277 Y4.199 E5.54961
G1 X-4.199 Y9.277 E5.61901
G1 X-3.870 Y9.277 E5.62219
G1 X-9.277 Y3.870 E5.69608
G1 X-9.277 Y3.542 E5.69925
G1 X-3.542 Y9.277 E5.77763
G1 X-3.213 Y9.277 E5.78081
G1 X-9.277 Y3.213 E5.86368
G1 X-9.277 Y2.884 E5.86686
G1 X-2.884 Y9.277 E5.95423
G1 X-2.556 Y9.277 E5.95740
G1 X-9.277 Y2.556 E6.04926
G1 X-9.277 Y2.227 E6.05244
G1 X-2.227 Y9.277 E6.14879
G1 X-1.898 Y9.277 E6.15196
G1 X-9.277 Y1.898 E6.25280
G1 X-9.277 Y1.569 E6.25598
G1 X-1.569 Y9.277 E6.36131
G1 X-1.241 Y9.277 E6.36449
G1 X-9.277 Y1.241 E6.47431
G1 X-9.277 Y0.912 E6.47749
G1 X-0.912 Y9.277 E6.59181
G1 X-0.583 Y9.277 E6.59498
G1 X-9.277 Y0.583 E6.71379
G1 X-9.277 Y0.255 E6.71697
G1 X-0.255 Y9.277 E6.84027
G1 X0.074 Y9.277 E6.84344
G1 X-9.277 Y-0.074 E6.97124
G1 X-9.277 Y-0.403 E6.97441
G1 X0.403 Y9.277 E7.10670
G1 X0.731 Y9.277 E7.10987
G1 X-9.277 Y-0.731 E7.24665
G1 X-9.277 Y-1.060 E7.24982
G1 X1.060 Y9.277 E7.39109
G1 X1.389 Y9.277 E7.39427
G1 X-9.277 Y-1.389 E7.54003
G1 X-9.277 Y-1.717 E7.54320
G1 X1.717 Y9.277 E7.69345
G1 X2.046 Y9.277 E7.69663
G1 X-9.277 Y-2.046 E7.85137
G1 X-9.277 Y-2.375 E7.85455
G1 X2.375 Y9.277 E8.01378
G1 X2.704 Y9.277 E8.01696
G1 X-9.277 Y-2.704 E8.18069
G1 X-9.277 Y-3.032 E8.18386
G1 X3.032 Y9.277 E8.35208
G1 X3.361 Y9.277 E8.35526
G1 X-9.277 Y-3.361 E8.52797
G1 X-9.277 Y-3.690 E8.53114
G1 X3.690 Y9.277 E8.70835
G1 X4.018 Y9.277 E8.71152
G1 X-9.277 Y-4.018 E8.89321
G1 X-9.277 Y-4.347 E8.89639
G1 X4.347 Y9.277 E9.08258
G1 X4.676 Y9.277 E9.08575
G1 X-9.277 Y-4.676 E9.27643
G1 X-9.277 Y-5.004 E9.27961
G1 X5.004 Y9.277 E9.47477
G1 X5.333 Y9.277 E9.47795
G1 X-9.277 Y-5.333 E9.67761
G1 X-9.277 Y-5.662 E9.68079
G1 X5.662 Y9.277 E9.88494
G1 X5.990 Y9.277 E9.88812
G1 X-9.277 Y-5.990 E10.09676
G1 X-9.277 Y-6.319 E10.09994
G1 X6.319 Y9.277 E10.31307
G1 X6.648 Y9.277 E10.31625
G1 X-9.277 Y-6.648 E10.53388
G1 X-9.277 Y-6.977 E10.53705
G1 X6.977 Y9.277 E10.75917
G1 X7.305 Y9.277 E10.76235
G1 X-9.277 Y-7.305 E10.98896
G1 X-9.277 Y-7.634 E10.99214
G1 X7.634 Y9.277 E11.22324
G1 X7.963 Y9.277 E11.22642
G1 X-9.277 Y-7.963 E11.46201
G1 X-9.277 Y-8.291 E11.46519
G1 X8.291 Y9.277 E11.70527
G1 X8.620 Y9.277 E11.70845
G1 X-9.277 Y-8.620 E11.95303
G1 X-9.277 Y-8.949 E11.95620
G1 X8.949 Y9.277 E12.20527
G1 X9.277 Y9.277 E12.20845
G1 X-9.277 Y-9.277 E12.46201
G1 X-8.949 Y-9.277 E12.46518
G1 X9.277 Y8.949 E12.71425
G1 X9.277 Y8.620 E12.71743
G1 X-8.620 Y-9.277 E12.96201
G1 X-8.291 Y-9.277 E12.96518
G1 X9.277 Y8.291 E13.20527
G1 X9.277 Y7.963 E13.20845
G1 X-7.963 Y-9.277 E13.44404
G1 X-7.634 Y-9.277 E13.44722
G1 X9.277 Y7.634 E13.67832
G1 X9.277 Y7.305 E13.68150
G1 X-7.305 Y-9.277 E13.90811
G1 X-6.977 Y-9.277 E13.91128
G1 X9.277 Y6.977 E14.13340
G1 X9.277 Y6.648 E14.13658
G1 X-6.648 Y-9.277 E14.35420
G1 X-6.319 Y-9.277 E14.35738
G1 X9.277 Y6.319 E14.57052
G1 X9.277 Y5.990 E14.57369
G1 X-5.990 Y-9.277 E14.78234
G1 X-5.662 Y-9.277 E14.78551
G1 X9.277 Y5.662 E14.98966
G1 X9.277 Y5.333 E14.99284
G1 X-5.333 Y-9.277 E15.19250
G1 X-5.004 Y-9.277 E15.19568
G1 X9.277 Y5.004 E15.39085
G1 X9.277 Y4.676 E15.39402
G1 X-4.676 Y-9.277 E15.58470
G1 X-4.347 Y-9.277 E15.58787
G1 X9.277 Y4.347 E15.77406
G1 X9.277 Y4.018 E15.77723
G1 X-4.018 Y-9.277 E15.95893
G1 X-3.690 Y-9.277 E15.96210
G1 X9.277 Y3.690 E16.13931
G1 X9.277 Y3.361 E16.14248
G1 X-3.361 Y-9.277 E16.31519
G1 X-3.032 Y-9.277 E16.31837
G1 X9.277 Y3.032 E16.48658
G1 X9.277 Y2.704 E16.48976
G1 X-2.704 Y-9.277 E16.65349
G1 X-2.375 Y-9.277 E16.65666
G1 X9.277 Y2.375 E16.81590
G1 X9.277 Y2.046 E16.81907
G1 X-2.046 Y-9.277 E16.97381
G1 X-1.717 Y-9.277 E16.97699
G1 X9.277 Y1.717 E17.12724
G1 X9.277 Y1.389 E17.13042
G1 X-1.389 Y-9.277 E17.27618
G1 X-1.060 Y-9.277 E17.27935
G1 X9.277 Y1.060 E17.42062
G1 X9.277 Y0.731 E17.42380
G1 X-0.731 Y-9.277 E17.56057
G1 X-0.403 Y-9.277 E17.56375
G1 X9.277 Y0.403 E17.69603
G1 X9.277 Y0.074 E17.69921
G1 X-0.074 Y-9.277 E17.82700
G1 X0.255 Y-9.277 E17.83017
G1 X9.277 Y-0.255 E17.95347
G1 X9.277 Y-0.583 E17.95665
G1 X0.583 Y-9.277 E18.07546
G1 X0.912 Y-9.277 E18.07863
G1 X9.277 Y-0.912 E18.19295
G1 X9.277 Y-1.241 E18.19613
G1 X1.241 Y-9.277 E18.30595
G1 X1.570 Y-9.277 E18.30913
G1 X9.277 Y-1.570 E18.41446
G1 X9.277 Y-1.898 E18.41764
G1 X1.898 Y-9.277 E18.51848
G1 X2.227 Y-9.277 E18.52165
G1 X9.277 Y-2.227 E18.61800
G1 X9.277 Y-2.556 E18.62118
G1 X2.556 Y-9.277 E18.71303
G1 X2.884 Y-9.277 E18.71621
G1 X9.277 Y-2.884 E18.80358
G1 X9.277 Y-3.213 E18.80675
G1 X3.213 Y-9.277 E18.88963
G1 X3.542 Y-9.277 E18.89280
G1 X9.277 Y-3.542 E18.97118
G1 X9.277 Y-3.870 E18.97436
G1 X3.870 Y-9.277 E19.04825
G1 X4.199 Y-9.277 E19.05143
G1 X9.277 Y-4.199 E19.12082
G1 X9.277 Y-4.528 E19.12400
G1 X4.528 Y-9.277 E19.18891
G1 X4.856 Y-9.277 E19.19208
G1 X9.277 Y-4.856 E19.25250
G1 X9.277 Y-5.185 E19.25567
G1 X5.185 Y-9.277 E19.31160
G1 X5.514 Y-9.277 E19.31477
G1 X9.277 Y-5.514 E19.36620
G1 X9.277 Y-5.843 E19.36938
G1 X5.843 Y-9.277 E19.41632
G1 X6.171 Y-9.277 E19.41950
G1 X9.277 Y-6.171 E19.46194
G1 X9.277 Y-6.500 E19.46512
G1 X6.500 Y-9.277 E19.50308
G1 X6.829 Y-9.277 E19.50625
G1 X9.277 Y-6.829 E19.53972
G1 X9.277 Y-7.157 E19.54289
G1 X7.157 Y-9.277 E19.57186
G1 X7.486 Y-9.277 E19.57504
G1 X9.277 Y-7.486 E19.59952
G1 X9.277 Y-7.815 E19.60270
G1 X7.815 Y-9.277 E19.62268
G1 X8.143 Y-9.277 E19.62586
G1 X9.277 Y-8.143 E19.64136
G1 X9.277 Y-8.472 E19.64453
G1 X8.472 Y-9.277 E19.65554
G1 X8.801 Y-9.277 E19.65872
G1 X9.277 Y-8.801 E19.66523
G1 X9.277 Y-9.130 E19.66840
G1 X9.129 Y-9.277 E19.67043
M106 S250
G1 F60000.000 E14.67043
G1 Z0.550
G92 E0
G1 X8.643 Y-8.643 F12000.000
G1 Z0.250
G1 F60000.000 E5.00000
G1 X8.643 Y8.643 F1800.000 E5.38703
G1 X-8.643 Y8.643 E5.77406
G1 X-8.643 Y-8.643 E6.16108
G1 X8.562 Y-8.643 E6.54630
G1 X9.181 Y-9.181 F12000.000
G1 X9.181 Y9.181 F1800.000 E6.95745
G1 X-9.181 Y9.181 E7.36859
G1 X-9.181 Y-9.181 E7.77973
G1 X9.101 Y-9.181 E8.18907
G1 X9.720 Y-9.720 F12000.000
G1 X9.720 Y9.720 F1800.000 E8.62433
G1 X-9.720 Y9.720 E9.05959
G1 X-9.720 Y-9.720 E9.49485
G1 X9.639 Y-9.720 E9.92830
G1 X9.451 Y-9.254 F12000.000
G1 F60000.000 E4.92830
G1 Z0.550
G92 E0
G1 X8.276 Y7.933 F12000.000
G1 Z0.250
G1 F60000.000 E5.00000
G1 X7.933 Y8.276 F3600.000 E5.01100
G1 X7.161 Y8.276 E5.02852
G1 X8.276 Y7.161 E5.06429
G1 X8.276 Y6.389 E5.08180
G1 X6.389 Y8.276 E5.14235
G1 X5.617 Y8.276 E5.15986
G1 X8.276 Y5.617 E5.24517
G1 X8.276 Y4.846 E5.26268
G1 X4.846 Y8.276 E5.37276
G1 X4.074 Y8.276 E5.39028
G1 X8.276 Y4.074 E5.52512
G1 X8.276 Y3.302 E5.54264
G1 X3.302 Y8.276 E5.70225
G1 X2.530 Y8.276 E5.71977
G1 X8.276 Y2.530 E5.90415
G1 X8.276 Y1.758 E5.92166
G1 X1.758 Y8.276 E6.13081
G1 X0.986 Y8.276 E6.14833
G1 X8.276 Y0.986 E6.38225
G1 X8.276 Y0.214 E6.39976
G1 X0.214 Y8.276 E6.65845
G1 X-0.557 Y8.276 E6.67596
G1 X8.276 Y-0.557 E6.95942
G1 X8.276 Y-1.329 E6.97694
G1 X-1.329 Y8.276 E7.28516
G1 X-2.101 Y8.276 E7.30268
G1 X8.276 Y-2.101 E7.63567
G1 X8.276 Y-2.873 E7.65318
G1 X-2.873 Y8.276 E8.01095
G1 X-3.645 Y8.276 E8.02846
G1 X8.276 Y-3.645 E8.41099
G1 X8.276 Y-4.417 E8.42850
G1 X-4.417 Y8.276 E8.83580
G1 X-5.188 Y8.276 E8.85332
G1 X8.276 Y-5.188 E9.28539
G1 X8.276 Y-5.960 E9.30290
G1 X-5.960 Y8.276 E9.75974
G1 X-6.732 Y8.276 E9.77725
G1 X8.276 Y-6.732 E10.25885
G1 X8.276 Y-7.504 E10.27637
G1 X-7.504 Y8.276 E10.78274
G1 X-8.276 Y8.276 E10.80025
G1 X8.276 Y-8.276 E11.33139
G1 X7.504 Y-8.276 E11.34890
G1 X-8.276 Y7.504 E11.85527
G1 X-8.276 Y6.732 E11.87278
G1 X6.732 Y-8.276 E12.35439
G1 X5.960 Y-8.276 E12.37190
G1 X-8.276 Y5.960 E12.82874
G1 X-8.276 Y5.188 E12.84625
G1 X5.188 Y-8.276 E13.27832
G1 X4.417 Y-8.276 E13.29583
G1 X-8.276 Y4.417 E13.70313
G1 X-8.276 Y3.645 E13.72064
G1 X3.645 Y-8.276 E14.10317
G1 X2.873 Y-8.276 E14.12069
G1 X-8.276 Y2.873 E14.47845
G1 X-8.276 Y2.101 E14.49596
G1 X2.101 Y-8.276 E14.82895
G1 X1.329 Y-8.276 E14.84647
G1 X-8.276 Y1.329 E15.15469
G1 X-8.276 Y0.557 E15.17220
G1 X0.557 Y-8.276 E15.45566
G1 X-0.215 Y-8.276 E15.47317
G1 X-8.276 Y-0.214 E15.73186
G1 X-8.276 Y-0.986 E15.74938
G1 X-0.986 Y-8.276 E15.98329
G1 X-1.758 Y-8.276 E16.00081
G1 X-8.276 Y-1.758 E16.20996
G1 X-8.276 Y-2.530 E16.22747
G1 X-2.530 Y-8.276 E16.41185
G1 X-3.302 Y-8.276 E16.42937
G1 X-8.276 Y-3.302 E16.58898
G1 X-8.276 Y-4.074 E16.60650
G1 X-4.074 Y-8.276 E16.74134
G1 X-4.846 Y-8.276 E16.75885
G1 X-8.276 Y-4.846 E16.86893
G1 X-8.276 Y-5.617 E16.88644
G1 X-5.617 Y-8.276 E16.97175
G1 X-6.389 Y-8.276 E16.98927
G1 X-8.276 Y-6.389 E17.04981
G1 X-8.276 Y-7.161 E17.06732
G1 X-7.161 Y-8.276 E17.10309
G1 X-7.933 Y-8.276 E17.12061
G1 X-8.276 Y-7.933 E17.13161
G1 F60000.000 E12.13161
G1 Z0.650
G92 E0
G1 X8.643 Y8.643 F12000.000
G1 Z0.350
G1 F60000.000 E5.00000
G1 X-8.643 Y8.643 F1800.000 E5.38703
G1 X-8.643 Y-8.643 E5.77406
G1 X8.643 Y-8.643 E6.16108
G1 X8.643 Y8.562 E6.54630
G1 X9.181 Y9.181 F12000.000
G1 X-9.181 Y9.181 F1800.000 E6.95745
G1 X-9.181 Y-9.181 E7.36859
G1 X9.181 Y-9.181 E7.77973
G1 X9.181 Y9.101 E8.18907
G1 X9.720 Y9.720 F12000.000
G1 X-9.720 Y9.720 F1800.000 E8.62433
G1 X-9.720 Y-9.720 E9.05959
G1 X9.720 Y-9.720 E9.49485
G1 X9.720 Y9.639 E9.92830
G1 X9.254 Y9.451 F12000.000
G1 F60000.000 E4.92830
G1 Z0.650
G92 E0
G1 X-7.933 Y8.276 F12000.000
G1 Z0.350
G1 F60000.000 E5.00000
G1 X-8.276 Y7.933 F3600.000 E5.01100
G1 X-8.276 Y7.161 E5.02852
G1 X-7.161 Y8.276 E5.06429
G1 X-6.389 Y8.276 E5.08180
G1 X-8.276 Y6.389 E5.14235
G1 X-8.276 Y5.617 E5.15986
G1 X-5.617 Y8.276 E5.24517
G1 X-4.846 Y8.276 E5.26268
G1 X-8.276 Y4.846 E5.37276
G1 X-8.276 Y4.074 E5.39028
G1 X-4.074 Y8.276 E5.52512
G1 X-3.302 Y8.276 E5.54264
G1 X-8.276 Y3.302 E5.70225
G1 X-8.276 Y2.530 E5.71977
G1 X-2.530 Y8.276 E5.90415
G1 X-1.758 Y8.276 E5.92166
G1 X-8.276 Y1.758 E6.13081
G1 X-8.276 Y0.986 E6.14833
G1 X-0.986 Y8.276 E6.38225
G1 X-0.214 Y8.276 E6.39976
G1 X-8.276 Y0.214 E6.65845
G1 X-8.276 Y-0.557 E6.67596
G1 X0.557 Y8.276 E6.95942
G1 X1.329 Y8.276 E6.97694
G1 X-8.276 Y-1.329 E7.28516
G1 X-8.276 Y-2.101 E7.30268
G1 X2.101 Y8.276 E7.63567
G1 X2.873 Y8.276 E7.65318
G1 X-8.276 Y-2.873 E8.01095
G1 X-8.276 Y-3.645 E8.02846
