; generated by Slic3r 0.9.9-dev on 2013-02-18 at 18:23:33

; This Slic3r config is for the Rostock delta robot 3D printer prototype.

; layer_height = 0.1
; perimeters = 3
; top_solid_layers = 3
; bottom_solid_layers = 3
; fill_density = .20
; perimeter_speed = 30
; infill_speed = 60
; travel_speed = 200
; scale = 1
; nozzle_diameter = 0.35
; filament_diameter = 1.75
; extrusion_multiplier = .8
; perimeters extrusion width = 0.56mm
; infill extrusion width = 0.56mm
; first layer extrusion width = 0.20mm

M107
M190 S60 ; wait for bed temperature to be reached
M104 S190 ; set temperature
M109 S190 ; wait for temperature to be reached
G28 ; home all axes
G1 Z10 F24000 ; move to print surface
G90 ; use absolute coordinates
G21 ; set units to millimeters
G92 E0
M82 ; use absolute distances for extrusion
G1 F60000.000 E-5.00000
G1 Z0.440
G92 E0
G1 X-5.170 Y11.360 F12000.000
G1 Z0.140
G1 F60000.000 E5.00000
G1 X-5.960 Y11.280 F360.000 E5.00613
G1 X-6.230 Y11.230 E5.00825
G1 X-6.740 Y11.100 E5.01232
G1 X-7.250 Y10.920 E5.01649
G1 X-7.980 Y10.590 E5.02268
G1 X-8.660 Y10.160 E5.02889
G1 X-9.080 Y9.830 E5.03302
G1 X-9.280 Y9.660 E5.03505
G1 X-9.660 Y9.280 E5.03920
G1 X-10.000 Y8.870 E5.04331
G1 X-10.310 Y8.440 E5.04740
G1 X-10.590 Y7.980 E5.05156
G1 X-10.820 Y7.500 E5.05567
G1 X-11.010 Y7.000 E5.05980
G1 X-11.170 Y6.490 E5.06393
G1 X-11.280 Y5.960 E5.06811
G1 X-11.360 Y5.170 E5.07424
G1 X-11.360 Y-5.170 E5.15410
G1 X-11.280 Y-5.960 E5.16023
G1 X-11.100 Y-6.740 E5.16641
G1 X-10.920 Y-7.250 E5.17059
G1 X-10.710 Y-7.740 E5.17470
G1 X-10.590 Y-7.980 E5.17678
G1 X-10.310 Y-8.440 E5.18093
G1 X-9.830 Y-9.080 E5.18711
G1 X-9.660 Y-9.280 E5.18914
G1 X-9.280 Y-9.660 E5.19329
G1 X-8.660 Y-10.160 E5.19944
G1 X-7.980 Y-10.590 E5.20565
G1 X-7.500 Y-10.820 E5.20977
G1 X-6.740 Y-11.100 E5.21602
G1 X-5.960 Y-11.280 E5.22220
G1 X-5.430 Y-11.340 E5.22632
G1 X-5.170 Y-11.360 E5.22833
G1 X5.170 Y-11.360 E5.30819
G1 X5.960 Y-11.280 E5.31432
G1 X6.740 Y-11.100 E5.32050
G1 X7.250 Y-10.920 E5.32468
G1 X7.740 Y-10.710 E5.32880
G1 X7.980 Y-10.590 E5.33087
G1 X8.440 Y-10.310 E5.33503
G1 X9.080 Y-9.830 E5.34120
G1 X9.280 Y-9.660 E5.34323
G1 X9.660 Y-9.280 E5.34738
G1 X10.160 Y-8.660 E5.35353
G1 X10.590 Y-7.980 E5.35975
G1 X10.820 Y-7.500 E5.36386
G1 X11.100 Y-6.740 E5.37011
G1 X11.280 Y-5.960 E5.37629
G1 X11.340 Y-5.430 E5.38041
G1 X11.360 Y-5.170 E5.38243
G1 X11.360 Y5.170 E5.46228
G1 X11.280 Y5.960 E5.46841
G1 X11.100 Y6.740 E5.47459
G1 X10.920 Y7.250 E5.47877
G1 X10.710 Y7.740 E5.48289
G1 X10.590 Y7.980 E5.48496
G1 X10.310 Y8.440 E5.48912
G1 X10.000 Y8.870 E5.49321
G1 X9.660 Y9.280 E5.49732
G1 X9.280 Y9.660 E5.50148
G1 X8.660 Y10.160 E5.50763
G1 X7.980 Y10.590 E5.51384
G1 X7.500 Y10.820 E5.51795
G1 X6.740 Y11.100 E5.52420
G1 X6.230 Y11.230 E5.52827
G1 X5.960 Y11.280 E5.53039
G1 X5.170 Y11.360 E5.53652
G1 X-5.135 Y11.360 E5.61611
G1 X-5.160 Y11.130 F12000.000
G1 X-5.930 Y11.050 F360.000 E5.62208
G1 X-6.180 Y11.000 E5.62405
G1 X-6.680 Y10.870 E5.62804
G1 X-7.170 Y10.710 E5.63202
G1 X-7.640 Y10.500 E5.63600
G1 X-8.310 Y10.120 E5.64195
G1 X-8.930 Y9.660 E5.64791
G1 X-9.310 Y9.310 E5.65190
G1 X-9.660 Y8.930 E5.65589
G1 X-10.120 Y8.310 E5.66185
G1 X-10.380 Y7.870 E5.66580
G1 X-10.610 Y7.400 E5.66984
G1 X-10.710 Y7.170 E5.67178
G1 X-10.940 Y6.430 E5.67776
G1 X-11.050 Y5.930 E5.68171
G1 X-11.130 Y5.160 E5.68769
G1 X-11.130 Y-5.160 E5.76739
G1 X-11.050 Y-5.930 E5.77337
G1 X-10.870 Y-6.680 E5.77932
G1 X-10.710 Y-7.170 E5.78331
G1 X-10.500 Y-7.640 E5.78728
G1 X-10.120 Y-8.310 E5.79323
G1 X-9.660 Y-8.930 E5.79919
G1 X-9.310 Y-9.310 E5.80318
G1 X-8.930 Y-9.660 E5.80717
G1 X-8.310 Y-10.120 E5.81313
G1 X-7.640 Y-10.500 E5.81908
G1 X-7.170 Y-10.710 E5.82306
G1 X-6.680 Y-10.870 E5.82704
G1 X-6.180 Y-11.000 E5.83103
G1 X-5.930 Y-11.050 E5.83300
G1 X-5.410 Y-11.110 E5.83704
G1 X-5.160 Y-11.130 E5.83898
G1 X5.160 Y-11.130 E5.91867
G1 X5.930 Y-11.050 E5.92465
G1 X6.680 Y-10.870 E5.93061
G1 X7.170 Y-10.710 E5.93459
G1 X7.640 Y-10.500 E5.93856
G1 X8.310 Y-10.120 E5.94451
G1 X8.930 Y-9.660 E5.95048
G1 X9.310 Y-9.310 E5.95447
G1 X9.660 Y-8.930 E5.95845
G1 X10.120 Y-8.310 E5.96442
G1 X10.500 Y-7.640 E5.97037
G1 X10.710 Y-7.170 E5.97434
G1 X10.870 Y-6.680 E5.97832
G1 X11.000 Y-6.180 E5.98231
G1 X11.050 Y-5.930 E5.98428
G1 X11.110 Y-5.410 E5.98832
G1 X11.130 Y-5.160 E5.99026
G1 X11.130 Y5.160 E6.06996
G1 X11.050 Y5.930 E6.07594
G1 X10.870 Y6.680 E6.08189
G1 X10.710 Y7.170 E6.08587
G1 X10.500 Y7.640 E6.08985
G1 X10.120 Y8.310 E6.09580
G1 X9.660 Y8.930 E6.10176
G1 X9.310 Y9.310 E6.10575
G1 X8.930 Y9.660 E6.10974
G1 X8.310 Y10.120 E6.11570
G1 X7.640 Y10.500 E6.12165
G1 X7.170 Y10.710 E6.12562
G1 X6.430 Y10.940 E6.13161
G1 X5.930 Y11.050 E6.13556
G1 X5.160 Y11.130 E6.14154
G1 X-5.125 Y11.130 E6.22097
G1 F60000.000 E1.22097
G1 Z0.440
G92 E0
G1 X-4.436 Y-4.436 F12000.000
G1 Z0.140
G1 F60000.000 E5.00000
G1 X4.436 Y-4.436 F360.000 E5.06851
G1 X4.436 Y4.436 E5.13702
G1 X-4.436 Y4.436 E5.20553
G1 X-4.436 Y-4.401 E5.27377
G1 X-4.668 Y-4.668 F12000.000
G1 X4.668 Y-4.668 F360.000 E5.34587
G1 X4.668 Y4.668 E5.41796
G1 X-4.668 Y4.668 E5.49006
G1 X-4.668 Y-4.633 E5.56188
G1 X-4.900 Y-4.900 F12000.000
G1 X4.900 Y-4.900 F360.000 E5.63757
G1 X4.900 Y4.900 E5.71325
G1 X-4.900 Y4.900 E5.78893
G1 X-4.900 Y-4.865 E5.86435
G1 X-4.699 Y-4.784 F12000.000
G1 F60000.000 E0.86435
G1 Z0.440
G92 E0
G1 X4.277 Y-4.129 F12000.000
G1 Z0.140
G1 F60000.000 E5.00000
G1 X4.129 Y-4.277 F720.000 E5.00162
G1 X3.800 Y-4.277 E5.00418
G1 X4.277 Y-3.800 E5.00942
G1 X4.277 Y-3.470 E5.01197
G1 X3.470 Y-4.277 E5.02082
G1 X3.140 Y-4.277 E5.02338
G1 X4.277 Y-3.140 E5.03585
G1 X4.277 Y-2.811 E5.03840
G1 X2.811 Y-4.277 E5.05449
G1 X2.481 Y-4.277 E5.05704
G1 X4.277 Y-2.481 E5.07674
G1 X4.277 Y-2.151 E5.07930
G1 X2.151 Y-4.277 E5.10261
G1 X1.822 Y-4.277 E5.10517
G1 X4.277 Y-1.822 E5.13209
G1 X4.277 Y-1.492 E5.13465
G1 X1.492 Y-4.277 E5.16519
G1 X1.162 Y-4.277 E5.16775
G1 X4.277 Y-1.162 E5.20191
G1 X4.277 Y-0.833 E5.20446
G1 X0.833 Y-4.277 E5.24223
G1 X0.503 Y-4.277 E5.24479
G1 X4.277 Y-0.503 E5.28618
G1 X4.277 Y-0.173 E5.28874
G1 X0.173 Y-4.277 E5.33374
G1 X-0.156 Y-4.277 E5.33629
G1 X4.277 Y0.156 E5.38491
G1 X4.277 Y0.486 E5.38747
G1 X-0.486 Y-4.277 E5.43970
G1 X-0.816 Y-4.277 E5.44226
G1 X4.277 Y0.816 E5.49811
G1 X4.277 Y1.145 E5.50066
G1 X-1.145 Y-4.277 E5.56012
G1 X-1.475 Y-4.277 E5.56268
G1 X4.277 Y1.475 E5.62576
G1 X4.277 Y1.805 E5.62832
G1 X-1.805 Y-4.277 E5.69501
G1 X-2.134 Y-4.277 E5.69756
G1 X4.277 Y2.134 E5.76787
G1 X4.277 Y2.464 E5.77043
G1 X-2.464 Y-4.277 E5.84435
G1 X-2.794 Y-4.277 E5.84691
G1 X4.277 Y2.794 E5.92445
G1 X4.277 Y3.124 E5.92700
G1 X-3.124 Y-4.277 E6.00816
G1 X-3.453 Y-4.277 E6.01071
G1 X4.277 Y3.453 E6.09548
G1 X4.277 Y3.783 E6.09804
G1 X-3.783 Y-4.277 E6.18642
G1 X-4.113 Y-4.277 E6.18898
G1 X4.277 Y4.113 E6.28098
G1 X4.113 Y4.277 E6.28278
G1 X-4.277 Y-4.113 E6.37478
G1 X-4.277 Y-3.783 E6.37734
G1 X3.783 Y4.277 E6.46572
G1 X3.453 Y4.277 E6.46828
G1 X-4.277 Y-3.453 E6.55305
G1 X-4.277 Y-3.124 E6.55560
G1 X3.124 Y4.277 E6.63676
G1 X2.794 Y4.277 E6.63931
G1 X-4.277 Y-2.794 E6.71685
G1 X-4.277 Y-2.464 E6.71941
G1 X2.464 Y4.277 E6.79333
G1 X2.134 Y4.277 E6.79589
G1 X-4.277 Y-2.135 E6.86620
G1 X-4.277 Y-1.805 E6.86875
G1 X1.805 Y4.277 E6.93544
G1 X1.475 Y4.277 E6.93800
G1 X-4.277 Y-1.475 E7.00108
G1 X-4.277 Y-1.145 E7.00364
G1 X1.145 Y4.277 E7.06310
G1 X0.816 Y4.277 E7.06565
G1 X-4.277 Y-0.816 E7.12150
G1 X-4.277 Y-0.486 E7.12406
G1 X0.486 Y4.277 E7.17629
G1 X0.156 Y4.277 E7.17885
G1 X-4.277 Y-0.156 E7.22747
G1 X-4.277 Y0.173 E7.23002
G1 X-0.173 Y4.277 E7.27503
G1 X-0.503 Y4.277 E7.27758
G1 X-4.277 Y0.503 E7.31897
G1 X-4.277 Y0.833 E7.32153
G1 X-0.833 Y4.277 E7.35930
G1 X-1.162 Y4.277 E7.36186
G1 X-4.277 Y1.162 E7.39601
G1 X-4.277 Y1.492 E7.39857
G1 X-1.492 Y4.277 E7.42911
G1 X-1.822 Y4.277 E7.43167
G1 X-4.277 Y1.822 E7.45860
G1 X-4.277 Y2.151 E7.46115
G1 X-2.151 Y4.277 E7.48447
G1 X-2.481 Y4.277 E7.48702
G1 X-4.277 Y2.481 E7.50672
G1 X-4.277 Y2.811 E7.50928
G1 X-2.811 Y4.277 E7.52536
G1 X-3.140 Y4.277 E7.52791
G1 X-4.277 Y3.140 E7.54038
G1 X-4.277 Y3.470 E7.54294
G1 X-3.470 Y4.277 E7.55179
G1 X-3.800 Y4.277 E7.55435
G1 X-4.277 Y3.800 E7.55958
G1 X-4.277 Y4.129 E7.56214
G1 X-4.129 Y4.277 E7.56376
M106 S255
G1 F60000.000 E2.56376
G1 Z0.540
G92 E0
G1 X-3.643 Y3.643 F12000.000
G1 Z0.240
G1 F60000.000 E5.00000
G1 X-3.643 Y-3.643 F600.000 E5.13050
G1 X3.643 Y-3.643 E5.26101
G1 X3.643 Y3.643 E5.39151
G1 X-3.562 Y3.643 E5.52057
G1 X-4.181 Y4.181 F12000.000
G1 X-4.181 Y-4.181 F600.000 E5.67036
G1 X4.181 Y-4.181 E5.82016
G1 X4.181 Y4.181 E5.96995
G1 X-4.101 Y4.181 E6.11830
G1 X-4.720 Y4.720 F12000.000
G1 X-4.720 Y-4.720 F600.000 E6.28739
G1 X4.720 Y-4.720 E6.45648
G1 X4.720 Y4.720 E6.62557
G1 X-4.639 Y4.720 E6.79321
G1 X-4.451 Y4.254 F12000.000
G1 F60000.000 E1.79321
G1 Z0.540
G92 E0
G1 X-3.276 Y-2.933 F12000.000
G1 Z0.240
G1 F60000.000 E5.00000
G1 X-2.933 Y-3.276 F1164.526 E5.00885
G1 X-2.157 Y-3.276 E5.02302
G1 X-3.276 Y-2.157 E5.05190
G1 X-3.276 Y-1.381 E5.06607
G1 X-1.381 Y-3.276 E5.11499
G1 X-0.605 Y-3.276 E5.12915
G1 X-3.276 Y-0.605 E5.19811
G1 X-3.276 Y0.171 E5.21227
G1 X0.171 Y-3.276 E5.30126
G1 X0.948 Y-3.276 E5.31542
G1 X-3.276 Y0.948 E5.42444
G1 X-3.276 Y1.724 E5.43861
G1 X1.724 Y-3.276 E5.56766
G1 X2.500 Y-3.276 E5.58183
G1 X-3.276 Y2.500 E5.73092
G1 X-3.276 Y3.276 E5.74508
G1 X3.276 Y-3.276 E5.91420
G1 X3.276 Y-2.500 E5.92836
G1 X-2.500 Y3.276 E6.07745
G1 X-1.724 Y3.276 E6.09162
G1 X3.276 Y-1.724 E6.22067
G1 X3.276 Y-0.948 E6.23484
G1 X-0.948 Y3.276 E6.34386
G1 X-0.171 Y3.276 E6.35802
G1 X3.276 Y-0.171 E6.44701
G1 X3.276 Y0.605 E6.46118
G1 X0.605 Y3.276 E6.53013
G1 X1.381 Y3.276 E6.54429
G1 X3.276 Y1.381 E6.59321
G1 X3.276 Y2.157 E6.60738
G1 X2.157 Y3.276 E6.63627
G1 X2.933 Y3.276 E6.65043
G1 X3.276 Y2.933 E6.65928
G1 F60000.000 E1.65928
G1 Z0.640
G92 E0
G1 X3.643 Y-3.643 F12000.000
G1 Z0.340
G1 F60000.000 E5.00000
G1 X3.643 Y3.643 F600.000 E5.13050
G1 X-3.643 Y3.643 E5.26101
G1 X-3.643 Y-3.643 E5.39151
G1 X3.562 Y-3.643 E5.52057
G1 X4.181 Y-4.181 F12000.000
G1 X4.181 Y4.181 F600.000 E5.67036
G1 X-4.181 Y4.181 E5.82016
G1 X-4.181 Y-4.181 E5.96995
G1 X4.101 Y-4.181 E6.11830
G1 X4.720 Y-4.720 F12000.000
G1 X4.720 Y4.720 F600.000 E6.28739
G1 X-4.720 Y4.720 E6.45648
G1 X-4.720 Y-4.720 E6.62557
G1 X4.639 Y-4.720 E6.79321
G1 X4.451 Y-4.254 F12000.000
G1 X2.933 Y-3.276
G1 X3.276 Y-2.933 F1164.526 E6.80206
G1 X3.276 Y-2.157 E6.81623
G1 X2.157 Y-3.276 E6.84511
G1 X1.381 Y-3.276 E6.85928
G1 X3.276 Y-1.381 E6.90820
G1 X3.276 Y-0.605 E6.92236
G1 X0.605 Y-3.276 E6.99132
G1 X-0.171 Y-3.276 E7.00548
G1 X3.276 Y0.171 E7.09447
G1 X3.276 Y0.948 E7.10863
G1 X-0.948 Y-3.276 E7.21765
G1 X-1.724 Y-3.276 E7.23182
G1 X3.276 Y1.724 E7.36087
G1 X3.276 Y2.500 E7.37504
G1 X-2.500 Y-3.276 E7.52413
G1 X-3.276 Y-3.276 E7.53829
G1 X3.276 Y3.276 E7.70741
G1 X2.500 Y3.276 E7.72157
G1 X-3.276 Y-2.500 E7.87066
G1 X-3.276 Y-1.724 E7.88483
G1 X1.724 Y3.276 E8.01388
G1 X0.948 Y3.276 E8.02805
G1 X-3.276 Y-0.948 E8.13707
G1 X-3.276 Y-0.171 E8.15123
G1 X0.171 Y3.276 E8.24022
G1 X-0.605 Y3.276 E8.25438
G1 X-3.276 Y0.605 E8.32334
G1 X-3.276 Y1.381 E8.33750
G1 X-1.381 Y3.276 E8.38642
G1 X-2.157 Y3.276 E8.40059
G1 X-3.276 Y2.157 E8.42947
G1 X-3.276 Y2.933 E8.44364
G1 X-2.933 Y3.276 E8.45249
G1 F60000.000 E3.45249
G1 Z0.740
G92 E0
G1 X-3.643 Y-3.643 F12000.000
G1 Z0.440
G1 F60000.000 E5.00000
G1 X3.643 Y-3.643 F600.000 E5.13050
G1 X3.643 Y3.643 E5.26101
G1 X-3.643 Y3.643 E5.39151
G1 X-3.643 Y-3.562 E5.52057
G1 X-4.181 Y-4.181 F12000.000
G1 X4.181 Y-4.181 F600.000 E5.67036
G1 X4.181 Y4.181 E5.82016
G1 X-4.181 Y4.181 E5.96995
G1 X-4.181 Y-4.101 E6.11830
G1 X-4.720 Y-4.720 F12000.000
G1 X4.720 Y-4.720 F600.000 E6.28739
G1 X4.720 Y4.720 E6.45648
G1 X-4.720 Y4.720 E6.62557
G1 X-4.720 Y-4.639 E6.79321
G1 X-4.254 Y-4.451 F12000.000
G1 X-3.276 Y-2.933
G1 X-2.933 Y-3.276 F1164.525 E6.80206
G1 X-2.157 Y-3.276 E6.81623
G1 X-3.276 Y-2.157 E6.84511
G1 X-3.276 Y-1.381 E6.85928
G1 X-1.381 Y-3.276 E6.90820
G1 X-0.605 Y-3.276 E6.92236
G1 X-3.276 Y-0.605 E6.99131
G1 X-3.276 Y0.171 E7.00548
G1 X0.171 Y-3.276 E7.09447
G1 X0.948 Y-3.276 E7.10863
G1 X-3.276 Y0.948 E7.21765
G1 X-3.276 Y1.724 E7.23182
G1 X1.724 Y-3.276 E7.36087
G1 X2.500 Y-3.276 E7.37504
G1 X-3.276 Y2.500 E7.52412
G1 X-3.276 Y3.276 E7.53829
G1 X3.276 Y-3.276 E7.70740
G1 X3.276 Y-2.500 E7.72157
G1 X-2.500 Y3.276 E7.87065
G1 X-1.724 Y3.276 E7.88482
G1 X3.276 Y-1.724 E8.01387
G1 X3.276 Y-0.948 E8.02804
G1 X-0.948 Y3.276 E8.13706
G1 X-0.171 Y3.276 E8.15122
G1 X3.276 Y-0.171 E8.24021
G1 X3.276 Y0.605 E8.25438
G1 X0.605 Y3.276 E8.32333
G1 X1.381 Y3.276 E8.33749
G1 X3.276 Y1.381 E8.38641
G1 X3.276 Y2.157 E8.40058
G1 X2.157 Y3.276 E8.42946
G1 X2.933 Y3.276 E8.44363
G1 X3.276 Y2.933 E8.45248
G1 F60000.000 E3.45248
G1 Z0.840
G92 E0
G1 X3.643 Y3.643 F12000.000
G1 Z0.540
G1 F60000.000 E5.00000
G1 X-3.643 Y3.643 F600.000 E5.13050
G1 X-3.643 Y-3.643 E5.26101
G1 X3.643 Y-3.643 E5.39151
G1 X3.643 Y3.562 E5.52057
G1 X4.181 Y4.181 F12000.000
G1 X-4.181 Y4.181 F600.000 E5.67036
G1 X-4.181 Y-4.181 E5.82016
G1 X4.181 Y-4.181 E5.96995
G1 X4.181 Y4.101 E6.11830
G1 X4.720 Y4.720 F12000.000
G1 X-4.720 Y4.720 F600.000 E6.28739
G1 X-4.720 Y-4.720 E6.45648
G1 X4.720 Y-4.720 E6.62557
G1 X4.720 Y4.639 E6.79321
G1 X4.254 Y4.451 F12000.000
G1 F60000.000 E1.79321
G1 Z0.840
G92 E0
G1 X-2.933 Y3.276 F12000.000
G1 Z0.540
G1 F60000.000 E5.00000
G1 X-3.276 Y2.933 F1164.525 E5.00885
G1 X-3.276 Y2.157 E5.02302
G1 X-2.157 Y3.276 E5.05190
G1 X-1.381 Y3.276 E5.06607
G1 X-3.276 Y1.381 E5.11499
G1 X-3.276 Y0.605 E5.12915
G1 X-0.605 Y3.276 E5.19811
G1 X0.171 Y3.276 E5.21227
G1 X-3.276 Y-0.171 E5.30126
G1 X-3.276 Y-0.948 E5.31542
G1 X0.948 Y3.276 E5.42444
G1 X1.724 Y3.276 E5.43861
G1 X-3.276 Y-1.724 E5.56766
G1 X-3.276 Y-2.500 E5.58183
G1 X2.500 Y3.276 E5.73092
G1 X3.276 Y3.276 E5.74508
G1 X-3.276 Y-3.276 E5.91420
G1 X-2.500 Y-3.276 E5.92836
G1 X3.276 Y2.500 E6.07745
G1 X3.276 Y1.724 E6.09161
G1 X-1.724 Y-3.276 E6.22066
G1 X-0.948 Y-3.276 E6.23483
G1 X3.276 Y0.948 E6.34385
G1 X3.276 Y0.171 E6.35802
G1 X-0.171 Y-3.276 E6.44700
G1 X0.605 Y-3.276 E6.46117
G1 X3.276 Y-0.605 E6.53012
G1 X3.276 Y-1.381 E6.54429
G1 X1.381 Y-3.276 E6.59320
G1 X2.157 Y-3.276 E6.60737
G1 X3.276 Y-2.157 E6.63626
G1 X3.276 Y-2.933 E6.65042
G1 X2.933 Y-3.276 E6.65927
G1 F60000.000 E1.65927
G1 Z0.940
G92 E0
G1 X3.643 Y3.643 F12000.000
G1 Z0.640
G1 F60000.000 E5.00000
G1 X-3.643 Y3.643 F600.000 E5.13050
G1 X-3.643 Y-3.643 E5.26101
G1 X3.643 Y-3.643 E5.39151
G1 X3.643 Y3.562 E5.52057
G1 X4.181 Y4.181 F12000.000
G1 X-4.181 Y4.181 F600.000 E5.67036
G1 X-4.181 Y-4.181 E5.82016
G1 X4.181 Y-4.181 E5.96995
G1 X4.181 Y4.101 E6.11830
G1 X4.720 Y4.720 F12000.000
G1 X-4.720 Y4.720 F600.000 E6.28739
G1 X-4.720 Y-4.720 E6.45648
G1 X4.720 Y-4.720 E6.62557
G1 X4.720 Y4.639 E6.79321
G1 X4.254 Y4.451 F12000.000
G1 X3.276 Y2.933
G1 X2.933 Y3.276 F1164.525 E6.80206
G1 X2.157 Y3.276 E6.81623
G1 X3.276 Y2.157 E6.84511
G1 X3.276 Y1.381 E6.85928
G1 X1.381 Y3.276 E6.90820
G1 X0.605 Y3.276 E6.92236
G1 X3.276 Y0.605 E6.99132
G1 X3.276 Y-0.171 E7.00548
G1 X-0.171 Y3.276 E7.09447
G1 X-0.948 Y3.276 E7.10863
G1 X3.276 Y-0.948 E7.21765
G1 X3.276 Y-1.724 E7.23182
G1 X-1.724 Y3.276 E7.36087
G1 X-2.500 Y3.276 E7.37504
G1 X3.276 Y-2.500 E7.52413
G1 X3.276 Y-3.276 E7.53829
G1 X-3.276 Y3.276 E7.70741
G1 X-3.276 Y2.500 E7.72157
G1 X2.500 Y-3.276 E7.87066
G1 X1.724 Y-3.276 E7.88482
G1 X-3.276 Y1.724 E8.01387
G1 X-3.276 Y0.948 E8.02804
G1 X0.948 Y-3.276 E8.13706
G1 X0.171 Y-3.276 E8.15123
G1 X-3.276 Y0.171 E8.24021
G1 X-3.276 Y-0.605 E8.25438
G1 X-0.605 Y-3.276 E8.32333
G1 X-1.381 Y-3.276 E8.33750
G1 X-3.276 Y-1.381 E8.38641
G1 X-3.276 Y-2.157 E8.40058
G1 X-2.157 Y-3.276 E8.42946
G1 X-2.933 Y-3.276 E8.44363
G1 X-3.276 Y-2.933 E8.45248
G1 F60000.000 E3.45248
G1 Z1.040
G92 E0
G1 X3.643 Y3.643 F12000.000
G1 Z0.740
G1 F60000.000 E5.00000
G1 X-3.643 Y3.643 F600.000 E5.13050
G1 X-3.643 Y-3.643 E5.26101
G1 X3.643 Y-3.643 E5.39151
G1 X3.643 Y3.562 E5.52057
G1 X4.181 Y4.181 F12000.000
G1 X-4.181 Y4.181 F600.000 E5.67036
G1 X-4.181 Y-4.181 E5.82016
G1 X4.181 Y-4.181 E5.96995
G1 X4.181 Y4.101 E6.11830
