; generated by Slic3r 0.9.9-dev on 2013-02-19 at 00:29:56

; This Slic3r config is for the Rostock delta robot 3D printer prototype.

; layer_height = 0.1
; perimeters = 3
; top_solid_layers = 3
; bottom_solid_layers = 3
; fill_density = 1
; perimeter_speed = 30
; infill_speed = 50
; travel_speed = 200
; scale = 1
; nozzle_diameter = 0.35
; filament_diameter = 1.75
; extrusion_multiplier = .98
; perimeters extrusion width = 0.56mm
; infill extrusion width = 0.56mm
; first layer extrusion width = 0.20mm

M107
M190 S60 ; wait for bed temperature to be reached
M104 S190 ; set temperature
M109 S190 ; wait for temperature to be reached
G28 ; home all axes
G1 Z10 F24000 ; move to print surface
G90 ; use absolute coordinates
G21 ; set units to millimeters
G92 E0
M82 ; use absolute distances for extrusion
G1 F60000.000 E-5.00000
G1 Z0.400
G92 E0
G1 X-16.360 Y-8.980 F12000.000
G1 Z0.100
G1 F60000.000 E5.00000
G1 X-16.290 Y-9.650 F360.000 E5.00637
G1 X-16.230 Y-9.980 E5.00955
G1 X-16.060 Y-10.620 E5.01581
G1 X-13.560 Y-18.430 E5.09339
G1 X-13.270 Y-19.170 E5.10091
G1 X-13.160 Y-19.400 E5.10332
G1 X-12.760 Y-20.080 E5.11078
G1 X-12.270 Y-20.710 E5.11833
G1 X-11.910 Y-21.090 E5.12329
G1 X-11.520 Y-21.440 E5.12824
G1 X-11.100 Y-21.760 E5.13324
G1 X-10.430 Y-22.170 E5.14067
G1 X-9.960 Y-22.400 E5.14562
G1 X-9.470 Y-22.590 E5.15059
G1 X-8.710 Y-22.790 E5.15803
G1 X-8.190 Y-22.880 E5.16302
G1 X-7.660 Y-22.920 E5.16805
G1 X7.660 Y-22.920 E5.31298
G1 X8.190 Y-22.880 E5.31801
G1 X8.710 Y-22.790 E5.32300
G1 X9.470 Y-22.590 E5.33043
G1 X9.960 Y-22.400 E5.33540
G1 X10.430 Y-22.170 E5.34035
G1 X10.890 Y-21.900 E5.34540
G1 X11.320 Y-21.600 E5.35036
G1 X11.720 Y-21.270 E5.35527
G1 X12.270 Y-20.710 E5.36269
G1 X12.760 Y-20.080 E5.37024
G1 X13.160 Y-19.400 E5.37771
G1 X13.380 Y-18.920 E5.38270
G1 X13.560 Y-18.430 E5.38764
G1 X16.060 Y-10.620 E5.46522
G1 X16.230 Y-9.980 E5.47148
G1 X16.290 Y-9.650 E5.47466
G1 X16.360 Y-8.980 E5.48103
G1 X16.360 Y15.460 E5.71224
G1 X16.280 Y16.250 E5.71975
G1 X16.170 Y16.780 E5.72487
G1 X16.010 Y17.290 E5.72993
G1 X15.820 Y17.790 E5.73499
G1 X15.590 Y18.270 E5.74002
G1 X15.310 Y18.730 E5.74512
G1 X15.000 Y19.160 E5.75013
G1 X14.660 Y19.570 E5.75517
G1 X14.280 Y19.950 E5.76025
G1 X13.660 Y20.450 E5.76779
G1 X12.980 Y20.880 E5.77540
G1 X12.740 Y21.000 E5.77794
G1 X12.250 Y21.210 E5.78298
G1 X11.490 Y21.460 E5.79055
G1 X10.960 Y21.570 E5.79567
G1 X10.170 Y21.650 E5.80318
G1 X-10.170 Y21.650 E5.99561
G1 X-10.960 Y21.570 E6.00312
G1 X-11.490 Y21.460 E6.00824
G1 X-12.000 Y21.300 E6.01330
G1 X-12.500 Y21.110 E6.01836
G1 X-12.980 Y20.880 E6.02339
G1 X-13.440 Y20.600 E6.02849
G1 X-13.870 Y20.290 E6.03350
G1 X-14.280 Y19.950 E6.03854
G1 X-14.660 Y19.570 E6.04362
G1 X-15.160 Y18.950 E6.05116
G1 X-15.590 Y18.270 E6.05877
G1 X-15.710 Y18.030 E6.06131
G1 X-15.920 Y17.540 E6.06635
G1 X-16.170 Y16.780 E6.07392
G1 X-16.280 Y16.250 E6.07904
G1 X-16.360 Y15.460 E6.08655
G1 X-16.360 Y-8.945 E6.31743
G1 X-16.120 Y-8.970 F12000.000
G1 X-16.060 Y-9.610 F360.000 E6.32351
G1 X-15.930 Y-10.240 E6.32960
G1 X-15.840 Y-10.550 E6.33265
G1 X-13.340 Y-18.360 E6.41023
G1 X-13.160 Y-18.850 E6.41517
G1 X-13.050 Y-19.090 E6.41767
G1 X-12.810 Y-19.560 E6.42266
G1 X-12.380 Y-20.210 E6.43003
G1 X-12.040 Y-20.620 E6.43507
G1 X-11.680 Y-20.990 E6.43995
G1 X-11.280 Y-21.340 E6.44498
G1 X-10.860 Y-21.640 E6.44987
G1 X-10.410 Y-21.920 E6.45488
G1 X-9.940 Y-22.150 E6.45983
G1 X-9.460 Y-22.340 E6.46471
G1 X-8.960 Y-22.500 E6.46968
G1 X-8.700 Y-22.560 E6.47220
G1 X-8.180 Y-22.640 E6.47718
G1 X-7.660 Y-22.690 E6.48212
G1 X7.660 Y-22.690 E6.62706
G1 X8.180 Y-22.640 E6.63200
G1 X8.700 Y-22.560 E6.63697
G1 X8.960 Y-22.500 E6.63950
G1 X9.460 Y-22.340 E6.64447
G1 X9.940 Y-22.150 E6.64935
G1 X10.410 Y-21.920 E6.65430
G1 X10.860 Y-21.640 E6.65931
G1 X11.280 Y-21.340 E6.66420
G1 X11.680 Y-20.990 E6.66922
G1 X12.040 Y-20.620 E6.67411
G1 X12.380 Y-20.210 E6.67915
G1 X12.530 Y-20.000 E6.68159
G1 X12.810 Y-19.560 E6.68652
G1 X13.160 Y-18.850 E6.69401
G1 X13.340 Y-18.360 E6.69895
G1 X15.840 Y-10.550 E6.77653
G1 X16.000 Y-9.930 E6.78258
G1 X16.100 Y-9.290 E6.78871
G1 X16.130 Y-8.650 E6.79477
G1 X16.130 Y15.450 E7.02277
G1 X16.050 Y16.220 E7.03009
G1 X16.000 Y16.470 E7.03250
G1 X15.870 Y16.970 E7.03739
G1 X15.710 Y17.460 E7.04227
G1 X15.500 Y17.930 E7.04714
G1 X15.120 Y18.600 E7.05442
G1 X14.820 Y19.020 E7.05931
G1 X14.490 Y19.410 E7.06414
G1 X14.120 Y19.780 E7.06909
G1 X13.730 Y20.110 E7.07392
G1 X13.310 Y20.410 E7.07880
G1 X12.640 Y20.790 E7.08609
G1 X12.170 Y21.000 E7.09096
G1 X11.430 Y21.230 E7.09829
G1 X10.930 Y21.340 E7.10314
G1 X10.160 Y21.420 E7.11046
G1 X-10.160 Y21.420 E7.30269
G1 X-10.930 Y21.340 E7.31002
G1 X-11.180 Y21.290 E7.31243
G1 X-11.680 Y21.160 E7.31732
G1 X-12.170 Y21.000 E7.32219
G1 X-12.640 Y20.790 E7.32706
G1 X-13.310 Y20.410 E7.33435
G1 X-13.730 Y20.110 E7.33923
G1 X-14.120 Y19.780 E7.34406
G1 X-14.490 Y19.410 E7.34901
G1 X-14.820 Y19.020 E7.35385
G1 X-15.120 Y18.600 E7.35873
G1 X-15.500 Y17.930 E7.36602
G1 X-15.710 Y17.460 E7.37089
G1 X-15.940 Y16.720 E7.37822
G1 X-16.050 Y16.220 E7.38306
G1 X-16.130 Y15.450 E7.39039
G1 X-16.121 Y-8.935 E7.62108
G1 F60000.000 E2.62108
G1 Z0.400
G92 E0
G1 X-8.564 Y-4.564 F12000.000
G1 Z0.100
G1 F60000.000 E5.00000
G1 X-4.164 Y-4.564 F360.000 E5.04163
G1 X-4.164 Y-5.186 E5.04750
G1 X-5.564 Y-5.186 E5.06075
G1 X-5.564 Y-12.314 E5.12819
G1 X5.564 Y-12.314 E5.23347
G1 X5.564 Y-5.186 E5.30091
G1 X4.164 Y-5.186 E5.31415
G1 X4.164 Y-4.564 E5.32003
G1 X8.564 Y-4.564 E5.36165
G1 X8.564 Y5.064 E5.45275
G1 X4.164 Y5.064 E5.49437
G1 X4.164 Y5.686 E5.50025
G1 X5.564 Y5.686 E5.51349
G1 X5.564 Y12.814 E5.58093
G1 X-5.564 Y12.814 E5.68621
G1 X-5.564 Y5.686 E5.75365
G1 X-4.164 Y5.686 E5.76690
G1 X-4.164 Y5.064 E5.77278
G1 X-8.564 Y5.064 E5.81440
G1 X-8.564 Y-4.530 E5.90516
G1 X-8.332 Y-4.332 F12000.000
G1 X-3.932 Y-4.332 F360.000 E5.94679
G1 X-3.932 Y-5.418 E5.95706
G1 X-5.332 Y-5.418 E5.97030
G1 X-5.332 Y-12.082 E6.03335
G1 X5.332 Y-12.082 E6.13424
G1 X5.332 Y-5.418 E6.19728
G1 X3.932 Y-5.418 E6.21053
G1 X3.932 Y-4.332 E6.22080
G1 X8.332 Y-4.332 E6.26242
G1 X8.332 Y4.832 E6.34912
G1 X3.932 Y4.832 E6.39075
G1 X3.932 Y5.918 E6.40102
G1 X5.332 Y5.918 E6.41426
G1 X5.332 Y12.582 E6.47731
G1 X-5.332 Y12.582 E6.57820
G1 X-5.332 Y5.918 E6.64124
G1 X-3.932 Y5.918 E6.65449
G1 X-3.932 Y4.832 E6.66476
G1 X-8.332 Y4.832 E6.70638
G1 X-8.332 Y-4.297 E6.79275
G1 X-8.100 Y-4.100 F12000.000
G1 X-3.700 Y-4.100 F360.000 E6.83438
G1 X-3.700 Y-5.650 E6.84904
G1 X-5.100 Y-5.650 E6.86228
G1 X-5.100 Y-11.850 E6.92094
G1 X5.100 Y-11.850 E7.01743
G1 X5.100 Y-5.650 E7.07609
G1 X3.700 Y-5.650 E7.08933
G1 X3.700 Y-4.100 E7.10399
G1 X8.100 Y-4.100 E7.14562
G1 X8.100 Y4.600 E7.22792
G1 X3.700 Y4.600 E7.26955
G1 X3.700 Y6.150 E7.28421
G1 X5.100 Y6.150 E7.29746
G1 X5.100 Y12.350 E7.35611
G1 X-5.100 Y12.350 E7.45261
G1 X-5.100 Y6.150 E7.51126
G1 X-3.700 Y6.150 E7.52450
G1 X-3.700 Y4.600 E7.53917
G1 X-8.100 Y4.600 E7.58079
G1 X-8.100 Y-4.065 E7.66277
G1 X-8.100 Y-4.332 F12000.000
G1 F60000.000 E2.66277
G1 Z0.400
G92 E0
G1 X6.936 Y-15.993 F12000.000
G1 Z0.100
G1 F60000.000 E5.00000
G1 X6.936 Y-8.186 F360.000 E5.07386
G1 X9.436 Y-8.186 E5.09751
G1 X9.436 Y14.733 E5.31433
G1 X8.314 Y14.733 E5.32493
G1 X8.314 Y14.686 E5.32538
G1 X3.686 Y14.686 E5.36917
G1 X3.686 Y14.733 E5.36962
G1 X-3.686 Y14.733 E5.43935
G1 X-3.686 Y14.686 E5.43980
G1 X-8.314 Y14.686 E5.48359
G1 X-8.314 Y14.733 E5.48404
G1 X-9.436 Y14.733 E5.49464
G1 X-9.436 Y-8.186 E5.71146
G1 X-6.936 Y-8.186 E5.73511
G1 X-6.936 Y-15.993 E5.80897
G1 X6.901 Y-15.993 E5.93987
G1 X7.168 Y-16.225 F12000.000
G1 X7.168 Y-8.418 F360.000 E6.01373
G1 X9.668 Y-8.418 E6.03738
G1 X9.668 Y14.965 E6.25859
G1 X8.082 Y14.965 E6.27359
G1 X8.082 Y14.918 E6.27403
G1 X3.918 Y14.918 E6.31343
G1 X3.918 Y14.965 E6.31388
G1 X-3.918 Y14.965 E6.38800
G1 X-3.918 Y14.918 E6.38845
G1 X-8.082 Y14.918 E6.42785
G1 X-8.082 Y14.965 E6.42830
G1 X-9.668 Y14.965 E6.44330
G1 X-9.668 Y-8.418 E6.66450
G1 X-7.168 Y-8.418 E6.68816
G1 X-7.168 Y-16.225 E6.76202
G1 X7.133 Y-16.225 E6.89731
G1 X7.400 Y-16.457 F12000.000
G1 X7.400 Y-8.650 F360.000 E6.97117
G1 X9.900 Y-8.650 E6.99482
G1 X9.900 Y15.197 E7.22042
G1 X7.850 Y15.197 E7.23981
G1 X7.850 Y15.150 E7.24026
G1 X4.150 Y15.150 E7.27526
G1 X4.150 Y15.197 E7.27571
G1 X-4.150 Y15.197 E7.35423
G1 X-4.150 Y15.150 E7.35468
G1 X-7.850 Y15.150 E7.38968
G1 X-7.850 Y15.197 E7.39013
G1 X-9.900 Y15.197 E7.40952
G1 X-9.900 Y-8.650 E7.63512
G1 X-7.400 Y-8.650 E7.65877
G1 X-7.400 Y-16.457 E7.73263
G1 X7.365 Y-16.457 E7.87232
G1 X7.284 Y-16.256 F12000.000
G1 X6.777 Y-15.687
G1 X6.630 Y-15.835 F600.000 E7.87430
G1 X6.300 Y-15.835 E7.87744
G1 X6.777 Y-15.357 E7.88386
G1 X6.777 Y-15.027 E7.88699
G1 X5.970 Y-15.835 E7.89784
G1 X5.640 Y-15.835 E7.90097
G1 X6.777 Y-14.698 E7.91625
G1 X6.777 Y-14.368 E7.91938
G1 X5.310 Y-15.835 E7.93910
G1 X4.981 Y-15.835 E7.94223
G1 X6.777 Y-14.038 E7.96637
G1 X6.777 Y-13.708 E7.96950
G1 X4.651 Y-15.835 E7.99808
G1 X4.321 Y-15.835 E8.00121
G1 X6.777 Y-13.378 E8.03421
G1 X6.777 Y-13.049 E8.03735
G1 X3.991 Y-15.835 E8.07478
G1 X3.662 Y-15.835 E8.07792
G1 X6.777 Y-12.719 E8.11978
G1 X6.777 Y-12.389 E8.12291
G1 X3.332 Y-15.835 E8.16921
G1 X3.002 Y-15.835 E8.17234
G1 X6.777 Y-12.059 E8.22307
G1 F60000.000 E3.22307
G1 Z0.400
G92 E0
G1 X6.777 Y-8.432 F12000.000
G1 Z0.100
G1 F60000.000 E5.00000
G1 X5.723 Y-9.487 F600.000 E5.01417
G1 X5.723 Y-9.816 E5.01731
G1 X6.777 Y-8.762 E5.03148
G1 X6.777 Y-9.091 E5.03461
G1 X5.723 Y-10.146 E5.04879
G1 X5.723 Y-10.476 E5.05192
G1 X6.777 Y-9.421 E5.06609
G1 X6.777 Y-9.751 E5.06923
G1 X5.723 Y-10.806 E5.08340
G1 X5.723 Y-11.136 E5.08653
G1 X6.777 Y-10.081 E5.10070
G1 X6.777 Y-10.411 E5.10384
G1 X5.723 Y-11.465 E5.11801
G1 X5.723 Y-11.795 E5.12114
G1 X6.777 Y-10.740 E5.13532
G1 X6.777 Y-11.070 E5.13845
G1 X5.723 Y-12.125 E5.15262
G1 X5.723 Y-12.455 E5.15576
G1 X6.777 Y-11.400 E5.16993
G1 X6.777 Y-11.730 E5.17306
G1 X2.672 Y-15.835 E5.22822
G1 X2.342 Y-15.835 E5.23135
G1 X5.705 Y-12.473 E5.27653
G1 X5.375 Y-12.473 E5.27966
G1 X2.013 Y-15.835 E5.32484
G1 X1.683 Y-15.835 E5.32797
G1 X5.045 Y-12.473 E5.37315
G1 X4.715 Y-12.473 E5.37628
G1 X1.353 Y-15.835 E5.42146
G1 X1.023 Y-15.835 E5.42459
G1 X4.386 Y-12.473 E5.46977
G1 X4.056 Y-12.473 E5.47290
G1 X0.694 Y-15.835 E5.51808
G1 X0.364 Y-15.835 E5.52121
G1 X3.726 Y-12.473 E5.56638
G1 X3.396 Y-12.473 E5.56952
G1 X0.034 Y-15.835 E5.61469
G1 X-0.296 Y-15.835 E5.61783
G1 X3.066 Y-12.473 E5.66300
G1 X2.737 Y-12.473 E5.66614
G1 X-0.626 Y-15.835 E5.71131
G1 X-0.955 Y-15.835 E5.71444
G1 X2.407 Y-12.473 E5.75962
G1 X2.077 Y-12.473 E5.76275
G1 X-1.285 Y-15.835 E5.80793
G1 X-1.615 Y-15.835 E5.81106
G1 X1.747 Y-12.473 E5.85624
G1 X1.418 Y-12.473 E5.85937
G1 X-1.945 Y-15.835 E5.90455
G1 X-2.274 Y-15.835 E5.90768
G1 X1.088 Y-12.473 E5.95286
G1 X0.758 Y-12.473 E5.95599
G1 X-2.604 Y-15.835 E6.00117
G1 X-2.934 Y-15.835 E6.00430
G1 X0.428 Y-12.473 E6.04948
G1 X0.099 Y-12.473 E6.05261
G1 X-3.264 Y-15.835 E6.09778
G1 X-3.594 Y-15.835 E6.10092
G1 X-0.231 Y-12.473 E6.14609
G1 X-0.561 Y-12.473 E6.14923
G1 X-3.923 Y-15.835 E6.19440
G1 X-4.253 Y-15.835 E6.19754
G1 X-0.891 Y-12.473 E6.24271
G1 X-1.221 Y-12.473 E6.24584
G1 X-4.583 Y-15.835 E6.29102
G1 X-4.913 Y-15.835 E6.29415
G1 X-1.550 Y-12.473 E6.33933
G1 X-1.880 Y-12.473 E6.34246
G1 X-5.242 Y-15.835 E6.38764
G1 X-5.572 Y-15.835 E6.39077
G1 X-2.210 Y-12.473 E6.43595
G1 X-2.540 Y-12.473 E6.43908
G1 X-5.902 Y-15.835 E6.48426
G1 X-6.232 Y-15.835 E6.48739
G1 X-2.869 Y-12.473 E6.53257
G1 X-3.199 Y-12.473 E6.53570
G1 X-6.561 Y-15.835 E6.58087
G1 X-6.777 Y-15.721 E6.58319
G1 X-3.529 Y-12.473 E6.62684
G1 X-3.859 Y-12.473 E6.62997
G1 X-6.777 Y-15.391 E6.66919
G1 X-6.777 Y-15.061 E6.67232
G1 X-4.189 Y-12.473 E6.70711
G1 X-4.518 Y-12.473 E6.71024
G1 X-6.777 Y-14.732 E6.74059
G1 X-6.777 Y-14.402 E6.74373
G1 X-4.848 Y-12.473 E6.76965
G1 X-5.178 Y-12.473 E6.77278
G1 X-6.777 Y-14.072 E6.79427
G1 X-6.777 Y-13.742 E6.79741
G1 X-5.508 Y-12.473 E6.81447
G1 X-5.723 Y-12.358 F12000.000
G1 X-6.777 Y-13.413 F600.000 E6.82864
G1 X-6.777 Y-13.083 E6.83177
G1 X-5.723 Y-12.028 E6.84595
G1 X-5.723 Y-11.698 E6.84908
G1 X-6.777 Y-12.753 E6.86325
G1 X-6.777 Y-12.423 E6.86639
G1 X-5.723 Y-11.368 E6.88056
G1 X-5.723 Y-11.039 E6.88369
G1 X-6.777 Y-12.093 E6.89787
G1 X-6.777 Y-11.764 E6.90100
G1 X-5.723 Y-10.709 E6.91517
G1 X-5.723 Y-10.379 E6.91830
G1 X-6.777 Y-11.434 E6.93248
G1 X-6.777 Y-11.104 E6.93561
G1 X-5.723 Y-10.049 E6.94978
G1 X-5.723 Y-9.720 E6.95292
G1 X-6.777 Y-10.774 E6.96709
G1 X-6.777 Y-10.445 E6.97022
G1 X-5.723 Y-9.390 E6.98440
G1 X-5.723 Y-9.060 E6.98753
G1 X-6.777 Y-10.115 E7.00170
G1 X-6.777 Y-9.785 E7.00484
G1 X-5.723 Y-8.730 E7.01901
G1 X-5.723 Y-8.400 E7.02214
G1 X-6.777 Y-9.455 E7.03632
G1 X-6.777 Y-9.125 E7.03945
G1 X-5.723 Y-8.071 E7.05362
G1 X-5.723 Y-7.741 E7.05675
G1 X-6.777 Y-8.796 E7.07093
G1 X-6.777 Y-8.466 E7.07406
G1 X-5.723 Y-7.411 E7.08823
G1 X-5.723 Y-7.081 E7.09137
G1 X-6.777 Y-8.136 E7.10554
G1 X-6.998 Y-8.027 F12000.000
G1 X-5.723 Y-6.752 F600.000 E7.12268
G1 X-5.723 Y-6.422 E7.12582
G1 X-7.328 Y-8.027 E7.14739
G1 X-7.658 Y-8.027 E7.15052
G1 X-5.723 Y-6.092 E7.17653
G1 X-5.723 Y-5.762 E7.17966
G1 X-7.988 Y-8.027 E7.21010
G1 X-8.318 Y-8.027 E7.21323
G1 X-5.723 Y-5.432 E7.24810
G1 X-5.723 Y-5.103 E7.25123
G1 X-8.647 Y-8.027 E7.29053
G1 X-8.977 Y-8.027 E7.29366
G1 X-5.723 Y-4.773 E7.33739
G1 X-6.002 Y-4.723 E7.34009
G1 X-9.277 Y-7.998 E7.38410
G1 X-9.277 Y-7.668 E7.38723
G1 X-6.332 Y-4.723 E7.42681
G1 X-6.662 Y-4.723 E7.42994
G1 X-9.277 Y-7.338 E7.46509
G1 X-9.277 Y-7.009 E7.46822
G1 X-6.991 Y-4.723 E7.49894
G1 X-7.321 Y-4.723 E7.50207
G1 X-9.277 Y-6.679 E7.52836
G1 X-9.277 Y-6.349 E7.53149
G1 X-7.651 Y-4.723 E7.55334
G1 X-7.981 Y-4.723 E7.55648
G1 X-9.277 Y-6.019 E7.57390
G1 X-9.277 Y-5.690 E7.57703
G1 X-8.310 Y-4.723 E7.59002
G1 X-8.640 Y-4.723 E7.59316
G1 X-9.277 Y-5.360 E7.60172
G1 X-9.277 Y-5.030 E7.60485
G1 X-8.723 Y-4.475 E7.61231
G1 X-8.723 Y-4.145 E7.61544
G1 X-9.277 Y-4.700 E7.62289
G1 X-9.277 Y-4.370 E7.62603
G1 X-8.723 Y-3.816 E7.63348
G1 X-8.723 Y-3.486 E7.63662
G1 X-9.277 Y-4.041 E7.64407
G1 X-9.277 Y-3.711 E7.64720
G1 X-8.723 Y-3.156 E7.65466
G1 X-8.723 Y-2.826 E7.65779
G1 X-9.277 Y-3.381 E7.66525
G1 X-9.277 Y-3.051 E7.66838
G1 X-8.723 Y-2.496 E7.67584
G1 X-8.723 Y-2.167 E7.67897
G1 X-9.277 Y-2.722 E7.68642
G1 X-9.277 Y-2.392 E7.68956
G1 X-8.723 Y-1.837 E7.69701
G1 X-8.723 Y-1.507 E7.70014
G1 X-9.277 Y-2.062 E7.70760
G1 X-9.277 Y-1.732 E7.71073
G1 X-8.723 Y-1.177 E7.71819
G1 X-8.723 Y-0.848 E7.72132
G1 X-9.277 Y-1.402 E7.72878
G1 X-9.277 Y-1.073 E7.73191
G1 X-8.723 Y-0.518 E7.73936
G1 X-8.723 Y-0.188 E7.74250
G1 X-9.277 Y-0.743 E7.74995
G1 X-9.277 Y-0.413 E7.75309
G1 X-8.723 Y0.142 E7.76054
G1 X-8.723 Y0.471 E7.76367
G1 X-9.277 Y-0.083 E7.77113
G1 X-9.277 Y0.246 E7.77426
G1 X-8.723 Y0.801 E7.78172
G1 X-8.723 Y1.131 E7.78485
G1 X-9.277 Y0.576 E7.79230
G1 X-9.277 Y0.906 E7.79544
G1 X-8.723 Y1.461 E7.80289
G1 X-8.723 Y1.791 E7.80603
G1 X-9.277 Y1.236 E7.81348
G1 X-9.277 Y1.566 E7.81661
G1 X-8.723 Y2.120 E7.82407
G1 X-8.723 Y2.450 E7.82720
G1 X-9.277 Y1.895 E7.83466
G1 X-9.277 Y2.225 E7.83779
G1 X-8.723 Y2.780 E7.84525
G1 X-8.723 Y3.110 E7.84838
G1 X-9.277 Y2.555 E7.85583
G1 X-9.277 Y2.885 E7.85897
G1 X-8.723 Y3.439 E7.86642
G1 X-8.723 Y3.769 E7.86955
G1 X-9.277 Y3.214 E7.87701
G1 X-9.277 Y3.544 E7.88014
G1 X-8.723 Y4.099 E7.88760
G1 X-8.723 Y4.429 E7.89073
G1 X-9.277 Y3.874 E7.89819
G1 X-9.277 Y4.204 E7.90132
G1 X-8.723 Y4.759 E7.90877
G1 X-8.723 Y5.088 E7.91191
G1 X-9.277 Y4.533 E7.91936
G1 X-9.277 Y4.863 E7.92250
G1 X-5.723 Y8.418 E7.97026
G1 X-5.723 Y8.748 E7.97339
G1 X-9.277 Y5.193 E8.02116
G1 X-9.277 Y5.523 E8.02429
G1 X-5.723 Y9.078 E8.07205
G1 X-5.723 Y9.407 E8.07519
G1 X-9.277 Y5.853 E8.12295
G1 X-9.277 Y6.182 E8.12608
G1 X-5.723 Y9.737 E8.17385
G1 X-5.723 Y10.067 E8.17698
G1 X-9.277 Y6.512 E8.22474
G1 X-9.277 Y6.842 E8.22788
G1 X-5.723 Y10.397 E8.27564
G1 X-5.723 Y10.727 E8.27877
G1 X-9.277 Y7.172 E8.32654
G1 X-9.277 Y7.501 E8.32967
G1 X-5.723 Y11.056 E8.37743
G1 X-5.723 Y11.386 E8.38057
G1 X-9.277 Y7.831 E8.42833
G1 X-9.277 Y8.161 E8.43146
