; generated by Slic3r 0.9.9-dev on 2013-02-17 at 17:41:04

; This Slic3r config is for the Rostock delta robot 3D printer prototype.

; layer_height = 0.1
; perimeters = 3
; top_solid_layers = 3
; bottom_solid_layers = 3
; fill_density = 1
; perimeter_speed = 30
; infill_speed = 60
; travel_speed = 200
; scale = 1
; nozzle_diameter = 0.35
; filament_diameter = 1.75
; extrusion_multiplier = 1
; perimeters extrusion width = 0.56mm
; infill extrusion width = 0.56mm
; first layer extrusion width = 0.20mm

M107
M190 S60 ; wait for bed temperature to be reached
M104 S200 ; set temperature
M109 S200 ; wait for temperature to be reached
G28 ; home all axes
G1 Z10 F24000 ; move to print surface
G90 ; use absolute coordinates
G21 ; set units to millimeters
G92 E0
M82 ; use absolute distances for extrusion
G1 F60000.000 E-5.00000
G1 Z0.450
G92 E0
G1 X0.530 Y17.330 F12000.000
G1 Z0.150
G1 F60000.000 E5.00000
G1 X-0.560 Y17.330 F540.000 E5.01052
G1 X-2.450 Y17.170 E5.02883
G1 X-3.310 Y17.040 E5.03723
G1 X-25.440 Y12.110 E5.25609
G1 X-26.890 Y11.730 E5.27056
G1 X-27.570 Y11.480 E5.27756
G1 X-28.710 Y10.940 E5.28973
G1 X-29.640 Y10.410 E5.30007
G1 X-30.670 Y9.690 E5.31220
G1 X-31.030 Y9.400 E5.31666
G1 X-31.370 Y9.080 E5.32117
G1 X-32.090 Y8.360 E5.33100
G1 X-32.550 Y7.850 E5.33763
G1 X-32.830 Y7.480 E5.34211
G1 X-33.420 Y6.630 E5.35210
G1 X-33.950 Y5.700 E5.36243
G1 X-34.490 Y4.560 E5.37461
G1 X-34.740 Y3.880 E5.38160
G1 X-35.060 Y2.660 E5.39378
G1 X-35.250 Y1.580 E5.40436
G1 X-35.360 Y0.330 E5.41647
G1 X-35.360 Y-0.350 E5.42304
G1 X-35.250 Y-1.600 E5.43515
G1 X-35.060 Y-2.670 E5.44564
G1 X-34.740 Y-3.890 E5.45782
G1 X-34.490 Y-4.570 E5.46481
G1 X-33.950 Y-5.710 E5.47699
G1 X-33.420 Y-6.640 E5.48732
G1 X-32.700 Y-7.670 E5.49945
G1 X-32.410 Y-8.030 E5.50392
G1 X-31.370 Y-9.090 E5.51825
G1 X-31.030 Y-9.410 E5.52276
G1 X-30.490 Y-9.830 E5.52936
G1 X-29.640 Y-10.420 E5.53935
G1 X-28.710 Y-10.950 E5.54968
G1 X-27.570 Y-11.490 E5.56186
G1 X-26.890 Y-11.740 E5.56885
G1 X-25.440 Y-12.120 E5.58332
G1 X-3.310 Y-17.050 E5.80219
G1 X-2.450 Y-17.180 E5.81059
G1 X-0.560 Y-17.340 E5.82890
G1 X0.530 Y-17.340 E5.83942
G1 X2.430 Y-17.180 E5.85782
G1 X3.300 Y-17.050 E5.86632
G1 X25.430 Y-12.120 E6.08518
G1 X26.880 Y-11.740 E6.09965
G1 X27.560 Y-11.490 E6.10665
G1 X28.700 Y-10.950 E6.11882
G1 X29.630 Y-10.420 E6.12916
G1 X30.480 Y-9.830 E6.13914
G1 X31.020 Y-9.410 E6.14575
G1 X31.360 Y-9.090 E6.15026
G1 X32.400 Y-8.030 E6.16459
G1 X32.690 Y-7.670 E6.16905
G1 X33.410 Y-6.640 E6.18118
G1 X33.940 Y-5.710 E6.19152
G1 X34.480 Y-4.570 E6.20369
G1 X34.730 Y-3.890 E6.21069
G1 X35.050 Y-2.670 E6.22286
G1 X35.240 Y-1.600 E6.23335
G1 X35.350 Y-0.350 E6.24547
G1 X35.350 Y0.330 E6.25203
G1 X35.240 Y1.580 E6.26415
G1 X35.050 Y2.660 E6.27473
G1 X34.730 Y3.880 E6.28691
G1 X34.480 Y4.560 E6.29390
G1 X33.940 Y5.700 E6.30608
G1 X33.410 Y6.630 E6.31641
G1 X32.820 Y7.480 E6.32640
G1 X32.540 Y7.850 E6.33088
G1 X32.080 Y8.360 E6.33751
G1 X31.360 Y9.080 E6.34734
G1 X31.020 Y9.400 E6.35184
G1 X30.660 Y9.690 E6.35631
G1 X29.630 Y10.410 E6.36844
G1 X28.700 Y10.940 E6.37877
G1 X27.560 Y11.480 E6.39095
G1 X26.880 Y11.730 E6.39794
G1 X25.430 Y12.110 E6.41241
G1 X3.300 Y17.040 E6.63128
G1 X2.430 Y17.170 E6.63977
G1 X0.565 Y17.327 E6.65784
G1 X0.510 Y17.100 F12000.000
G1 X-0.540 Y17.100 F540.000 E6.66798
G1 X-2.430 Y16.940 E6.68629
G1 X-3.260 Y16.810 E6.69440
G1 X-25.610 Y11.830 E6.91544
G1 X-26.830 Y11.510 E6.92761
G1 X-27.260 Y11.360 E6.93201
G1 X-28.620 Y10.730 E6.94648
G1 X-29.500 Y10.220 E6.95630
G1 X-30.530 Y9.500 E6.96843
G1 X-30.880 Y9.220 E6.97276
G1 X-31.210 Y8.920 E6.97706
G1 X-31.930 Y8.200 E6.98689
G1 X-32.230 Y7.870 E6.99120
G1 X-32.510 Y7.520 E6.99552
G1 X-33.230 Y6.490 E7.00765
G1 X-33.740 Y5.610 E7.01747
G1 X-34.280 Y4.460 E7.02974
G1 X-34.520 Y3.820 E7.03634
G1 X-34.840 Y2.600 E7.04851
G1 X-35.020 Y1.560 E7.05870
G1 X-35.130 Y0.100 E7.07283
G1 X-35.110 Y-0.560 E7.07921
G1 X-35.020 Y-1.580 E7.08909
G1 X-34.840 Y-2.610 E7.09919
G1 X-34.520 Y-3.830 E7.11136
G1 X-34.280 Y-4.470 E7.11796
G1 X-33.740 Y-5.620 E7.13022
G1 X-33.230 Y-6.500 E7.14004
G1 X-32.510 Y-7.530 E7.15217
G1 X-32.080 Y-8.050 E7.15869
G1 X-31.210 Y-8.930 E7.17063
G1 X-30.880 Y-9.230 E7.17494
G1 X-30.350 Y-9.640 E7.18141
G1 X-29.500 Y-10.230 E7.19140
G1 X-28.620 Y-10.740 E7.20121
G1 X-27.470 Y-11.280 E7.21348
G1 X-26.830 Y-11.520 E7.22008
G1 X-25.390 Y-11.890 E7.23443
G1 X-3.260 Y-16.820 E7.45329
G1 X-2.430 Y-16.950 E7.46140
G1 X-0.540 Y-17.110 E7.47971
G1 X0.510 Y-17.110 E7.48985
G1 X2.410 Y-16.950 E7.50826
G1 X3.250 Y-16.820 E7.51646
G1 X25.380 Y-11.890 E7.73533
G1 X26.820 Y-11.520 E7.74968
G1 X27.460 Y-11.280 E7.75628
G1 X28.610 Y-10.740 E7.76854
G1 X29.490 Y-10.230 E7.77836
G1 X30.340 Y-9.640 E7.78835
G1 X30.870 Y-9.230 E7.79482
G1 X31.200 Y-8.930 E7.79912
G1 X32.070 Y-8.050 E7.81107
G1 X32.500 Y-7.530 E7.81758
G1 X33.220 Y-6.500 E7.82971
G1 X33.730 Y-5.620 E7.83953
G1 X34.270 Y-4.470 E7.85180
G1 X34.510 Y-3.830 E7.85839
G1 X34.830 Y-2.610 E7.87057
G1 X35.010 Y-1.580 E7.88066
G1 X35.100 Y-0.560 E7.89055
G1 X35.120 Y-0.120 E7.89480
G1 X35.100 Y0.530 E7.90108
G1 X35.010 Y1.560 E7.91106
G1 X34.830 Y2.600 E7.92125
G1 X34.510 Y3.820 E7.93342
G1 X34.270 Y4.460 E7.94002
G1 X33.730 Y5.610 E7.95229
G1 X33.220 Y6.490 E7.96210
G1 X32.500 Y7.520 E7.97424
G1 X32.220 Y7.870 E7.97856
G1 X31.920 Y8.200 E7.98287
G1 X31.200 Y8.920 E7.99270
G1 X30.870 Y9.220 E7.99700
G1 X30.520 Y9.500 E8.00133
G1 X29.490 Y10.220 E8.01346
G1 X28.610 Y10.730 E8.02328
G1 X27.250 Y11.360 E8.03775
G1 X26.820 Y11.510 E8.04214
G1 X25.600 Y11.830 E8.05432
G1 X3.250 Y16.810 E8.27536
G1 X2.410 Y16.940 E8.28357
G1 X0.545 Y17.097 E8.30164
G1 F60000.000 E3.30164
G1 Z0.450
G92 E0
G1 X-22.589 Y1.392 F12000.000
G1 Z0.150
G1 F60000.000 E5.00000
G1 X-23.608 Y2.411 F540.000 E5.01391
G1 X-25.000 Y2.784 E5.02783
G1 X-26.392 Y2.411 E5.04174
G1 X-27.411 Y1.392 E5.05565
G1 X-27.784 Y0.000 E5.06957
G1 X-27.411 Y-1.392 E5.08348
G1 X-26.392 Y-2.411 E5.09739
G1 X-25.000 Y-2.784 E5.11130
G1 X-23.608 Y-2.411 E5.12522
G1 X-22.589 Y-1.392 E5.13913
G1 X-22.216 Y0.000 E5.15304
G1 X-22.580 Y1.358 E5.16662
G1 X-22.797 Y1.272 F12000.000
G1 X-23.728 Y2.203 F540.000 E5.17933
G1 X-25.000 Y2.544 E5.19204
G1 X-26.272 Y2.203 E5.20476
G1 X-27.203 Y1.272 E5.21747
G1 X-27.544 Y0.000 E5.23018
G1 X-27.203 Y-1.272 E5.24289
G1 X-26.272 Y-2.203 E5.25560
G1 X-25.000 Y-2.544 E5.26831
G1 X-23.728 Y-2.203 E5.28103
G1 X-22.797 Y-1.272 E5.29374
G1 X-22.456 Y0.000 E5.30645
G1 X-22.788 Y1.238 E5.31883
G1 X-23.005 Y1.152 F12000.000
G1 X-23.848 Y1.995 F540.000 E5.33034
G1 X-25.000 Y2.304 E5.34185
G1 X-26.152 Y1.995 E5.35336
G1 X-26.995 Y1.152 E5.36487
G1 X-27.304 Y0.000 E5.37638
G1 X-26.995 Y-1.152 E5.38789
G1 X-26.152 Y-1.995 E5.39940
G1 X-25.000 Y-2.304 E5.41091
G1 X-23.848 Y-1.995 E5.42242
G1 X-23.005 Y-1.152 E5.43393
G1 X-22.696 Y0.000 E5.44544
G1 X-22.996 Y1.118 E5.45662
G1 X-22.907 Y1.362 F12000.000
G1 F60000.000 E0.45662
G1 Z0.450
G92 E0
G1 X22.216 Y0.000 F12000.000
G1 Z0.150
G1 F60000.000 E5.00000
G1 X22.589 Y-1.392 F540.000 E5.01391
G1 X23.608 Y-2.411 E5.02783
G1 X25.000 Y-2.784 E5.04174
G1 X26.392 Y-2.411 E5.05565
G1 X27.411 Y-1.392 E5.06957
G1 X27.784 Y0.000 E5.08348
G1 X27.411 Y1.392 E5.09739
G1 X26.392 Y2.411 E5.11130
G1 X25.000 Y2.784 E5.12522
G1 X23.608 Y2.411 E5.13913
G1 X22.589 Y1.392 E5.15304
G1 X22.225 Y0.034 E5.16662
G1 X22.456 Y0.000 F12000.000
G1 X22.797 Y-1.272 F540.000 E5.17933
G1 X23.728 Y-2.203 E5.19204
G1 X25.000 Y-2.544 E5.20476
G1 X26.272 Y-2.203 E5.21747
G1 X27.203 Y-1.272 E5.23018
G1 X27.544 Y0.000 E5.24289
G1 X27.203 Y1.272 E5.25560
G1 X26.272 Y2.203 E5.26831
G1 X25.000 Y2.544 E5.28103
G1 X23.728 Y2.203 E5.29374
G1 X22.797 Y1.272 E5.30645
G1 X22.465 Y0.034 E5.31883
G1 X22.696 Y0.000 F12000.000
G1 X23.005 Y-1.152 F540.000 E5.33034
G1 X23.848 Y-1.995 E5.34185
G1 X25.000 Y-2.304 E5.35336
G1 X26.152 Y-1.995 E5.36487
G1 X26.995 Y-1.152 E5.37638
G1 X27.304 Y0.000 E5.38789
G1 X26.995 Y1.152 E5.39940
G1 X26.152 Y1.995 E5.41091
G1 X25.000 Y2.304 E5.42242
G1 X23.848 Y1.995 E5.43393
G1 X23.005 Y1.152 E5.44544
G1 X22.705 Y0.034 E5.45662
G1 X22.506 Y-0.133 F12000.000
G1 F60000.000 E0.45662
G1 Z0.450
G92 E0
G1 X8.767 Y0.000 F12000.000
G1 Z0.150
G1 F60000.000 E5.00000
G1 X8.633 Y1.522 F540.000 E5.01475
G1 X8.238 Y2.998 E5.02950
G1 X7.592 Y4.383 E5.04425
G1 X6.716 Y5.635 E5.05901
G1 X5.583 Y6.752 E5.07436
G1 X4.383 Y7.592 E5.08850
G1 X2.998 Y8.238 E5.10325
G1 X1.522 Y8.633 E5.11800
G1 X0.000 Y8.767 E5.13275
G1 X-1.522 Y8.633 E5.14750
G1 X-2.998 Y8.238 E5.16226
G1 X-4.383 Y7.592 E5.17701
G1 X-5.635 Y6.716 E5.19176
G1 X-6.716 Y5.635 E5.20651
G1 X-7.592 Y4.383 E5.22126
G1 X-8.238 Y2.998 E5.23601
G1 X-8.633 Y1.522 E5.25076
G1 X-8.767 Y0.000 E5.26552
G1 X-8.633 Y-1.522 E5.28027
G1 X-8.238 Y-2.998 E5.29502
G1 X-7.592 Y-4.383 E5.30977
G1 X-6.716 Y-5.635 E5.32452
G1 X-5.635 Y-6.716 E5.33927
G1 X-4.383 Y-7.592 E5.35402
G1 X-2.998 Y-8.238 E5.36878
G1 X-1.522 Y-8.633 E5.38353
G1 X-0.000 Y-8.767 E5.39828
G1 X1.522 Y-8.633 E5.41303
G1 X2.998 Y-8.238 E5.42778
G1 X4.383 Y-7.592 E5.44253
G1 X5.635 Y-6.715 E5.45728
G1 X6.716 Y-5.635 E5.47203
G1 X7.592 Y-4.383 E5.48679
G1 X8.238 Y-2.998 E5.50154
G1 X8.633 Y-1.522 E5.51629
G1 X8.763 Y-0.035 E5.53070
G1 X8.533 Y0.000 F12000.000
G1 X8.404 Y1.482 F540.000 E5.54506
G1 X8.019 Y2.919 E5.55942
G1 X7.390 Y4.267 E5.57378
G1 X6.537 Y5.485 E5.58814
G1 X5.450 Y6.562 E5.60291
G1 X4.267 Y7.390 E5.61685
G1 X2.919 Y8.019 E5.63121
G1 X1.482 Y8.404 E5.64557
G1 X0.000 Y8.533 E5.65993
G1 X-1.482 Y8.404 E5.67429
G1 X-2.919 Y8.019 E5.68865
G1 X-4.267 Y7.390 E5.70301
G1 X-5.485 Y6.537 E5.71737
G1 X-6.537 Y5.485 E5.73173
G1 X-7.390 Y4.267 E5.74609
G1 X-8.019 Y2.919 E5.76044
G1 X-8.404 Y1.482 E5.77480
G1 X-8.533 Y0.000 E5.78916
G1 X-8.404 Y-1.482 E5.80352
G1 X-8.019 Y-2.919 E5.81788
G1 X-7.390 Y-4.267 E5.83224
G1 X-6.537 Y-5.485 E5.84660
G1 X-5.485 Y-6.537 E5.86096
G1 X-4.267 Y-7.390 E5.87532
G1 X-2.919 Y-8.019 E5.88968
G1 X-1.482 Y-8.404 E5.90404
G1 X-0.000 Y-8.533 E5.91839
G1 X1.482 Y-8.404 E5.93275
G1 X2.919 Y-8.019 E5.94711
G1 X4.267 Y-7.390 E5.96147
G1 X5.485 Y-6.537 E5.97583
G1 X6.537 Y-5.485 E5.99019
G1 X7.390 Y-4.267 E6.00455
G1 X8.019 Y-2.919 E6.01891
G1 X8.404 Y-1.482 E6.03327
G1 X8.530 Y-0.035 E6.04729
G1 X8.298 Y-0.023 F12000.000
G1 X8.174 Y1.441 F540.000 E6.06148
G1 X7.800 Y2.839 E6.07544
G1 X7.188 Y4.150 E6.08941
G1 X6.358 Y5.335 E6.10338
G1 X5.317 Y6.372 E6.11756
G1 X4.150 Y7.188 E6.13131
G1 X2.839 Y7.800 E6.14528
G1 X1.441 Y8.174 E6.15924
G1 X0.000 Y8.300 E6.17321
G1 X-1.441 Y8.174 E6.18718
G1 X-2.839 Y7.800 E6.20114
G1 X-4.150 Y7.188 E6.21511
G1 X-5.335 Y6.358 E6.22908
G1 X-6.358 Y5.335 E6.24304
G1 X-7.188 Y4.150 E6.25701
G1 X-7.800 Y2.839 E6.27098
G1 X-8.174 Y1.441 E6.28495
G1 X-8.300 Y0.000 E6.29891
G1 X-8.174 Y-1.441 E6.31288
G1 X-7.800 Y-2.839 E6.32685
G1 X-7.188 Y-4.150 E6.34081
G1 X-6.358 Y-5.335 E6.35478
G1 X-5.335 Y-6.358 E6.36875
G1 X-4.150 Y-7.188 E6.38271
G1 X-2.839 Y-7.800 E6.39668
G1 X-1.441 Y-8.174 E6.41065
G1 X-0.000 Y-8.300 E6.42462
G1 X1.441 Y-8.174 E6.43858
G1 X2.839 Y-7.800 E6.45255
G1 X4.150 Y-7.188 E6.46652
G1 X5.335 Y-6.358 E6.48048
G1 X6.358 Y-5.335 E6.49445
G1 X7.188 Y-4.150 E6.50842
G1 X7.800 Y-2.839 E6.52238
G1 X8.174 Y-1.441 E6.53635
G1 X8.295 Y-0.058 E6.54976
G1 X8.496 Y0.099 F12000.000
G1 F60000.000 E1.54976
G1 Z0.450
G92 E0
G1 X28.106 Y-1.858 F12000.000
G1 Z0.150
G1 F60000.000 E5.00000
G1 X28.351 Y-0.944 F540.000 E5.00914
G1 X28.433 Y-0.000 E5.01829
G1 X28.351 Y0.944 E5.02743
G1 X28.106 Y1.858 E5.03657
G1 X27.706 Y2.717 E5.04571
G1 X27.162 Y3.493 E5.05486
G1 X26.493 Y4.162 E5.06400
G1 X25.717 Y4.705 E5.07314
G1 X24.858 Y5.106 E5.08229
G1 X23.944 Y5.351 E5.09143
G1 X22.975 Y5.436 E5.10081
G1 X8.882 Y5.436 E5.23685
G1 X7.992 Y6.707 E5.25183
G1 X6.706 Y7.993 E5.26939
G1 X5.217 Y9.036 E5.28694
G1 X3.568 Y9.804 E5.30450
G1 X1.812 Y10.275 E5.32206
G1 X-0.000 Y10.433 E5.33961
G1 X-1.812 Y10.275 E5.35717
G1 X-3.568 Y9.804 E5.37473
G1 X-5.217 Y9.036 E5.39228
G1 X-6.707 Y7.993 E5.40984
G1 X-7.992 Y6.707 E5.42739
G1 X-8.882 Y5.436 E5.44237
G1 X-22.975 Y5.436 E5.57842
G1 X-23.944 Y5.351 E5.58780
G1 X-24.858 Y5.106 E5.59694
G1 X-25.717 Y4.705 E5.60608
G1 X-26.493 Y4.162 E5.61523
G1 X-27.162 Y3.493 E5.62437
G1 X-27.706 Y2.717 E5.63351
G1 X-28.106 Y1.858 E5.64265
G1 X-28.351 Y0.944 E5.65180
G1 X-28.433 Y-0.000 E5.66094
G1 X-28.351 Y-0.944 E5.67008
G1 X-28.106 Y-1.858 E5.67923
G1 X-27.706 Y-2.717 E5.68837
G1 X-27.162 Y-3.493 E5.69751
G1 X-26.493 Y-4.162 E5.70665
G1 X-25.717 Y-4.706 E5.71580
G1 X-24.858 Y-5.106 E5.72494
G1 X-23.944 Y-5.351 E5.73408
G1 X-22.975 Y-5.436 E5.74346
G1 X-8.882 Y-5.436 E5.87951
G1 X-7.993 Y-6.706 E5.89449
G1 X-6.706 Y-7.993 E5.91204
G1 X-5.217 Y-9.036 E5.92960
G1 X-3.568 Y-9.804 E5.94715
G1 X-1.812 Y-10.275 E5.96471
G1 X-0.000 Y-10.433 E5.98227
G1 X1.812 Y-10.275 E5.99982
G1 X3.568 Y-9.804 E6.01738
G1 X5.217 Y-9.036 E6.03494
G1 X6.706 Y-7.993 E6.05249
G1 X7.992 Y-6.707 E6.07005
G1 X8.882 Y-5.436 E6.08503
G1 X22.975 Y-5.436 E6.22107
G1 X23.944 Y-5.351 E6.23045
G1 X24.858 Y-5.106 E6.23959
G1 X25.717 Y-4.706 E6.24874
G1 X26.493 Y-4.162 E6.25788
G1 X27.162 Y-3.493 E6.26702
G1 X27.706 Y-2.717 E6.27617
G1 X28.091 Y-1.890 E6.28497
G1 X28.325 Y-1.938 F12000.000
G1 X28.580 Y-0.984 F540.000 E6.29451
G1 X28.667 Y-0.000 E6.30404
G1 X28.580 Y0.984 E6.31358
G1 X28.325 Y1.938 E6.32311
G1 X27.907 Y2.833 E6.33265
G1 X27.341 Y3.642 E6.34218
G1 X26.642 Y4.341 E6.35172
G1 X25.833 Y4.907 E6.36125
G1 X24.938 Y5.325 E6.37079
G1 X23.984 Y5.580 E6.38032
G1 X22.985 Y5.668 E6.39000
G1 X9.003 Y5.668 E6.52497
G1 X8.171 Y6.856 E6.53898
G1 X6.856 Y8.171 E6.55693
G1 X5.333 Y9.238 E6.57488
G1 X3.648 Y10.023 E6.59282
G1 X1.852 Y10.505 E6.61077
G1 X-0.000 Y10.667 E6.62872
G1 X-1.852 Y10.505 E6.64667
G1 X-3.648 Y10.023 E6.66462
G1 X-5.333 Y9.238 E6.68257
G1 X-6.856 Y8.171 E6.70052
G1 X-8.171 Y6.856 E6.71846
G1 X-9.003 Y5.668 E6.73247
G1 X-22.985 Y5.668 E6.86745
G1 X-23.984 Y5.580 E6.87712
G1 X-24.938 Y5.325 E6.88666
G1 X-25.833 Y4.907 E6.89619
G1 X-26.642 Y4.341 E6.90573
G1 X-27.341 Y3.642 E6.91526
G1 X-27.907 Y2.833 E6.92480
G1 X-28.325 Y1.938 E6.93433
G1 X-28.580 Y0.984 E6.94387
G1 X-28.667 Y-0.000 E6.95340
G1 X-28.580 Y-0.984 E6.96294
G1 X-28.325 Y-1.938 E6.97247
G1 X-27.907 Y-2.833 E6.98201
G1 X-27.341 Y-3.642 E6.99154
G1 X-26.642 Y-4.341 E7.00108
G1 X-25.833 Y-4.907 E7.01061
G1 X-24.938 Y-5.325 E7.02015
G1 X-23.984 Y-5.580 E7.02968
G1 X-22.986 Y-5.668 E7.03936
G1 X-9.003 Y-5.668 E7.17433
G1 X-8.171 Y-6.856 E7.18834
G1 X-6.856 Y-8.171 E7.20629
G1 X-5.333 Y-9.237 E7.22424
G1 X-3.648 Y-10.023 E7.24218
G1 X-1.852 Y-10.505 E7.26013
G1 X-0.000 Y-10.667 E7.27808
G1 X1.852 Y-10.505 E7.29603
G1 X3.648 Y-10.023 E7.31398
G1 X5.333 Y-9.237 E7.33193
G1 X6.856 Y-8.171 E7.34988
G1 X8.171 Y-6.856 E7.36782
G1 X9.003 Y-5.668 E7.38183
G1 X22.985 Y-5.668 E7.51681
G1 X23.984 Y-5.580 E7.52648
G1 X24.938 Y-5.325 E7.53602
G1 X25.833 Y-4.907 E7.54555
G1 X26.642 Y-4.341 E7.55509
G1 X27.341 Y-3.642 E7.56462
G1 X27.907 Y-2.833 E7.57416
G1 X28.310 Y-1.970 E7.58336
G1 X28.544 Y-2.018 F12000.000
G1 X28.810 Y-1.024 F540.000 E7.59328
G1 X28.900 Y-0.000 E7.60321
G1 X28.810 Y1.024 E7.61314
G1 X28.544 Y2.018 E7.62306
G1 X28.109 Y2.950 E7.63299
G1 X27.519 Y3.792 E7.64292
G1 X26.792 Y4.519 E7.65285
G1 X25.950 Y5.109 E7.66277
G1 X25.018 Y5.544 E7.67270
G1 X24.024 Y5.810 E7.68263
G1 X22.996 Y5.900 E7.69260
G1 X9.124 Y5.900 E7.82650
G1 X8.350 Y7.006 E7.83954
G1 X7.006 Y8.350 E7.85788
G1 X5.450 Y9.439 E7.87622
G1 X3.728 Y10.242 E7.89456
G1 X1.893 Y10.734 E7.91290
G1 X-0.000 Y10.900 E7.93124
G1 X-1.893 Y10.734 E7.94958
G1 X-3.728 Y10.242 E7.96792
G1 X-5.450 Y9.439 E7.98626
G1 X-7.006 Y8.350 E8.00460
G1 X-8.350 Y7.006 E8.02295
G1 X-9.124 Y5.900 E8.03598
G1 X-22.996 Y5.900 E8.16989
G1 X-24.024 Y5.810 E8.17986
G1 X-25.018 Y5.544 E8.18978
G1 X-25.950 Y5.109 E8.19971
G1 X-26.792 Y4.519 E8.20964
G1 X-27.519 Y3.792 E8.21957
G1 X-28.109 Y2.950 E8.22949
G1 X-28.544 Y2.018 E8.23942
G1 X-28.810 Y1.024 E8.24935
G1 X-28.900 Y-0.000 E8.25928
G1 X-28.810 Y-1.024 E8.26920
G1 X-28.544 Y-2.018 E8.27913
G1 X-28.109 Y-2.950 E8.28906
G1 X-27.519 Y-3.792 E8.29898
