; generated by Slic3r 0.9.9-dev on 2013-02-21 at 19:47:03

; This Slic3r config is for the Rostock delta robot 3D printer prototype.

; layer_height = 0.1
; perimeters = 3
; top_solid_layers = 3
; bottom_solid_layers = 3
; fill_density = 1
; perimeter_speed = 30
; infill_speed = 45
; travel_speed = 200
; scale = 1
; nozzle_diameter = 0.35
; filament_diameter = 1.75
; extrusion_multiplier = .95
; perimeters extrusion width = 0.56mm
; infill extrusion width = 0.56mm
; first layer extrusion width = 0.20mm

M107
M190 S60 ; wait for bed temperature to be reached
M104 S189 ; set temperature
M109 S189 ; wait for temperature to be reached
G28 ; home all axes
G1 Z10 F24000 ; move to print surface
G90 ; use absolute coordinates
G21 ; set units to millimeters
G92 E0
M82 ; use absolute distances for extrusion
G1 F60000.000 E-5.00000
G1 Z0.500
G92 E0
G1 X0.530 Y17.330 F12000.000
G1 Z0.200
G1 F60000.000 E5.00000
G1 X-0.560 Y17.330 F450.000 E5.01000
G1 X-2.450 Y17.170 E5.02739
G1 X-3.310 Y17.040 E5.03537
G1 X-25.440 Y12.110 E5.24329
G1 X-26.890 Y11.730 E5.25704
G1 X-27.570 Y11.480 E5.26368
G1 X-28.710 Y10.940 E5.27525
G1 X-29.640 Y10.410 E5.28506
G1 X-30.670 Y9.690 E5.29659
G1 X-31.030 Y9.400 E5.30083
G1 X-31.370 Y9.080 E5.30511
G1 X-32.090 Y8.360 E5.31445
G1 X-32.550 Y7.850 E5.32075
G1 X-32.830 Y7.480 E5.32500
G1 X-33.420 Y6.630 E5.33449
G1 X-33.950 Y5.700 E5.34431
G1 X-34.490 Y4.560 E5.35588
G1 X-34.740 Y3.880 E5.36252
G1 X-35.060 Y2.660 E5.37409
G1 X-35.250 Y1.580 E5.38414
G1 X-35.360 Y0.330 E5.39565
G1 X-35.360 Y-0.350 E5.40189
G1 X-35.250 Y-1.600 E5.41339
G1 X-35.060 Y-2.670 E5.42336
G1 X-34.740 Y-3.890 E5.43493
G1 X-34.490 Y-4.570 E5.44157
G1 X-33.950 Y-5.710 E5.45314
G1 X-33.420 Y-6.640 E5.46296
G1 X-32.700 Y-7.670 E5.47448
G1 X-32.410 Y-8.030 E5.47872
G1 X-31.370 Y-9.090 E5.49234
G1 X-31.030 Y-9.410 E5.49662
G1 X-30.490 Y-9.830 E5.50289
G1 X-29.640 Y-10.420 E5.51238
G1 X-28.710 Y-10.950 E5.52220
G1 X-27.570 Y-11.490 E5.53377
G1 X-26.890 Y-11.740 E5.54041
G1 X-25.440 Y-12.120 E5.55416
G1 X-3.310 Y-17.050 E5.76208
G1 X-2.450 Y-17.180 E5.77006
G1 X-0.560 Y-17.340 E5.78745
G1 X0.530 Y-17.340 E5.79745
G1 X2.430 Y-17.180 E5.81493
G1 X3.300 Y-17.050 E5.82300
G1 X25.430 Y-12.120 E6.03092
G1 X26.880 Y-11.740 E6.04467
G1 X27.560 Y-11.490 E6.05131
G1 X28.700 Y-10.950 E6.06288
G1 X29.630 Y-10.420 E6.07270
G1 X30.480 Y-9.830 E6.08219
G1 X31.020 Y-9.410 E6.08846
G1 X31.360 Y-9.090 E6.09274
G1 X32.400 Y-8.030 E6.10636
G1 X32.690 Y-7.670 E6.11060
G1 X33.410 Y-6.640 E6.12213
G1 X33.940 Y-5.710 E6.13194
G1 X34.480 Y-4.570 E6.14351
G1 X34.730 Y-3.890 E6.15015
G1 X35.050 Y-2.670 E6.16172
G1 X35.240 Y-1.600 E6.17169
G1 X35.350 Y-0.350 E6.18319
G1 X35.350 Y0.330 E6.18943
G1 X35.240 Y1.580 E6.20094
G1 X35.050 Y2.660 E6.21099
G1 X34.730 Y3.880 E6.22256
G1 X34.480 Y4.560 E6.22921
G1 X33.940 Y5.700 E6.24077
G1 X33.410 Y6.630 E6.25059
G1 X32.820 Y7.480 E6.26008
G1 X32.540 Y7.850 E6.26433
G1 X32.080 Y8.360 E6.27063
G1 X31.360 Y9.080 E6.27997
G1 X31.020 Y9.400 E6.28425
G1 X30.660 Y9.690 E6.28849
G1 X29.630 Y10.410 E6.30002
G1 X28.700 Y10.940 E6.30983
G1 X27.560 Y11.480 E6.32140
G1 X26.880 Y11.730 E6.32805
G1 X25.430 Y12.110 E6.34179
G1 X3.300 Y17.040 E6.54971
G1 X2.430 Y17.170 E6.55778
G1 X0.565 Y17.327 E6.57495
G1 X0.510 Y17.100 F12000.000
G1 X-0.540 Y17.100 F450.000 E6.58458
G1 X-2.430 Y16.940 E6.60197
G1 X-3.260 Y16.810 E6.60968
G1 X-25.610 Y11.830 E6.81967
G1 X-26.830 Y11.510 E6.83123
G1 X-27.260 Y11.360 E6.83541
G1 X-28.620 Y10.730 E6.84916
G1 X-29.500 Y10.220 E6.85848
G1 X-30.530 Y9.500 E6.87001
G1 X-30.880 Y9.220 E6.87412
G1 X-31.210 Y8.920 E6.87821
G1 X-31.930 Y8.200 E6.88755
G1 X-32.230 Y7.870 E6.89164
G1 X-32.510 Y7.520 E6.89575
G1 X-33.230 Y6.490 E6.90727
G1 X-33.740 Y5.610 E6.91660
G1 X-34.280 Y4.460 E6.92825
G1 X-34.520 Y3.820 E6.93452
G1 X-34.840 Y2.600 E6.94609
G1 X-35.020 Y1.560 E6.95576
G1 X-35.130 Y0.100 E6.96919
G1 X-35.110 Y-0.560 E6.97525
G1 X-35.020 Y-1.580 E6.98464
G1 X-34.840 Y-2.610 E6.99423
G1 X-34.520 Y-3.830 E7.00579
G1 X-34.280 Y-4.470 E7.01206
G1 X-33.740 Y-5.620 E7.02371
G1 X-33.230 Y-6.500 E7.03304
G1 X-32.510 Y-7.530 E7.04457
G1 X-32.080 Y-8.050 E7.05075
G1 X-31.210 Y-8.930 E7.06210
G1 X-30.880 Y-9.230 E7.06619
G1 X-30.350 Y-9.640 E7.07234
G1 X-29.500 Y-10.230 E7.08183
G1 X-28.620 Y-10.740 E7.09115
G1 X-27.470 Y-11.280 E7.10280
G1 X-26.830 Y-11.520 E7.10907
G1 X-25.390 Y-11.890 E7.12271
G1 X-3.260 Y-16.820 E7.33063
G1 X-2.430 Y-16.950 E7.33833
G1 X-0.540 Y-17.110 E7.35573
G1 X0.510 Y-17.110 E7.36536
G1 X2.410 Y-16.950 E7.38284
G1 X3.250 Y-16.820 E7.39064
G1 X25.380 Y-11.890 E7.59856
G1 X26.820 Y-11.520 E7.61220
G1 X27.460 Y-11.280 E7.61846
G1 X28.610 Y-10.740 E7.63012
G1 X29.490 Y-10.230 E7.63944
G1 X30.340 Y-9.640 E7.64893
G1 X30.870 Y-9.230 E7.65508
G1 X31.200 Y-8.930 E7.65917
G1 X32.070 Y-8.050 E7.67051
G1 X32.500 Y-7.530 E7.67670
G1 X33.220 Y-6.500 E7.68823
G1 X33.730 Y-5.620 E7.69756
G1 X34.270 Y-4.470 E7.70921
G1 X34.510 Y-3.830 E7.71547
G1 X34.830 Y-2.610 E7.72704
G1 X35.010 Y-1.580 E7.73663
G1 X35.100 Y-0.560 E7.74602
G1 X35.120 Y-0.120 E7.75006
G1 X35.100 Y0.530 E7.75602
G1 X35.010 Y1.560 E7.76551
G1 X34.830 Y2.600 E7.77518
G1 X34.510 Y3.820 E7.78675
G1 X34.270 Y4.460 E7.79302
G1 X33.730 Y5.610 E7.80467
G1 X33.220 Y6.490 E7.81400
G1 X32.500 Y7.520 E7.82552
G1 X32.220 Y7.870 E7.82963
G1 X31.920 Y8.200 E7.83372
G1 X31.200 Y8.920 E7.84306
G1 X30.870 Y9.220 E7.84715
G1 X30.520 Y9.500 E7.85126
G1 X29.490 Y10.220 E7.86279
G1 X28.610 Y10.730 E7.87211
G1 X27.250 Y11.360 E7.88586
G1 X26.820 Y11.510 E7.89004
G1 X25.600 Y11.830 E7.90160
G1 X3.250 Y16.810 E8.11159
G1 X2.410 Y16.940 E8.11939
G1 X0.545 Y17.097 E8.13656
G1 F60000.000 E3.13656
G1 Z0.500
G92 E0
G1 X22.589 Y1.392 F12000.000
G1 Z0.200
G1 F60000.000 E5.00000
G1 X22.216 Y0.000 F450.000 E5.01322
G1 X22.589 Y-1.392 E5.02643
G1 X23.608 Y-2.411 E5.03965
G1 X25.000 Y-2.784 E5.05287
G1 X26.392 Y-2.411 E5.06609
G1 X27.411 Y-1.392 E5.07930
G1 X27.784 Y0.000 E5.09252
G1 X27.411 Y1.392 E5.10574
G1 X26.392 Y2.411 E5.11896
G1 X25.000 Y2.784 E5.13217
G1 X23.608 Y2.411 E5.14539
G1 X22.613 Y1.417 E5.15829
G1 X22.797 Y1.272 F12000.000
G1 X22.456 Y0.000 F450.000 E5.17036
G1 X22.797 Y-1.272 E5.18244
G1 X23.728 Y-2.203 E5.19452
G1 X25.000 Y-2.544 E5.20659
G1 X26.272 Y-2.203 E5.21867
G1 X27.203 Y-1.272 E5.23075
G1 X27.544 Y0.000 E5.24282
G1 X27.203 Y1.272 E5.25490
G1 X26.272 Y2.203 E5.26697
G1 X25.000 Y2.544 E5.27905
G1 X23.728 Y2.203 E5.29113
G1 X22.821 Y1.297 E5.30288
G1 X23.005 Y1.152 F12000.000
G1 X22.696 Y0.000 F450.000 E5.31382
G1 X23.005 Y-1.152 E5.32475
G1 X23.848 Y-1.995 E5.33569
G1 X25.000 Y-2.304 E5.34662
G1 X26.152 Y-1.995 E5.35756
G1 X26.995 Y-1.152 E5.36850
G1 X27.304 Y0.000 E5.37943
G1 X26.995 Y1.152 E5.39036
G1 X26.152 Y1.995 E5.40130
G1 X25.000 Y2.304 E5.41224
G1 X23.848 Y1.995 E5.42317
G1 X23.030 Y1.176 E5.43379
G1 X22.774 Y1.132 F12000.000
G1 F60000.000 E0.43379
G1 Z0.500
G92 E0
G1 X-22.216 Y0.000 F12000.000
G1 Z0.200
G1 F60000.000 E5.00000
G1 X-22.589 Y1.392 F450.000 E5.01322
G1 X-23.608 Y2.411 E5.02643
G1 X-25.000 Y2.784 E5.03965
G1 X-26.392 Y2.411 E5.05287
G1 X-27.411 Y1.392 E5.06609
G1 X-27.784 Y0.000 E5.07930
G1 X-27.411 Y-1.392 E5.09252
G1 X-26.392 Y-2.411 E5.10574
G1 X-25.000 Y-2.784 E5.11896
G1 X-23.608 Y-2.411 E5.13217
G1 X-22.589 Y-1.392 E5.14539
G1 X-22.225 Y-0.034 E5.15829
G1 X-22.456 Y0.000 F12000.000
G1 X-22.797 Y1.272 F450.000 E5.17036
G1 X-23.728 Y2.203 E5.18244
G1 X-25.000 Y2.544 E5.19452
G1 X-26.272 Y2.203 E5.20659
G1 X-27.203 Y1.272 E5.21867
G1 X-27.544 Y0.000 E5.23075
G1 X-27.203 Y-1.272 E5.24282
G1 X-26.272 Y-2.203 E5.25490
G1 X-25.000 Y-2.544 E5.26698
G1 X-23.728 Y-2.203 E5.27905
G1 X-22.797 Y-1.272 E5.29113
G1 X-22.465 Y-0.034 E5.30288
G1 X-22.696 Y0.000 F12000.000
G1 X-23.005 Y1.152 F450.000 E5.31382
G1 X-23.848 Y1.995 E5.32475
G1 X-25.000 Y2.304 E5.33569
G1 X-26.152 Y1.995 E5.34662
G1 X-26.995 Y1.152 E5.35756
G1 X-27.304 Y0.000 E5.36850
G1 X-26.995 Y-1.152 E5.37943
G1 X-26.152 Y-1.995 E5.39037
G1 X-25.000 Y-2.304 E5.40130
G1 X-23.848 Y-1.995 E5.41224
G1 X-23.005 Y-1.152 E5.42317
G1 X-22.705 Y-0.034 E5.43379
G1 X-22.506 Y0.133 F12000.000
G1 F60000.000 E0.43379
G1 Z0.500
G92 E0
G1 X-9.817 Y-0.250 F12000.000
G1 Z0.200
G1 F60000.000 E5.00000
G1 X-9.603 Y-2.291 F450.000 E5.01882
G1 X-8.969 Y-4.243 E5.03764
G1 X-7.943 Y-6.021 E5.05647
G1 X-6.622 Y-7.487 E5.07457
G1 X-6.569 Y-7.546 E5.07529
G1 X-4.909 Y-8.752 E5.09411
G1 X-3.034 Y-9.587 E5.11293
G1 X-1.026 Y-10.014 E5.13175
G1 X1.026 Y-10.014 E5.15058
G1 X3.034 Y-9.587 E5.16940
G1 X4.909 Y-8.752 E5.18822
G1 X6.569 Y-7.546 E5.20704
G1 X7.943 Y-6.021 E5.22586
G1 X8.969 Y-4.243 E5.24469
G1 X9.603 Y-2.291 E5.26351
G1 X9.817 Y-0.250 E5.28233
G1 X9.603 Y1.791 E5.30115
G1 X8.969 Y3.743 E5.31997
G1 X7.943 Y5.521 E5.33880
G1 X6.569 Y7.046 E5.35762
G1 X4.909 Y8.252 E5.37644
G1 X4.837 Y8.284 E5.37716
G1 X3.034 Y9.087 E5.39526
G1 X1.026 Y9.514 E5.41408
G1 X-1.026 Y9.514 E5.43291
G1 X-3.034 Y9.087 E5.45173
G1 X-4.909 Y8.252 E5.47055
G1 X-6.569 Y7.046 E5.48937
G1 X-7.943 Y5.521 E5.50820
G1 X-8.969 Y3.743 E5.52702
G1 X-9.603 Y1.791 E5.54584
G1 X-9.814 Y-0.215 E5.56434
G1 X-9.584 Y-0.250 F12000.000
G1 X-9.375 Y-2.243 F450.000 E5.58272
G1 X-8.755 Y-4.148 E5.60109
G1 X-7.754 Y-5.883 E5.61946
G1 X-6.449 Y-7.332 E5.63734
G1 X-4.792 Y-8.550 E5.65620
G1 X-2.962 Y-9.365 E5.67458
G1 X-1.002 Y-9.782 E5.69295
G1 X1.002 Y-9.782 E5.71133
G1 X2.962 Y-9.365 E5.72970
G1 X4.792 Y-8.550 E5.74808
G1 X6.413 Y-7.372 E5.76645
G1 X7.754 Y-5.883 E5.78482
G1 X8.755 Y-4.148 E5.80320
G1 X9.375 Y-2.243 E5.82157
G1 X9.584 Y-0.250 E5.83995
G1 X9.375 Y1.743 E5.85832
G1 X8.755 Y3.648 E5.87670
G1 X7.717 Y5.424 E5.89556
G1 X6.413 Y6.872 E5.91343
G1 X4.792 Y8.050 E5.93181
G1 X2.962 Y8.865 E5.95018
G1 X1.002 Y9.282 E5.96856
G1 X-1.002 Y9.282 E5.98693
G1 X-2.962 Y8.865 E6.00531
G1 X-4.792 Y8.050 E6.02368
G1 X-6.413 Y6.872 E6.04206
G1 X-7.754 Y5.383 E6.06043
G1 X-8.755 Y3.648 E6.07880
G1 X-9.375 Y1.743 E6.09718
G1 X-9.580 Y-0.215 E6.11523
G1 X-9.351 Y-0.250 F12000.000
G1 X-9.146 Y-2.194 F450.000 E6.13316
G1 X-8.542 Y-4.053 E6.15109
G1 X-7.565 Y-5.746 E6.16901
G1 X-6.277 Y-7.177 E6.18667
G1 X-4.675 Y-8.348 E6.20486
G1 X-2.889 Y-9.143 E6.22279
G1 X-0.977 Y-9.549 E6.24072
G1 X0.977 Y-9.549 E6.25864
G1 X2.889 Y-9.143 E6.27657
G1 X4.675 Y-8.348 E6.29450
G1 X6.257 Y-7.199 E6.31242
G1 X7.565 Y-5.746 E6.33035
G1 X8.542 Y-4.053 E6.34828
G1 X9.146 Y-2.194 E6.36620
G1 X9.351 Y-0.250 E6.38413
G1 X9.146 Y1.694 E6.40206
G1 X8.542 Y3.553 E6.41998
G1 X7.545 Y5.268 E6.43818
G1 X6.257 Y6.699 E6.45583
G1 X4.675 Y7.848 E6.47376
G1 X2.889 Y8.643 E6.49169
G1 X0.977 Y9.049 E6.50961
G1 X-0.977 Y9.049 E6.52754
G1 X-2.889 Y8.643 E6.54547
G1 X-4.675 Y7.848 E6.56339
G1 X-6.257 Y6.699 E6.58132
G1 X-7.565 Y5.246 E6.59925
G1 X-8.542 Y3.553 E6.61717
G1 X-9.146 Y1.694 E6.63510
G1 X-9.347 Y-0.215 E6.65271
G1 X-9.547 Y-0.373 F12000.000
G1 F60000.000 E1.65271
G1 Z0.500
G92 E0
G1 X-24.858 Y5.106 F12000.000
G1 Z0.200
G1 F60000.000 E5.00000
G1 X-25.717 Y4.705 F450.000 E5.00869
G1 X-26.493 Y4.162 E5.01737
G1 X-27.162 Y3.493 E5.02606
G1 X-27.706 Y2.717 E5.03474
G1 X-28.106 Y1.858 E5.04343
G1 X-28.351 Y0.944 E5.05211
G1 X-28.433 Y-0.000 E5.06080
G1 X-28.351 Y-0.944 E5.06949
G1 X-28.106 Y-1.858 E5.07817
G1 X-27.706 Y-2.717 E5.08686
G1 X-27.162 Y-3.493 E5.09554
G1 X-26.493 Y-4.162 E5.10423
G1 X-25.717 Y-4.706 E5.11291
G1 X-24.858 Y-5.106 E5.12160
G1 X-23.944 Y-5.351 E5.13029
G1 X-22.975 Y-5.436 E5.13920
G1 X-8.882 Y-5.436 E5.26844
G1 X-7.993 Y-6.706 E5.28267
G1 X-6.706 Y-7.993 E5.29935
G1 X-5.217 Y-9.036 E5.31603
G1 X-3.568 Y-9.804 E5.33270
G1 X-1.812 Y-10.275 E5.34938
G1 X-0.000 Y-10.433 E5.36606
G1 X1.812 Y-10.275 E5.38274
G1 X3.568 Y-9.804 E5.39942
G1 X5.217 Y-9.036 E5.41610
G1 X6.706 Y-7.993 E5.43277
G1 X7.992 Y-6.707 E5.44945
G1 X8.882 Y-5.436 E5.46368
G1 X22.975 Y-5.436 E5.59292
G1 X23.944 Y-5.351 E5.60184
G1 X24.858 Y-5.106 E5.61052
G1 X25.717 Y-4.706 E5.61921
G1 X26.493 Y-4.162 E5.62789
G1 X27.162 Y-3.493 E5.63658
G1 X27.706 Y-2.717 E5.64526
G1 X28.106 Y-1.858 E5.65395
G1 X28.351 Y-0.944 E5.66264
G1 X28.433 Y-0.000 E5.67132
G1 X28.351 Y0.944 E5.68001
G1 X28.106 Y1.858 E5.68869
G1 X27.706 Y2.717 E5.69738
G1 X27.162 Y3.493 E5.70606
G1 X26.493 Y4.162 E5.71475
G1 X25.717 Y4.705 E5.72344
G1 X24.858 Y5.106 E5.73212
G1 X23.944 Y5.351 E5.74081
G1 X22.975 Y5.436 E5.74972
G1 X8.882 Y5.436 E5.87896
G1 X7.992 Y6.707 E5.89319
G1 X6.706 Y7.993 E5.90987
G1 X5.217 Y9.036 E5.92655
G1 X3.568 Y9.804 E5.94323
G1 X1.812 Y10.275 E5.95990
G1 X-0.000 Y10.433 E5.97658
G1 X-1.812 Y10.275 E5.99326
G1 X-3.568 Y9.804 E6.00994
G1 X-5.217 Y9.036 E6.02662
G1 X-6.707 Y7.993 E6.04330
G1 X-7.992 Y6.707 E6.05997
G1 X-8.882 Y5.436 E6.07420
G1 X-22.975 Y5.436 E6.20344
G1 X-23.944 Y5.351 E6.21236
G1 X-24.825 Y5.115 E6.22072
G1 X-24.938 Y5.325 F12000.000
G1 X-25.833 Y4.907 F450.000 E6.22978
G1 X-26.642 Y4.341 E6.23884
G1 X-27.341 Y3.642 E6.24790
G1 X-27.907 Y2.833 E6.25696
G1 X-28.325 Y1.938 E6.26602
G1 X-28.580 Y0.984 E6.27507
G1 X-28.667 Y-0.000 E6.28413
G1 X-28.580 Y-0.984 E6.29319
G1 X-28.325 Y-1.938 E6.30225
G1 X-27.907 Y-2.833 E6.31131
G1 X-27.341 Y-3.642 E6.32036
G1 X-26.642 Y-4.341 E6.32942
G1 X-25.833 Y-4.907 E6.33848
G1 X-24.938 Y-5.325 E6.34754
G1 X-23.984 Y-5.580 E6.35660
G1 X-22.986 Y-5.668 E6.36579
G1 X-9.003 Y-5.668 E6.49402
G1 X-8.171 Y-6.856 E6.50732
G1 X-6.856 Y-8.171 E6.52437
G1 X-5.333 Y-9.237 E6.54142
G1 X-3.648 Y-10.023 E6.55848
G1 X-1.852 Y-10.505 E6.57553
G1 X-0.000 Y-10.667 E6.59258
G1 X1.852 Y-10.505 E6.60963
G1 X3.648 Y-10.023 E6.62668
G1 X5.333 Y-9.237 E6.64373
G1 X6.856 Y-8.171 E6.66078
G1 X8.171 Y-6.856 E6.67783
G1 X9.003 Y-5.668 E6.69114
G1 X22.985 Y-5.668 E6.81937
G1 X23.984 Y-5.580 E6.82856
G1 X24.938 Y-5.325 E6.83762
G1 X25.833 Y-4.907 E6.84667
G1 X26.642 Y-4.341 E6.85573
G1 X27.341 Y-3.642 E6.86479
G1 X27.907 Y-2.833 E6.87385
G1 X28.325 Y-1.938 E6.88291
G1 X28.580 Y-0.984 E6.89197
G1 X28.667 Y-0.000 E6.90102
G1 X28.580 Y0.984 E6.91008
G1 X28.325 Y1.938 E6.91914
G1 X27.907 Y2.833 E6.92820
G1 X27.341 Y3.642 E6.93726
G1 X26.642 Y4.341 E6.94631
G1 X25.833 Y4.907 E6.95537
G1 X24.938 Y5.325 E6.96443
G1 X23.984 Y5.580 E6.97349
G1 X22.985 Y5.668 E6.98268
G1 X9.003 Y5.668 E7.11091
G1 X8.171 Y6.856 E7.12421
G1 X6.856 Y8.171 E7.14127
G1 X5.333 Y9.238 E7.15832
G1 X3.648 Y10.023 E7.17537
G1 X1.852 Y10.505 E7.19242
G1 X-0.000 Y10.667 E7.20947
G1 X-1.852 Y10.505 E7.22652
G1 X-3.648 Y10.023 E7.24357
G1 X-5.333 Y9.238 E7.26062
G1 X-6.856 Y8.171 E7.27767
G1 X-8.171 Y6.856 E7.29472
G1 X-9.003 Y5.668 E7.30803
G1 X-22.985 Y5.668 E7.43626
G1 X-23.984 Y5.580 E7.44545
G1 X-24.904 Y5.334 E7.45419
G1 X-25.018 Y5.544 F12000.000
G1 X-25.950 Y5.109 F450.000 E7.46362
G1 X-26.792 Y4.519 E7.47305
G1 X-27.519 Y3.792 E7.48248
G1 X-28.109 Y2.950 E7.49191
G1 X-28.544 Y2.018 E7.50134
G1 X-28.810 Y1.024 E7.51077
G1 X-28.900 Y-0.000 E7.52020
G1 X-28.810 Y-1.024 E7.52963
G1 X-28.544 Y-2.018 E7.53907
G1 X-28.109 Y-2.950 E7.54850
G1 X-27.519 Y-3.792 E7.55793
G1 X-26.792 Y-4.519 E7.56736
G1 X-25.950 Y-5.109 E7.57679
G1 X-25.018 Y-5.544 E7.58622
G1 X-24.024 Y-5.810 E7.59565
G1 X-22.996 Y-5.900 E7.60512
G1 X-9.124 Y-5.900 E7.73233
G1 X-8.350 Y-7.006 E7.74472
G1 X-7.006 Y-8.350 E7.76214
G1 X-5.450 Y-9.439 E7.77956
G1 X-3.728 Y-10.242 E7.79699
G1 X-1.893 Y-10.734 E7.81441
G1 X-0.000 Y-10.900 E7.83183
G1 X1.893 Y-10.734 E7.84926
G1 X3.728 Y-10.242 E7.86668
G1 X5.450 Y-9.439 E7.88411
G1 X7.006 Y-8.350 E7.90153
G1 X8.350 Y-7.006 E7.91895
G1 X9.124 Y-5.900 E7.93134
G1 X22.996 Y-5.900 E8.05855
G1 X24.024 Y-5.810 E8.06802
G1 X25.018 Y-5.544 E8.07745
G1 X25.950 Y-5.109 E8.08688
G1 X26.792 Y-4.519 E8.09631
G1 X27.519 Y-3.792 E8.10574
G1 X28.109 Y-2.950 E8.11517
G1 X28.544 Y-2.018 E8.12460
G1 X28.810 Y-1.024 E8.13404
G1 X28.900 Y-0.000 E8.14347
G1 X28.810 Y1.024 E8.15290
G1 X28.544 Y2.018 E8.16233
G1 X28.109 Y2.950 E8.17176
G1 X27.519 Y3.792 E8.18119
G1 X26.792 Y4.519 E8.19062
G1 X25.950 Y5.109 E8.20005
G1 X25.018 Y5.544 E8.20948
G1 X24.024 Y5.810 E8.21891
G1 X22.996 Y5.900 E8.22838
G1 X9.124 Y5.900 E8.35560
G1 X8.350 Y7.006 E8.36798
G1 X7.006 Y8.350 E8.38540
G1 X5.450 Y9.439 E8.40283
G1 X3.728 Y10.242 E8.42025
