; generated by Slic3r 0.9.9-dev on 2013-02-20 at 19:56:21

; This Slic3r config is for the Rostock delta robot 3D printer prototype.

; layer_height = 0.1
; perimeters = 3
; top_solid_layers = 3
; bottom_solid_layers = 3
; fill_density = 1
; perimeter_speed = 30
; infill_speed = 45
; travel_speed = 200
; scale = 1
; nozzle_diameter = 0.35
; filament_diameter = 1.75
; extrusion_multiplier = .97
; perimeters extrusion width = 0.56mm
; infill extrusion width = 0.56mm
; first layer extrusion width = 0.20mm

M107
M190 S60 ; wait for bed temperature to be reached
M104 S190 ; set temperature
M109 S190 ; wait for temperature to be reached
G28 ; home all axes
G1 Z10 F24000 ; move to print surface
G90 ; use absolute coordinates
G21 ; set units to millimeters
G92 E0
M82 ; use absolute distances for extrusion
G1 F60000.000 E-5.00000
G1 Z0.500
G92 E0
G1 X19.450 Y16.060 F12000.000
G1 Z0.200
G1 F60000.000 E5.00000
G1 X-31.210 Y3.970 F540.000 E5.48769
G1 X-31.670 Y3.840 E5.49217
G1 X-32.120 Y3.680 E5.49664
G1 X-33.330 Y3.140 E5.50904
G1 X-33.800 Y2.880 E5.51407
G1 X-34.250 Y2.580 E5.51914
G1 X-35.320 Y1.780 E5.53165
G1 X-35.700 Y1.430 E5.53649
G1 X-36.430 Y0.640 E5.54656
G1 X-36.790 Y0.210 E5.55181
G1 X-37.260 Y-0.500 E5.55978
G1 X-37.800 Y-1.450 E5.57001
G1 X-38.040 Y-1.950 E5.57521
G1 X-38.230 Y-2.470 E5.58039
G1 X-38.480 Y-3.250 E5.58806
G1 X-38.680 Y-4.040 E5.59569
G1 X-38.830 Y-5.390 E5.60841
G1 X-38.860 Y-6.160 E5.61563
G1 X-38.830 Y-6.670 E5.62041
G1 X-38.720 Y-7.750 E5.63058
G1 X-38.620 Y-8.300 E5.63581
G1 X-38.470 Y-8.840 E5.64106
G1 X-38.220 Y-9.610 E5.64864
G1 X-37.920 Y-10.360 E5.65620
G1 X-37.670 Y-10.840 E5.66127
G1 X-37.110 Y-11.790 E5.67160
G1 X-36.790 Y-12.260 E5.67692
G1 X-36.430 Y-12.690 E5.68217
G1 X-35.700 Y-13.480 E5.69224
G1 X-35.320 Y-13.830 E5.69708
G1 X-34.250 Y-14.630 E5.70959
G1 X-33.830 Y-14.910 E5.71432
G1 X-33.380 Y-15.160 E5.71914
G1 X-32.410 Y-15.610 E5.72915
G1 X-31.850 Y-15.840 E5.73482
G1 X-30.980 Y-16.080 E5.74327
G1 X-30.180 Y-16.240 E5.75091
G1 X-29.670 Y-16.320 E5.75574
G1 X-29.170 Y-16.360 E5.76044
G1 X22.530 Y-16.370 E6.24455
G1 X23.080 Y-16.350 E6.24970
G1 X24.590 Y-16.220 E6.26389
G1 X25.540 Y-16.070 E6.27290
G1 X27.050 Y-15.710 E6.28743
G1 X28.000 Y-15.400 E6.29679
G1 X29.440 Y-14.810 E6.31136
G1 X30.400 Y-14.320 E6.32145
G1 X31.720 Y-13.500 E6.33600
G1 X32.470 Y-12.960 E6.34466
G1 X33.660 Y-11.960 E6.35921
G1 X34.450 Y-11.170 E6.36967
G1 X35.450 Y-9.980 E6.38423
G1 X35.990 Y-9.230 E6.39288
G1 X36.810 Y-7.910 E6.40743
G1 X37.300 Y-6.950 E6.41753
G1 X37.860 Y-5.580 E6.43138
G1 X38.160 Y-4.680 E6.44027
G1 X38.550 Y-3.100 E6.45551
G1 X38.710 Y-2.050 E6.46545
G1 X38.830 Y-0.510 E6.47992
G1 X38.840 Y0.490 E6.48928
G1 X38.720 Y2.040 E6.50384
G1 X38.550 Y3.090 E6.51380
G1 X38.160 Y4.670 E6.52904
G1 X37.860 Y5.570 E6.53792
G1 X37.300 Y6.940 E6.55178
G1 X36.810 Y7.900 E6.56187
G1 X35.990 Y9.220 E6.57642
G1 X35.450 Y9.970 E6.58508
G1 X34.450 Y11.160 E6.59963
G1 X33.660 Y11.950 E6.61009
G1 X32.470 Y12.950 E6.62465
G1 X31.720 Y13.490 E6.63330
G1 X30.400 Y14.310 E6.64785
G1 X29.440 Y14.800 E6.65794
G1 X28.000 Y15.390 E6.67252
G1 X27.020 Y15.700 E6.68214
G1 X25.440 Y16.070 E6.69733
G1 X24.450 Y16.230 E6.70673
G1 X22.970 Y16.340 E6.72062
G1 X21.990 Y16.330 E6.72980
G1 X20.450 Y16.210 E6.74426
G1 X19.484 Y16.065 E6.75341
G1 X19.500 Y15.830 F12000.000
G1 X-31.160 Y3.740 F540.000 E7.24109
G1 X-31.600 Y3.620 E7.24536
G1 X-32.040 Y3.460 E7.24975
G1 X-32.990 Y3.040 E7.25947
G1 X-33.460 Y2.810 E7.26437
G1 X-34.120 Y2.390 E7.27170
G1 X-34.780 Y1.910 E7.27934
G1 X-35.170 Y1.600 E7.28401
G1 X-35.700 Y1.080 E7.29096
G1 X-36.430 Y0.280 E7.30110
G1 X-36.920 Y-0.380 E7.30880
G1 X-37.600 Y-1.560 E7.32155
G1 X-37.920 Y-2.290 E7.32901
G1 X-38.330 Y-3.570 E7.34160
G1 X-38.450 Y-4.090 E7.34660
G1 X-38.600 Y-5.420 E7.35913
G1 X-38.630 Y-6.150 E7.36597
G1 X-38.600 Y-6.640 E7.37057
G1 X-38.450 Y-7.980 E7.38319
G1 X-38.330 Y-8.510 E7.38828
G1 X-38.000 Y-9.530 E7.39832
G1 X-37.820 Y-10.020 E7.40321
G1 X-37.470 Y-10.730 E7.41062
G1 X-37.060 Y-11.440 E7.41830
G1 X-36.760 Y-11.900 E7.42344
G1 X-36.430 Y-12.330 E7.42851
G1 X-35.350 Y-13.490 E7.44336
G1 X-34.780 Y-13.960 E7.45027
G1 X-34.120 Y-14.440 E7.45791
G1 X-33.710 Y-14.710 E7.46251
G1 X-33.270 Y-14.960 E7.46725
G1 X-32.040 Y-15.520 E7.47990
G1 X-31.770 Y-15.620 E7.48260
G1 X-31.220 Y-15.790 E7.48799
G1 X-30.130 Y-16.010 E7.49840
G1 X-29.650 Y-16.090 E7.50296
G1 X-29.160 Y-16.130 E7.50756
G1 X22.530 Y-16.140 E7.99158
G1 X23.060 Y-16.120 E7.99654
G1 X24.570 Y-15.990 E8.01073
G1 X25.490 Y-15.840 E8.01946
G1 X27.000 Y-15.480 E8.03400
G1 X27.910 Y-15.190 E8.04294
G1 X29.350 Y-14.600 E8.05751
G1 X30.280 Y-14.120 E8.06731
G1 X31.600 Y-13.300 E8.08186
G1 X32.320 Y-12.780 E8.09018
G1 X33.510 Y-11.780 E8.10473
G1 X34.270 Y-11.020 E8.11480
G1 X35.270 Y-9.830 E8.12935
G1 X35.790 Y-9.110 E8.13767
G1 X36.610 Y-7.790 E8.15222
G1 X37.090 Y-6.860 E8.16202
G1 X37.650 Y-5.490 E8.17588
G1 X37.930 Y-4.620 E8.18444
G1 X38.320 Y-3.040 E8.19968
G1 X38.480 Y-2.030 E8.20925
G1 X38.600 Y-0.490 E8.22372
G1 X38.600 Y0.470 E8.23270
G1 X38.480 Y2.020 E8.24726
G1 X38.320 Y3.030 E8.25684
G1 X37.930 Y4.610 E8.27208
G1 X37.650 Y5.480 E8.28063
G1 X37.090 Y6.850 E8.29449
G1 X36.610 Y7.780 E8.30429
G1 X35.790 Y9.100 E8.31884
G1 X35.270 Y9.820 E8.32716
G1 X34.270 Y11.010 E8.34171
G1 X33.510 Y11.770 E8.35178
G1 X32.320 Y12.770 E8.36633
G1 X31.600 Y13.290 E8.37465
G1 X30.280 Y14.110 E8.38920
G1 X29.350 Y14.590 E8.39900
G1 X27.910 Y15.180 E8.41357
G1 X26.970 Y15.480 E8.42281
G1 X25.390 Y15.850 E8.43801
G1 X24.430 Y16.000 E8.44710
G1 X22.950 Y16.110 E8.46100
G1 X22.010 Y16.100 E8.46980
G1 X20.470 Y15.980 E8.48427
G1 X19.534 Y15.835 E8.49313
G1 F60000.000 E3.49313
G1 Z0.500
G92 E0
G1 X4.051 Y-4.300 F12000.000
G1 Z0.200
G1 F60000.000 E5.00000
G1 X3.659 Y-4.015 F540.000 E5.00454
G1 X3.216 Y-3.818 E5.00907
G1 X2.742 Y-3.717 E5.01361
G1 X2.258 Y-3.717 E5.01815
G1 X1.784 Y-3.818 E5.02268
G1 X1.341 Y-4.015 E5.02722
G1 X0.949 Y-4.300 E5.03176
G1 X0.625 Y-4.660 E5.03629
G1 X0.383 Y-5.079 E5.04083
G1 X0.233 Y-5.540 E5.04537
G1 X0.183 Y-6.022 E5.04990
G1 X0.233 Y-6.504 E5.05444
G1 X0.383 Y-6.965 E5.05898
G1 X0.625 Y-7.384 E5.06351
G1 X0.949 Y-7.744 E5.06805
G1 X1.341 Y-8.029 E5.07259
G1 X1.784 Y-8.226 E5.07712
G1 X2.258 Y-8.327 E5.08166
G1 X2.742 Y-8.327 E5.08620
G1 X3.216 Y-8.226 E5.09073
G1 X3.659 Y-8.029 E5.09527
G1 X4.051 Y-7.744 E5.09981
G1 X4.375 Y-7.384 E5.10434
G1 X4.617 Y-6.965 E5.10888
G1 X4.767 Y-6.504 E5.11342
G1 X4.817 Y-6.022 E5.11795
G1 X4.767 Y-5.540 E5.12249
G1 X4.617 Y-5.079 E5.12703
G1 X4.375 Y-4.660 E5.13156
G1 X4.074 Y-4.326 E5.13577
G1 X3.894 Y-4.473 F12000.000
G1 X3.542 Y-4.217 F540.000 E5.13985
G1 X3.144 Y-4.040 E5.14393
G1 X2.718 Y-3.949 E5.14801
G1 X2.282 Y-3.949 E5.15209
G1 X1.856 Y-4.040 E5.15617
G1 X1.458 Y-4.217 E5.16025
G1 X1.105 Y-4.473 E5.16433
G1 X0.814 Y-4.797 E5.16841
G1 X0.596 Y-5.174 E5.17249
G1 X0.461 Y-5.589 E5.17657
G1 X0.416 Y-6.022 E5.18065
G1 X0.461 Y-6.455 E5.18473
G1 X0.596 Y-6.870 E5.18881
G1 X0.814 Y-7.247 E5.19289
G1 X1.105 Y-7.571 E5.19697
G1 X1.458 Y-7.827 E5.20105
G1 X1.856 Y-8.004 E5.20513
G1 X2.282 Y-8.095 E5.20921
G1 X2.718 Y-8.095 E5.21329
G1 X3.144 Y-8.004 E5.21737
G1 X3.542 Y-7.827 E5.22144
G1 X3.894 Y-7.571 E5.22552
G1 X4.186 Y-7.247 E5.22960
G1 X4.404 Y-6.870 E5.23368
G1 X4.539 Y-6.455 E5.23776
G1 X4.584 Y-6.022 E5.24184
G1 X4.539 Y-5.589 E5.24592
G1 X4.404 Y-5.174 E5.25000
G1 X4.186 Y-4.797 E5.25408
G1 X3.918 Y-4.499 E5.25783
G1 X3.738 Y-4.647 F12000.000
G1 X3.425 Y-4.419 F540.000 E5.26146
G1 X3.072 Y-4.262 E5.26508
G1 X2.693 Y-4.182 E5.26870
G1 X2.307 Y-4.182 E5.27232
G1 X1.928 Y-4.262 E5.27595
G1 X1.575 Y-4.419 E5.27957
G1 X1.262 Y-4.647 E5.28319
G1 X1.003 Y-4.934 E5.28682
G1 X0.809 Y-5.269 E5.29044
G1 X0.690 Y-5.637 E5.29406
G1 X0.649 Y-6.022 E5.29768
G1 X0.690 Y-6.407 E5.30131
G1 X0.809 Y-6.775 E5.30493
G1 X1.003 Y-7.110 E5.30855
G1 X1.262 Y-7.397 E5.31217
G1 X1.575 Y-7.625 E5.31580
G1 X1.928 Y-7.782 E5.31942
G1 X2.307 Y-7.862 E5.32304
G1 X2.693 Y-7.862 E5.32666
G1 X3.072 Y-7.782 E5.33029
G1 X3.425 Y-7.625 E5.33391
G1 X3.738 Y-7.397 E5.33753
G1 X3.997 Y-7.110 E5.34115
G1 X4.191 Y-6.775 E5.34478
G1 X4.310 Y-6.407 E5.34840
G1 X4.351 Y-6.022 E5.35202
G1 X4.310 Y-5.637 E5.35564
G1 X4.191 Y-5.269 E5.35927
G1 X3.997 Y-4.934 E5.36289
G1 X3.762 Y-4.673 E5.36619
G1 X3.779 Y-4.418 F12000.000
G1 F60000.000 E0.36619
G1 Z0.500
G92 E0
G1 X-26.183 Y-6.022 F12000.000
G1 Z0.200
G1 F60000.000 E5.00000
G1 X-26.233 Y-5.540 F540.000 E5.00454
G1 X-26.383 Y-5.079 E5.00907
G1 X-26.625 Y-4.660 E5.01361
G1 X-26.949 Y-4.300 E5.01815
G1 X-27.341 Y-4.015 E5.02268
G1 X-27.784 Y-3.818 E5.02722
G1 X-28.258 Y-3.717 E5.03176
G1 X-28.742 Y-3.717 E5.03629
G1 X-29.216 Y-3.818 E5.04083
G1 X-29.659 Y-4.015 E5.04537
G1 X-30.051 Y-4.300 E5.04990
G1 X-30.375 Y-4.660 E5.05444
G1 X-30.617 Y-5.079 E5.05898
G1 X-30.767 Y-5.540 E5.06351
G1 X-30.817 Y-6.022 E5.06805
G1 X-30.767 Y-6.504 E5.07259
G1 X-30.617 Y-6.965 E5.07712
G1 X-30.375 Y-7.384 E5.08166
G1 X-30.051 Y-7.744 E5.08620
G1 X-29.659 Y-8.029 E5.09073
G1 X-29.216 Y-8.226 E5.09527
G1 X-28.742 Y-8.327 E5.09981
G1 X-28.258 Y-8.327 E5.10434
G1 X-27.784 Y-8.226 E5.10888
G1 X-27.341 Y-8.029 E5.11342
G1 X-26.949 Y-7.744 E5.11795
G1 X-26.625 Y-7.384 E5.12249
G1 X-26.383 Y-6.965 E5.12703
G1 X-26.233 Y-6.504 E5.13156
G1 X-26.186 Y-6.057 E5.13577
G1 X-26.416 Y-6.022 F12000.000
G1 X-26.461 Y-5.589 F540.000 E5.13985
G1 X-26.596 Y-5.174 E5.14393
G1 X-26.814 Y-4.797 E5.14801
G1 X-27.106 Y-4.473 E5.15209
G1 X-27.458 Y-4.217 E5.15617
G1 X-27.856 Y-4.040 E5.16025
G1 X-28.282 Y-3.949 E5.16433
G1 X-28.718 Y-3.949 E5.16841
G1 X-29.144 Y-4.040 E5.17249
G1 X-29.542 Y-4.217 E5.17657
G1 X-29.895 Y-4.473 E5.18065
G1 X-30.186 Y-4.797 E5.18473
G1 X-30.404 Y-5.174 E5.18881
G1 X-30.539 Y-5.589 E5.19289
G1 X-30.584 Y-6.022 E5.19697
G1 X-30.539 Y-6.455 E5.20105
G1 X-30.404 Y-6.870 E5.20513
G1 X-30.186 Y-7.247 E5.20921
G1 X-29.895 Y-7.571 E5.21329
G1 X-29.542 Y-7.827 E5.21736
G1 X-29.144 Y-8.004 E5.22144
G1 X-28.718 Y-8.095 E5.22552
G1 X-28.282 Y-8.095 E5.22960
G1 X-27.856 Y-8.004 E5.23368
G1 X-27.458 Y-7.827 E5.23776
G1 X-27.106 Y-7.571 E5.24184
G1 X-26.814 Y-7.247 E5.24592
G1 X-26.596 Y-6.870 E5.25000
G1 X-26.461 Y-6.455 E5.25408
G1 X-26.420 Y-6.057 E5.25783
G1 X-26.649 Y-6.022 F12000.000
G1 X-26.690 Y-5.637 F540.000 E5.26146
G1 X-26.809 Y-5.269 E5.26508
G1 X-27.003 Y-4.934 E5.26870
G1 X-27.262 Y-4.647 E5.27232
G1 X-27.575 Y-4.419 E5.27595
G1 X-27.928 Y-4.262 E5.27957
G1 X-28.307 Y-4.182 E5.28319
G1 X-28.693 Y-4.182 E5.28682
G1 X-29.072 Y-4.262 E5.29044
G1 X-29.425 Y-4.419 E5.29406
G1 X-29.738 Y-4.647 E5.29768
G1 X-29.997 Y-4.934 E5.30131
G1 X-30.191 Y-5.269 E5.30493
G1 X-30.310 Y-5.637 E5.30855
G1 X-30.351 Y-6.022 E5.31217
G1 X-30.310 Y-6.407 E5.31580
G1 X-30.191 Y-6.775 E5.31942
G1 X-29.997 Y-7.110 E5.32304
G1 X-29.738 Y-7.397 E5.32666
G1 X-29.425 Y-7.625 E5.33029
G1 X-29.072 Y-7.782 E5.33391
G1 X-28.693 Y-7.862 E5.33753
G1 X-28.307 Y-7.862 E5.34115
G1 X-27.928 Y-7.782 E5.34478
G1 X-27.575 Y-7.625 E5.34840
G1 X-27.262 Y-7.397 E5.35202
G1 X-27.003 Y-7.110 E5.35564
G1 X-26.809 Y-6.775 E5.35927
G1 X-26.690 Y-6.407 E5.36289
G1 X-26.653 Y-6.057 E5.36619
G1 X-26.453 Y-5.899 F12000.000
G1 F60000.000 E0.36619
G1 Z0.500
G92 E0
G1 X-30.216 Y-3.049 F12000.000
G1 Z0.200
G1 F60000.000 E5.00000
G1 X-30.797 Y-3.471 F540.000 E5.00672
G1 X-31.277 Y-4.004 E5.01344
G1 X-31.636 Y-4.626 E5.02016
G1 X-31.858 Y-5.308 E5.02688
G1 X-31.933 Y-6.022 E5.03360
G1 X-31.858 Y-6.736 E5.04032
G1 X-31.636 Y-7.418 E5.04704
G1 X-31.277 Y-8.039 E5.05375
G1 X-30.797 Y-8.573 E5.06047
G1 X-30.216 Y-8.995 E5.06719
G1 X-29.561 Y-9.286 E5.07391
G1 X-28.859 Y-9.436 E5.08063
G1 X-28.141 Y-9.436 E5.08735
G1 X-27.439 Y-9.286 E5.09407
G1 X-26.701 Y-8.958 E5.10164
G1 X0.701 Y-8.958 E5.35822
G1 X1.439 Y-9.286 E5.36579
G1 X2.141 Y-9.436 E5.37251
G1 X2.859 Y-9.436 E5.37923
G1 X3.561 Y-9.286 E5.38595
G1 X4.216 Y-8.995 E5.39267
G1 X4.797 Y-8.573 E5.39939
G1 X5.277 Y-8.039 E5.40611
G1 X5.636 Y-7.418 E5.41283
G1 X5.858 Y-6.736 E5.41955
G1 X5.933 Y-6.022 E5.42627
G1 X5.858 Y-5.308 E5.43299
G1 X5.636 Y-4.626 E5.43970
G1 X5.277 Y-4.004 E5.44642
G1 X4.797 Y-3.471 E5.45314
G1 X4.216 Y-3.049 E5.45986
G1 X3.561 Y-2.757 E5.46658
G1 X2.859 Y-2.608 E5.47330
G1 X2.141 Y-2.608 E5.48002
G1 X1.439 Y-2.757 E5.48674
G1 X0.701 Y-3.086 E5.49431
G1 X-26.701 Y-3.086 E5.75089
G1 X-27.439 Y-2.757 E5.75846
G1 X-28.141 Y-2.608 E5.76518
G1 X-28.859 Y-2.608 E5.77190
G1 X-29.561 Y-2.757 E5.77862
G1 X-30.184 Y-3.035 E5.78501
G1 X-30.333 Y-2.847 F12000.000
G1 X-30.953 Y-3.298 F540.000 E5.79219
G1 X-31.466 Y-3.867 E5.79937
G1 X-31.849 Y-4.531 E5.80654
G1 X-32.086 Y-5.260 E5.81372
G1 X-32.166 Y-6.022 E5.82089
G1 X-32.086 Y-6.784 E5.82807
G1 X-31.849 Y-7.513 E5.83525
G1 X-31.466 Y-8.177 E5.84242
G1 X-30.953 Y-8.746 E5.84960
G1 X-30.333 Y-9.197 E5.85678
G1 X-29.633 Y-9.508 E5.86395
G1 X-28.883 Y-9.668 E5.87113
G1 X-28.117 Y-9.668 E5.87831
G1 X-27.367 Y-9.508 E5.88548
G1 X-26.651 Y-9.190 E5.89282
G1 X0.651 Y-9.190 E6.14847
G1 X1.367 Y-9.508 E6.15581
G1 X2.117 Y-9.668 E6.16299
G1 X2.883 Y-9.668 E6.17016
G1 X3.633 Y-9.508 E6.17734
G1 X4.333 Y-9.197 E6.18452
G1 X4.953 Y-8.746 E6.19169
G1 X5.466 Y-8.177 E6.19887
G1 X5.849 Y-7.513 E6.20605
G1 X6.086 Y-6.784 E6.21322
G1 X6.166 Y-6.022 E6.22040
G1 X6.086 Y-5.260 E6.22758
G1 X5.849 Y-4.531 E6.23475
G1 X5.466 Y-3.867 E6.24193
G1 X4.953 Y-3.298 E6.24910
G1 X4.333 Y-2.847 E6.25628
G1 X3.633 Y-2.535 E6.26346
G1 X2.883 Y-2.376 E6.27063
G1 X2.117 Y-2.376 E6.27781
G1 X1.367 Y-2.535 E6.28499
G1 X0.651 Y-2.854 E6.29232
G1 X-26.651 Y-2.854 E6.54798
G1 X-27.367 Y-2.535 E6.55532
G1 X-28.117 Y-2.376 E6.56249
G1 X-28.883 Y-2.376 E6.56967
G1 X-29.633 Y-2.535 E6.57685
G1 X-30.301 Y-2.833 E6.58370
G1 X-30.450 Y-2.645 F12000.000
G1 X-31.109 Y-3.124 F540.000 E6.59133
G1 X-31.655 Y-3.730 E6.59896
G1 X-32.062 Y-4.436 E6.60660
G1 X-32.314 Y-5.211 E6.61423
G1 X-32.399 Y-6.022 E6.62186
G1 X-32.314 Y-6.833 E6.62950
G1 X-32.062 Y-7.608 E6.63713
G1 X-31.655 Y-8.314 E6.64476
G1 X-31.109 Y-8.920 E6.65240
G1 X-30.450 Y-9.399 E6.66003
G1 X-29.705 Y-9.731 E6.66766
G1 X-28.908 Y-9.900 E6.67530
G1 X-28.092 Y-9.900 E6.68293
G1 X-27.295 Y-9.731 E6.69056
G1 X-26.602 Y-9.422 E6.69767
G1 X0.602 Y-9.422 E6.95240
G1 X1.295 Y-9.731 E6.95950
G1 X2.092 Y-9.900 E6.96713
G1 X2.908 Y-9.900 E6.97477
G1 X3.705 Y-9.731 E6.98240
G1 X4.450 Y-9.399 E6.99003
G1 X5.109 Y-8.920 E6.99767
G1 X5.655 Y-8.314 E7.00530
G1 X6.062 Y-7.608 E7.01293
G1 X6.314 Y-6.833 E7.02057
G1 X6.399 Y-6.022 E7.02820
G1 X6.314 Y-5.211 E7.03584
G1 X6.062 Y-4.436 E7.04347
G1 X5.655 Y-3.730 E7.05110
G1 X5.109 Y-3.124 E7.05874
G1 X4.450 Y-2.645 E7.06637
G1 X3.705 Y-2.313 E7.07400
G1 X2.908 Y-2.144 E7.08164
G1 X2.092 Y-2.144 E7.08927
G1 X1.295 Y-2.313 E7.09690
G1 X0.602 Y-2.622 E7.10401
G1 X-26.602 Y-2.622 E7.35874
G1 X-27.295 Y-2.313 E7.36584
G1 X-28.092 Y-2.144 E7.37347
G1 X-28.908 Y-2.144 E7.38111
G1 X-29.705 Y-2.313 E7.38874
G1 X-30.418 Y-2.631 E7.39605
G1 X-30.442 Y-2.877 F12000.000
G1 X-30.566 Y-3.570
G1 X-30.716 Y-3.720 F810.000 E7.39804
G1 X-29.998 Y-3.995 F12000.000
G1 X-28.772 Y-2.769 F810.000 E7.41440
G1 X-28.439 Y-2.766 E7.41755
G1 X-29.337 Y-3.664 E7.42953
G1 X-28.917 Y-3.575 E7.43359
G1 X-28.108 Y-2.766 E7.44438
G1 X-27.832 Y-2.822 E7.44703
G1 X-28.570 Y-3.559 E7.45687
G1 X-28.251 Y-3.571 E7.45988
G1 X-27.559 Y-2.880 E7.46911
G1 X-27.311 Y-2.962 E7.47158
G1 X-27.978 Y-3.629 E7.48048
G1 X-27.718 Y-3.700 E7.48302
G1 X-27.082 Y-3.064 E7.49151
G1 X-26.853 Y-3.166 E7.49387
G1 X-27.489 Y-3.802 E7.50236
G1 X-27.266 Y-3.910 E7.50470
G1 X-26.601 Y-3.244 E7.51358
G1 X-26.270 Y-3.244 E7.51670
G1 X-27.075 Y-4.049 E7.52744
G1 X-26.883 Y-4.188 E7.52967
G1 X-25.939 Y-3.244 E7.54227
G1 X-25.608 Y-3.244 E7.54539
G1 X-26.723 Y-4.360 E7.56027
G1 X-26.567 Y-4.534 E7.56248
G1 X-25.277 Y-3.244 E7.57968
G1 X-24.947 Y-3.244 E7.58281
G1 X-26.433 Y-4.731 E7.60264
G1 X-26.312 Y-4.940 E7.60492
G1 X-24.616 Y-3.244 E7.62755
G1 X-24.285 Y-3.244 E7.63067
G1 X-26.208 Y-5.168 E7.65634
G1 X-26.127 Y-5.417 E7.65881
G1 X-23.954 Y-3.244 E7.68781
G1 X-23.623 Y-3.244 E7.69093
G1 X-26.066 Y-5.687 E7.72353
