; generated by Slic3r 0.9.9-dev on 2013-02-20 at 22:59:51

; This Slic3r config is for the Rostock delta robot 3D printer prototype.

; layer_height = 0.1
; perimeters = 3
; top_solid_layers = 3
; bottom_solid_layers = 3
; fill_density = 1
; perimeter_speed = 30
; infill_speed = 45
; travel_speed = 200
; scale = 1
; nozzle_diameter = 0.35
; filament_diameter = 1.75
; extrusion_multiplier = .95
; perimeters extrusion width = 0.56mm
; infill extrusion width = 0.56mm
; first layer extrusion width = 0.20mm

M107
M190 S60 ; wait for bed temperature to be reached
M104 S189 ; set temperature
M109 S189 ; wait for temperature to be reached
G28 ; home all axes
G1 Z10 F24000 ; move to print surface
G90 ; use absolute coordinates
G21 ; set units to millimeters
G92 E0
M82 ; use absolute distances for extrusion
G1 F60000.000 E-5.00000
G1 Z0.500
G92 E0
G1 X8.115 Y-6.355 F12000.000
G1 Z0.200
G1 F60000.000 E5.00000
G1 X8.495 Y-5.895 F450.000 E5.00547
G1 X8.665 Y-5.655 E5.00817
G1 X9.165 Y-4.805 E5.01721
G1 X9.575 Y-3.925 E5.02612
G1 X9.905 Y-3.045 E5.03473
G1 X10.045 Y-2.555 E5.03941
G1 X10.255 Y-1.395 E5.05022
G1 X10.335 Y-0.345 E5.05988
G1 X10.335 Y0.335 E5.06611
G1 X10.255 Y1.385 E5.07577
G1 X10.045 Y2.545 E5.08658
G1 X9.905 Y3.035 E5.09125
G1 X9.575 Y3.915 E5.09987
G1 X9.125 Y4.875 E5.10960
G1 X8.785 Y5.465 E5.11584
G1 X8.165 Y6.355 E5.12579
G1 X7.735 Y6.875 E5.13198
G1 X7.235 Y7.415 E5.13872
G1 X6.355 Y8.165 E5.14933
G1 X5.465 Y8.785 E5.15928
G1 X4.875 Y9.125 E5.16552
G1 X3.915 Y9.575 E5.17524
G1 X3.035 Y9.905 E5.18386
G1 X2.545 Y10.045 E5.18854
G1 X1.385 Y10.255 E5.19935
G1 X0.335 Y10.335 E5.20900
G1 X-0.345 Y10.335 E5.21524
G1 X-1.395 Y10.255 E5.22490
G1 X-2.555 Y10.045 E5.23571
G1 X-3.045 Y9.905 E5.24038
G1 X-3.925 Y9.575 E5.24900
G1 X-4.885 Y9.125 E5.25872
G1 X-5.475 Y8.785 E5.26497
G1 X-6.365 Y8.165 E5.27492
G1 X-6.885 Y7.735 E5.28110
G1 X-7.425 Y7.235 E5.28785
G1 X-8.175 Y6.355 E5.29846
G1 X-8.795 Y5.465 E5.30840
G1 X-9.135 Y4.875 E5.31465
G1 X-9.585 Y3.915 E5.32437
G1 X-9.915 Y3.035 E5.33299
G1 X-10.055 Y2.545 E5.33766
G1 X-10.265 Y1.385 E5.34847
G1 X-10.345 Y0.335 E5.35813
G1 X-10.345 Y-0.345 E5.36437
G1 X-10.265 Y-1.395 E5.37402
G1 X-10.055 Y-2.555 E5.38484
G1 X-9.915 Y-3.045 E5.38951
G1 X-9.585 Y-3.925 E5.39813
G1 X-9.135 Y-4.885 E5.40785
G1 X-8.795 Y-5.475 E5.41410
G1 X-8.175 Y-6.365 E5.42404
G1 X-7.745 Y-6.885 E5.43023
G1 X-7.245 Y-7.425 E5.43698
G1 X-6.365 Y-8.175 E5.44758
G1 X-5.475 Y-8.795 E5.45753
G1 X-4.885 Y-9.135 E5.46378
G1 X-3.925 Y-9.585 E5.47350
G1 X-3.045 Y-9.915 E5.48212
G1 X-2.555 Y-10.055 E5.48679
G1 X-1.395 Y-10.265 E5.49760
G1 X-0.345 Y-10.345 E5.50726
G1 X0.335 Y-10.345 E5.51350
G1 X1.385 Y-10.265 E5.52315
G1 X2.545 Y-10.055 E5.53396
G1 X3.035 Y-9.915 E5.53864
G1 X3.915 Y-9.585 E5.54726
G1 X4.795 Y-9.175 E5.55616
G1 X5.395 Y-8.835 E5.56248
G1 X5.885 Y-8.505 E5.56790
G1 X6.345 Y-8.125 E5.57337
G1 X8.091 Y-6.379 E5.59601
G1 X7.975 Y-6.155 F12000.000
G1 X8.205 Y-5.885 F450.000 E5.59926
G1 X8.595 Y-5.335 E5.60544
G1 X8.965 Y-4.695 E5.61222
G1 X9.365 Y-3.845 E5.62084
G1 X9.605 Y-3.205 E5.62711
G1 X9.755 Y-2.735 E5.63163
G1 X9.875 Y-2.265 E5.63608
G1 X10.025 Y-1.355 E5.64454
G1 X10.105 Y-0.345 E5.65383
G1 X10.105 Y0.335 E5.66007
G1 X10.025 Y1.345 E5.66936
G1 X9.875 Y2.255 E5.67782
G1 X9.685 Y2.965 E5.68456
G1 X9.365 Y3.835 E5.69306
G1 X8.925 Y4.755 E5.70241
G1 X8.585 Y5.345 E5.70865
G1 X7.985 Y6.205 E5.71827
G1 X7.405 Y6.905 E5.72661
G1 X6.905 Y7.405 E5.73309
G1 X6.205 Y7.985 E5.74143
G1 X5.345 Y8.585 E5.75105
G1 X4.755 Y8.925 E5.75729
G1 X3.835 Y9.365 E5.76664
G1 X3.195 Y9.605 E5.77291
G1 X2.725 Y9.755 E5.77744
G1 X2.255 Y9.875 E5.78188
G1 X1.345 Y10.025 E5.79034
G1 X0.335 Y10.105 E5.79963
G1 X-0.345 Y10.105 E5.80587
G1 X-1.355 Y10.025 E5.81516
G1 X-2.265 Y9.875 E5.82362
G1 X-2.975 Y9.685 E5.83036
G1 X-3.845 Y9.365 E5.83886
G1 X-4.765 Y8.925 E5.84821
G1 X-5.355 Y8.585 E5.85446
G1 X-6.215 Y7.985 E5.86407
G1 X-6.915 Y7.405 E5.87241
G1 X-7.415 Y6.905 E5.87889
G1 X-7.995 Y6.205 E5.88723
G1 X-8.595 Y5.345 E5.89685
G1 X-8.935 Y4.755 E5.90309
G1 X-9.375 Y3.835 E5.91245
G1 X-9.615 Y3.195 E5.91871
G1 X-9.765 Y2.725 E5.92324
G1 X-9.885 Y2.255 E5.92769
G1 X-10.035 Y1.345 E5.93614
G1 X-10.115 Y0.335 E5.94544
G1 X-10.115 Y-0.345 E5.95167
G1 X-10.035 Y-1.355 E5.96096
G1 X-9.885 Y-2.265 E5.96942
G1 X-9.695 Y-2.975 E5.97616
G1 X-9.375 Y-3.845 E5.98466
G1 X-8.935 Y-4.765 E5.99401
G1 X-8.595 Y-5.355 E6.00026
G1 X-7.995 Y-6.215 E6.00988
G1 X-7.415 Y-6.915 E6.01821
G1 X-6.915 Y-7.415 E6.02470
G1 X-6.215 Y-7.995 E6.03303
G1 X-5.355 Y-8.595 E6.04265
G1 X-4.765 Y-8.935 E6.04890
G1 X-3.845 Y-9.375 E6.05825
G1 X-3.205 Y-9.615 E6.06452
G1 X-2.735 Y-9.765 E6.06904
G1 X-2.265 Y-9.885 E6.07349
G1 X-1.355 Y-10.035 E6.08195
G1 X-0.345 Y-10.115 E6.09124
G1 X0.335 Y-10.115 E6.09747
G1 X1.345 Y-10.035 E6.10677
G1 X2.255 Y-9.885 E6.11522
G1 X2.965 Y-9.695 E6.12196
G1 X3.835 Y-9.375 E6.13047
G1 X4.685 Y-8.975 E6.13908
G1 X5.025 Y-8.785 E6.14265
G1 X5.605 Y-8.415 E6.14896
G1 X6.145 Y-7.985 E6.15529
G1 X6.395 Y-7.755 E6.15841
G1 X7.952 Y-6.180 E6.17871
G1 F60000.000 E1.17871
G1 Z0.500
G92 E0
G1 X-3.420 Y0.299 F12000.000
G1 Z0.200
G1 F60000.000 E5.00000
G1 X-3.420 Y-0.299 F450.000 E5.00549
G1 X-3.316 Y-0.889 E5.01098
G1 X-3.112 Y-1.451 E5.01647
G1 X-2.813 Y-1.969 E5.02195
G1 X-2.428 Y-2.428 E5.02744
G1 X-1.969 Y-2.813 E5.03293
G1 X-1.451 Y-3.112 E5.03842
G1 X-0.889 Y-3.316 E5.04391
G1 X-0.299 Y-3.420 E5.04940
G1 X0.299 Y-3.420 E5.05489
G1 X0.889 Y-3.316 E5.06037
G1 X1.202 Y-3.202 E5.06343
G1 X0.713 Y-2.713 E5.06978
G1 X0.245 Y-2.796 E5.07414
G1 X-0.245 Y-2.796 E5.07863
G1 X-0.726 Y-2.711 E5.08311
G1 X-1.186 Y-2.544 E5.08760
G1 X-1.610 Y-2.299 E5.09208
G1 X-1.985 Y-1.985 E5.09657
G1 X-2.299 Y-1.610 E5.10106
G1 X-2.544 Y-1.186 E5.10554
G1 X-2.711 Y-0.726 E5.11003
G1 X-2.796 Y-0.245 E5.11452
G1 X-2.796 Y0.245 E5.11900
G1 X-2.711 Y0.726 E5.12349
G1 X-2.544 Y1.186 E5.12798
G1 X-2.299 Y1.610 E5.13246
G1 X-1.985 Y1.985 E5.13695
G1 X-1.610 Y2.299 E5.14144
G1 X-1.186 Y2.544 E5.14592
G1 X-0.726 Y2.711 E5.15041
G1 X-0.245 Y2.796 E5.15489
G1 X0.245 Y2.796 E5.15938
G1 X0.726 Y2.711 E5.16387
G1 X1.186 Y2.544 E5.16835
G1 X1.610 Y2.299 E5.17284
G1 X1.985 Y1.985 E5.17733
G1 X2.299 Y1.610 E5.18181
G1 X2.544 Y1.186 E5.18630
G1 X2.711 Y0.726 E5.19079
G1 X2.796 Y0.245 E5.19527
G1 X2.796 Y-0.245 E5.19976
G1 X2.713 Y-0.713 E5.20412
G1 X3.202 Y-1.202 E5.21046
G1 X3.316 Y-0.889 E5.21352
G1 X3.420 Y-0.299 E5.21901
G1 X3.420 Y0.299 E5.22450
G1 X3.316 Y0.889 E5.22999
G1 X3.112 Y1.451 E5.23548
G1 X2.813 Y1.969 E5.24097
G1 X2.428 Y2.428 E5.24645
G1 X1.969 Y2.813 E5.25194
G1 X1.451 Y3.112 E5.25743
G1 X0.889 Y3.316 E5.26292
G1 X0.299 Y3.420 E5.26841
G1 X-0.299 Y3.420 E5.27390
G1 X-0.889 Y3.316 E5.27939
G1 X-1.451 Y3.112 E5.28487
G1 X-1.969 Y2.813 E5.29036
G1 X-2.428 Y2.428 E5.29585
G1 X-2.813 Y1.969 E5.30134
G1 X-3.112 Y1.451 E5.30683
G1 X-3.316 Y0.889 E5.31232
G1 X-3.414 Y0.334 E5.31749
G1 X-3.653 Y0.320 F12000.000
G1 X-3.653 Y-0.320 F450.000 E5.32335
G1 X-3.542 Y-0.949 E5.32921
G1 X-3.323 Y-1.550 E5.33507
G1 X-3.003 Y-2.103 E5.34093
G1 X-2.593 Y-2.593 E5.34679
G1 X-2.103 Y-3.003 E5.35265
G1 X-1.550 Y-3.323 E5.35852
G1 X-0.949 Y-3.542 E5.36438
G1 X-0.320 Y-3.653 E5.37024
G1 X0.320 Y-3.653 E5.37610
G1 X0.949 Y-3.542 E5.38196
G1 X1.624 Y-3.296 E5.38855
G1 X0.774 Y-2.446 E5.39957
G1 X0.666 Y-2.486 E5.40062
G1 X0.224 Y-2.564 E5.40474
G1 X-0.224 Y-2.564 E5.40885
G1 X-0.666 Y-2.486 E5.41297
G1 X-1.088 Y-2.332 E5.41708
G1 X-1.476 Y-2.108 E5.42119
G1 X-1.820 Y-1.820 E5.42531
G1 X-2.108 Y-1.476 E5.42942
G1 X-2.332 Y-1.088 E5.43353
G1 X-2.486 Y-0.666 E5.43765
G1 X-2.564 Y-0.224 E5.44176
G1 X-2.564 Y0.224 E5.44588
G1 X-2.486 Y0.666 E5.44999
G1 X-2.332 Y1.088 E5.45410
G1 X-2.108 Y1.476 E5.45822
G1 X-1.820 Y1.820 E5.46233
G1 X-1.476 Y2.108 E5.46645
G1 X-1.088 Y2.332 E5.47056
G1 X-0.666 Y2.486 E5.47467
G1 X-0.224 Y2.564 E5.47879
G1 X0.224 Y2.564 E5.48290
G1 X0.666 Y2.486 E5.48701
G1 X1.088 Y2.332 E5.49113
G1 X1.476 Y2.108 E5.49524
G1 X1.820 Y1.820 E5.49936
G1 X2.108 Y1.476 E5.50347
G1 X2.332 Y1.088 E5.50758
G1 X2.486 Y0.666 E5.51170
G1 X2.564 Y0.224 E5.51581
G1 X2.564 Y-0.224 E5.51992
G1 X2.486 Y-0.666 E5.52404
G1 X2.446 Y-0.774 E5.52510
G1 X3.296 Y-1.624 E5.53612
G1 X3.542 Y-0.949 E5.54270
G1 X3.653 Y-0.320 E5.54856
G1 X3.653 Y0.320 E5.55443
G1 X3.542 Y0.949 E5.56029
G1 X3.323 Y1.550 E5.56615
G1 X3.003 Y2.103 E5.57201
G1 X2.593 Y2.593 E5.57787
G1 X2.103 Y3.003 E5.58373
G1 X1.550 Y3.323 E5.58959
G1 X0.949 Y3.542 E5.59545
G1 X0.320 Y3.653 E5.60131
G1 X-0.320 Y3.653 E5.60718
G1 X-0.949 Y3.542 E5.61304
G1 X-1.550 Y3.323 E5.61890
G1 X-2.103 Y3.003 E5.62476
G1 X-2.593 Y2.593 E5.63062
G1 X-3.003 Y2.103 E5.63648
G1 X-3.323 Y1.550 E5.64234
G1 X-3.542 Y0.949 E5.64820
G1 X-3.647 Y0.354 E5.65375
G1 X-3.885 Y0.340 F12000.000
G1 X-3.885 Y-0.340 F450.000 E5.65998
G1 X-3.767 Y-1.009 E5.66621
G1 X-3.534 Y-1.648 E5.67245
G1 X-3.194 Y-2.237 E5.67868
G1 X-2.757 Y-2.757 E5.68491
G1 X-2.237 Y-3.194 E5.69115
G1 X-1.648 Y-3.534 E5.69738
G1 X-1.009 Y-3.767 E5.70362
G1 X-0.340 Y-3.885 E5.70985
G1 X0.340 Y-3.885 E5.71608
G1 X1.009 Y-3.767 E5.72232
G1 X1.648 Y-3.534 E5.72855
G1 X1.992 Y-3.336 E5.73219
G1 X0.834 Y-2.178 E5.74721
G1 X0.606 Y-2.261 E5.74944
G1 X0.204 Y-2.331 E5.75318
G1 X-0.204 Y-2.331 E5.75692
G1 X-0.606 Y-2.261 E5.76067
G1 X-0.989 Y-2.121 E5.76441
G1 X-1.342 Y-1.917 E5.76815
G1 X-1.655 Y-1.655 E5.77189
G1 X-1.917 Y-1.342 E5.77563
G1 X-2.121 Y-0.989 E5.77937
G1 X-2.261 Y-0.606 E5.78311
G1 X-2.331 Y-0.204 E5.78685
G1 X-2.331 Y0.204 E5.79060
G1 X-2.261 Y0.606 E5.79434
G1 X-2.121 Y0.989 E5.79808
G1 X-1.917 Y1.342 E5.80182
G1 X-1.655 Y1.655 E5.80556
G1 X-1.342 Y1.917 E5.80930
G1 X-0.989 Y2.121 E5.81304
G1 X-0.606 Y2.261 E5.81678
G1 X-0.204 Y2.331 E5.82053
G1 X0.204 Y2.331 E5.82427
G1 X0.606 Y2.261 E5.82801
G1 X0.989 Y2.121 E5.83175
G1 X1.342 Y1.917 E5.83549
G1 X1.655 Y1.655 E5.83923
G1 X1.917 Y1.342 E5.84297
G1 X2.121 Y0.989 E5.84671
G1 X2.261 Y0.606 E5.85046
G1 X2.331 Y0.204 E5.85420
G1 X2.331 Y-0.204 E5.85794
G1 X2.261 Y-0.606 E5.86168
G1 X2.178 Y-0.834 E5.86391
G1 X3.336 Y-1.992 E5.87893
G1 X3.534 Y-1.648 E5.88257
G1 X3.767 Y-1.009 E5.88880
G1 X3.885 Y-0.340 E5.89504
G1 X3.885 Y0.340 E5.90127
G1 X3.767 Y1.009 E5.90750
G1 X3.534 Y1.648 E5.91374
G1 X3.194 Y2.237 E5.91997
G1 X2.757 Y2.757 E5.92621
G1 X2.237 Y3.194 E5.93244
G1 X1.648 Y3.534 E5.93867
G1 X1.009 Y3.767 E5.94491
G1 X0.340 Y3.885 E5.95114
G1 X-0.340 Y3.885 E5.95737
G1 X-1.009 Y3.767 E5.96361
G1 X-1.648 Y3.534 E5.96984
G1 X-2.237 Y3.194 E5.97608
G1 X-2.757 Y2.757 E5.98231
G1 X-3.194 Y2.237 E5.98854
G1 X-3.534 Y1.648 E5.99478
G1 X-3.767 Y1.009 E6.00101
G1 X-3.879 Y0.374 E6.00693
G1 X-3.691 Y0.212 F12000.000
G1 F60000.000 E1.00693
G1 Z0.500
G92 E0
G1 X-2.139 Y2.339 F12000.000
G1 Z0.200
G1 F60000.000 E5.00000
G1 X-3.077 Y0.942 F300.000 E5.02155
G1 X-2.914 Y0.647 E5.02588
G1 X-3.225 Y0.335 E5.03153
G1 X-2.963 Y0.138 E5.03573
G1 X-3.253 Y-0.152 E5.04100
G1 X-2.940 Y-0.298 E5.04542
G1 X-3.218 Y-0.575 E5.05045
G1 X-2.871 Y-0.688 E5.05512
G1 X-3.143 Y-0.959 E5.06003
G1 X-3.020 Y-1.295 E5.06462
G1 X-2.750 Y-1.026 E5.06952
G1 X-2.606 Y-1.340 E5.07395
G1 X-2.871 Y-1.606 E5.07876
G1 X-2.703 Y-1.896 E5.08307
G1 X-2.438 Y-1.631 E5.08788
G1 X-2.233 Y-1.885 E5.09206
G1 X-2.497 Y-2.149 E5.09684
G1 X-2.278 Y-2.388 E5.10100
G1 X-2.014 Y-2.125 E5.10577
G1 X-1.765 Y-2.334 E5.10995
G1 X-2.028 Y-2.598 E5.11472
G1 X-1.756 Y-2.785 E5.11895
G1 X-1.491 Y-2.519 E5.12376
G1 X-1.200 Y-2.687 E5.12807
G1 X-1.465 Y-2.952 E5.13288
G1 X-1.133 Y-3.079 E5.13743
G1 X-0.863 Y-2.809 E5.14233
G1 X-0.500 Y-2.905 E5.14714
G1 X-0.777 Y-3.182 E5.15218
G1 X-0.387 Y-3.251 E5.15725
G1 X-0.099 Y-2.963 E5.16247
G1 X0.069 Y-3.253 E5.16677
G1 X0.360 Y-2.963 E5.17204
G1 X0.604 Y-3.178 E5.17620
G1 X0.801 Y-2.980 E5.17979
G1 F60000.000 E0.17979
G1 Z0.500
G92 E0
G1 X2.980 Y-0.801 F12000.000
G1 Z0.200
G1 F60000.000 E5.00000
G1 X3.178 Y-0.604 F300.000 E5.00359
G1 X2.963 Y-0.360 E5.00775
G1 X3.253 Y-0.069 E5.01301
G1 X2.963 Y0.099 E5.01732
G1 X3.251 Y0.387 E5.02254
G1 X2.905 Y0.500 E5.02721
G1 X3.182 Y0.777 E5.03224
G1 X3.079 Y1.133 E5.03698
G1 X2.809 Y0.863 E5.04188
G1 X2.687 Y1.200 E5.04647
G1 X2.952 Y1.465 E5.05128
G1 X2.784 Y1.756 E5.05558
G1 X2.519 Y1.491 E5.06039
G1 X2.334 Y1.765 E5.06463
G1 X2.598 Y2.028 E5.06941
G1 X2.388 Y2.278 E5.07358
G1 X2.125 Y2.014 E5.07835
G1 X1.885 Y2.233 E5.08252
G1 X2.149 Y2.497 E5.08729
G1 X1.896 Y2.703 E5.09147
G1 X1.631 Y2.438 E5.09628
G1 X1.340 Y2.606 E5.10059
G1 X1.606 Y2.871 E5.10540
G1 X1.295 Y3.020 E5.10981
G1 X1.026 Y2.750 E5.11470
G1 X0.688 Y2.871 E5.11930
G1 X0.959 Y3.143 E5.12421
G1 X0.575 Y3.218 E5.12922
G1 X0.298 Y2.940 E5.13425
G1 X0.152 Y3.253 E5.13868
G1 X-0.138 Y2.963 E5.14394
G1 X-0.335 Y3.225 E5.14814
G1 X-0.647 Y2.914 E5.15379
G1 X-0.942 Y3.077 E5.15812
G1 X-1.295 Y2.724 E5.16451
M106 S255
G1 F60000.000 E0.16451
G1 Z0.600
G92 E0
G1 X3.705 Y0.324 F12000.000
G1 Z0.300
G1 F60000.000 E5.00000
G1 X3.592 Y0.963 F600.000 E5.01379
G1 X3.370 Y1.572 E5.02758
G1 X3.046 Y2.133 E5.04137
G1 X2.630 Y2.630 E5.05515
G1 X2.133 Y3.046 E5.06894
G1 X1.572 Y3.370 E5.08273
G1 X0.963 Y3.592 E5.09652
G1 X0.324 Y3.705 E5.11031
G1 X-0.324 Y3.705 E5.12410
G1 X-0.963 Y3.592 E5.13789
G1 X-1.572 Y3.370 E5.15167
G1 X-2.133 Y3.046 E5.16546
G1 X-2.630 Y2.630 E5.17925
G1 X-3.046 Y2.133 E5.19304
G1 X-3.370 Y1.572 E5.20683
G1 X-3.592 Y0.963 E5.22062
G1 X-3.705 Y0.324 E5.23441
G1 X-3.705 Y-0.324 E5.24819
G1 X-3.592 Y-0.963 E5.26198
G1 X-3.370 Y-1.572 E5.27577
G1 X-3.046 Y-2.133 E5.28956
G1 X-2.630 Y-2.630 E5.30335
G1 X-2.133 Y-3.046 E5.31714
G1 X-1.572 Y-3.370 E5.33093
G1 X-0.963 Y-3.592 E5.34471
G1 X-0.324 Y-3.705 E5.35850
G1 X0.324 Y-3.705 E5.37229
G1 X0.963 Y-3.592 E5.38608
G1 X1.719 Y-3.317 E5.40320
G1 X0.809 Y-2.407 E5.43056
G1 X0.220 Y-2.511 E5.44329
G1 X-0.220 Y-2.511 E5.45264
G1 X-0.653 Y-2.435 E5.46199
G1 X-1.065 Y-2.285 E5.47134
G1 X-1.446 Y-2.065 E5.48068
G1 X-1.783 Y-1.783 E5.49003
G1 X-2.065 Y-1.446 E5.49938
G1 X-2.285 Y-1.065 E5.50872
G1 X-2.435 Y-0.653 E5.51807
G1 X-2.511 Y-0.220 E5.52742
G1 X-2.511 Y0.220 E5.53677
G1 X-2.435 Y0.653 E5.54611
G1 X-2.285 Y1.065 E5.55546
G1 X-2.065 Y1.446 E5.56481
G1 X-1.783 Y1.783 E5.57416
G1 X-1.446 Y2.065 E5.58350
G1 X-1.065 Y2.285 E5.59285
G1 X-0.653 Y2.435 E5.60220
G1 X-0.220 Y2.511 E5.61155
G1 X0.220 Y2.511 E5.62089
G1 X0.653 Y2.435 E5.63024
G1 X1.065 Y2.285 E5.63959
G1 X1.446 Y2.065 E5.64893
G1 X1.783 Y1.783 E5.65828
G1 X2.065 Y1.446 E5.66763
G1 X2.285 Y1.065 E5.67698
G1 X2.435 Y0.653 E5.68632
G1 X2.511 Y0.220 E5.69567
G1 X2.511 Y-0.220 E5.70502
G1 X2.407 Y-0.809 E5.71775
G1 X3.317 Y-1.719 E5.74511
G1 X3.592 Y-0.963 E5.76223
G1 X3.705 Y-0.324 E5.77602
G1 X3.705 Y0.243 E5.78809
G1 F60000.000 E0.78809
G1 Z0.600
G92 E0
G1 X2.412 Y2.068 F12000.000
G1 Z0.300
G1 F60000.000 E5.00000
G1 X0.388 Y3.277 F600.000 E5.05363
G1 X-0.039 Y2.889 E5.06674
G1 X-0.472 Y3.323 E5.08069
G1 X-0.724 Y2.760 E5.09471
G1 X-1.141 Y3.177 E5.10812
G1 X-1.707 Y2.929 E5.12218
G1 X-1.295 Y2.516 E5.13544
G1 X-1.780 Y2.187 E5.14878
G1 X-2.190 Y2.597 E5.16197
G1 X-2.597 Y2.190 E5.17507
G1 X-2.187 Y1.780 E5.18827
G1 X-2.516 Y1.295 E5.20160
G1 X-2.929 Y1.707 E5.21487
G1 X-3.177 Y1.141 E5.22893
G1 X-2.760 Y0.724 E5.24234
G1 X-3.323 Y0.472 E5.25636
G1 X-2.889 Y0.039 E5.27030
G1 X-3.277 Y-0.388 E5.28342
G1 X-2.817 Y-0.848 E5.29821
G1 X-2.412 Y-2.068 E5.32745
G1 X-0.388 Y-3.277 E5.38107
G1 X0.039 Y-2.889 E5.39419
G1 X0.472 Y-3.323 E5.40813
G1 F60000.000 E0.40813
G1 Z0.600
G92 E0
G1 X3.323 Y-0.472 F12000.000
G1 Z0.300
G1 F60000.000 E5.00000
G1 X2.889 Y-0.039 F600.000 E5.01394
G1 X3.277 Y0.388 E5.02706
G1 X2.817 Y0.848 E5.04185
G1 F60000.000 E0.04185
G1 Z0.700
G92 E0
G1 X3.317 Y-1.719 F12000.000
G1 Z0.400
G1 F60000.000 E5.00000
G1 X3.592 Y-0.963 F600.000 E5.01712
G1 X3.705 Y-0.324 E5.03091
G1 X3.705 Y0.324 E5.04470
G1 X3.592 Y0.963 E5.05849
G1 X3.370 Y1.572 E5.07227
G1 X3.046 Y2.133 E5.08606
G1 X2.630 Y2.630 E5.09985
G1 X2.133 Y3.046 E5.11364
G1 X1.572 Y3.370 E5.12743
G1 X0.963 Y3.592 E5.14122
G1 X0.324 Y3.705 E5.15501
G1 X-0.324 Y3.705 E5.16879
G1 X-0.963 Y3.592 E5.18258
G1 X-1.572 Y3.370 E5.19637
G1 X-2.133 Y3.046 E5.21016
