; generated by Slic3r 0.9.9-dev on 2013-02-18 at 19:59:58

; This Slic3r config is for the Rostock delta robot 3D printer prototype.

; layer_height = 0.1
; perimeters = 3
; top_solid_layers = 3
; bottom_solid_layers = 3
; fill_density = .20
; perimeter_speed = 30
; infill_speed = 60
; travel_speed = 200
; scale = 1
; nozzle_diameter = 0.35
; filament_diameter = 1.75
; extrusion_multiplier = .9
; perimeters extrusion width = 0.56mm
; infill extrusion width = 0.56mm
; first layer extrusion width = 0.20mm

M107
M190 S60 ; wait for bed temperature to be reached
M104 S190 ; set temperature
M109 S190 ; wait for temperature to be reached
G28 ; home all axes
G1 Z10 F24000 ; move to print surface
G90 ; use absolute coordinates
G21 ; set units to millimeters
G92 E0
M82 ; use absolute distances for extrusion
G1 F60000.000 E-5.00000
G1 Z0.410
G92 E0
G1 X-5.770 Y-11.960 F12000.000
G1 Z0.110
G1 F60000.000 E5.00000
G1 X5.770 Y-11.960 F360.000 E5.10026
G1 X6.560 Y-11.880 E5.10716
G1 X7.090 Y-11.770 E5.11186
G1 X7.850 Y-11.520 E5.11881
G1 X8.580 Y-11.190 E5.12577
G1 X9.040 Y-10.910 E5.13045
G1 X9.470 Y-10.600 E5.13506
G1 X9.880 Y-10.260 E5.13968
G1 X10.260 Y-9.880 E5.14435
G1 X10.430 Y-9.680 E5.14663
G1 X10.910 Y-9.040 E5.15358
G1 X11.190 Y-8.580 E5.15826
G1 X11.310 Y-8.340 E5.16059
G1 X11.520 Y-7.850 E5.16523
G1 X11.700 Y-7.340 E5.16992
G1 X11.880 Y-6.560 E5.17688
G1 X11.960 Y-5.770 E5.18378
G1 X11.960 Y5.770 E5.28404
G1 X11.940 Y6.030 E5.28630
G1 X11.880 Y6.560 E5.29094
G1 X11.700 Y7.340 E5.29789
G1 X11.420 Y8.100 E5.30493
G1 X11.190 Y8.580 E5.30955
G1 X10.760 Y9.260 E5.31654
G1 X10.260 Y9.880 E5.32346
G1 X9.880 Y10.260 E5.32813
G1 X9.680 Y10.430 E5.33041
G1 X9.040 Y10.910 E5.33736
G1 X8.580 Y11.190 E5.34204
G1 X8.340 Y11.310 E5.34437
G1 X7.850 Y11.520 E5.34900
G1 X7.340 Y11.700 E5.35370
G1 X6.560 Y11.880 E5.36066
G1 X5.770 Y11.960 E5.36756
G1 X-5.770 Y11.960 E5.46782
G1 X-6.030 Y11.940 E5.47008
G1 X-6.560 Y11.880 E5.47472
G1 X-7.340 Y11.700 E5.48167
G1 X-8.100 Y11.420 E5.48871
G1 X-8.580 Y11.190 E5.49333
G1 X-9.260 Y10.760 E5.50032
G1 X-9.880 Y10.260 E5.50724
G1 X-10.260 Y9.880 E5.51191
G1 X-10.430 Y9.680 E5.51419
G1 X-10.910 Y9.040 E5.52114
G1 X-11.190 Y8.580 E5.52582
G1 X-11.310 Y8.340 E5.52815
G1 X-11.520 Y7.850 E5.53278
G1 X-11.700 Y7.340 E5.53748
G1 X-11.880 Y6.560 E5.54444
G1 X-11.960 Y5.770 E5.55133
G1 X-11.960 Y-5.770 E5.65159
G1 X-11.880 Y-6.560 E5.65849
G1 X-11.770 Y-7.090 E5.66320
G1 X-11.610 Y-7.600 E5.66784
G1 X-11.420 Y-8.100 E5.67249
G1 X-11.190 Y-8.580 E5.67711
G1 X-10.910 Y-9.040 E5.68179
G1 X-10.600 Y-9.470 E5.68639
G1 X-10.260 Y-9.880 E5.69102
G1 X-9.880 Y-10.260 E5.69569
G1 X-9.680 Y-10.430 E5.69797
G1 X-9.260 Y-10.760 E5.70261
G1 X-8.580 Y-11.190 E5.70960
G1 X-7.850 Y-11.520 E5.71656
G1 X-7.340 Y-11.700 E5.72126
G1 X-6.830 Y-11.830 E5.72583
G1 X-6.560 Y-11.880 E5.72822
G1 X-5.805 Y-11.957 E5.73482
G1 X-5.760 Y-11.730 F12000.000
G1 X5.760 Y-11.730 F360.000 E5.83490
G1 X6.530 Y-11.650 E5.84163
G1 X7.030 Y-11.540 E5.84608
G1 X7.770 Y-11.310 E5.85281
G1 X8.240 Y-11.100 E5.85728
G1 X8.910 Y-10.720 E5.86397
G1 X9.530 Y-10.260 E5.87068
G1 X9.910 Y-9.910 E5.87517
G1 X10.260 Y-9.530 E5.87966
G1 X10.720 Y-8.910 E5.88636
G1 X11.100 Y-8.240 E5.89306
G1 X11.310 Y-7.770 E5.89753
G1 X11.470 Y-7.280 E5.90201
G1 X11.650 Y-6.530 E5.90871
G1 X11.730 Y-5.760 E5.91543
G1 X11.730 Y5.760 E6.01552
G1 X11.710 Y6.010 E6.01770
G1 X11.650 Y6.530 E6.02225
G1 X11.600 Y6.780 E6.02446
G1 X11.470 Y7.280 E6.02895
G1 X11.310 Y7.770 E6.03343
G1 X11.100 Y8.240 E6.03790
G1 X10.720 Y8.910 E6.04459
G1 X10.260 Y9.530 E6.05130
G1 X9.910 Y9.910 E6.05579
G1 X9.530 Y10.260 E6.06028
G1 X8.910 Y10.720 E6.06698
G1 X8.240 Y11.100 E6.07368
G1 X7.770 Y11.310 E6.07815
G1 X7.280 Y11.470 E6.08263
G1 X6.530 Y11.650 E6.08933
G1 X5.760 Y11.730 E6.09605
G1 X-5.760 Y11.730 E6.19614
G1 X-6.010 Y11.710 E6.19832
G1 X-6.530 Y11.650 E6.20287
G1 X-6.780 Y11.600 E6.20508
G1 X-7.280 Y11.470 E6.20957
G1 X-7.770 Y11.310 E6.21405
G1 X-8.240 Y11.100 E6.21852
G1 X-8.910 Y10.720 E6.22521
G1 X-9.530 Y10.260 E6.23192
G1 X-9.910 Y9.910 E6.23641
G1 X-10.260 Y9.530 E6.24090
G1 X-10.720 Y8.910 E6.24760
G1 X-11.100 Y8.240 E6.25430
G1 X-11.310 Y7.770 E6.25877
G1 X-11.470 Y7.280 E6.26325
G1 X-11.650 Y6.530 E6.26995
G1 X-11.730 Y5.760 E6.27667
G1 X-11.730 Y-5.760 E6.37676
G1 X-11.650 Y-6.530 E6.38348
G1 X-11.600 Y-6.780 E6.38570
G1 X-11.470 Y-7.280 E6.39019
G1 X-11.310 Y-7.770 E6.39467
G1 X-11.100 Y-8.240 E6.39914
G1 X-10.720 Y-8.910 E6.40583
G1 X-10.260 Y-9.530 E6.41254
G1 X-9.910 Y-9.910 E6.41703
G1 X-9.530 Y-10.260 E6.42151
G1 X-8.910 Y-10.720 E6.42822
G1 X-8.240 Y-11.100 E6.43491
G1 X-7.770 Y-11.310 E6.43939
G1 X-7.280 Y-11.470 E6.44386
G1 X-6.780 Y-11.600 E6.44835
G1 X-6.530 Y-11.650 E6.45057
G1 X-5.795 Y-11.727 E6.45699
G1 F60000.000 E1.45699
G1 Z0.410
G92 E0
G1 X1.836 Y-4.564 F12000.000
G1 Z0.110
G1 F60000.000 E5.00000
G1 X4.564 Y-4.564 F360.000 E5.02371
G1 X4.564 Y-1.836 E5.04742
G1 X1.836 Y-1.836 E5.07112
G1 X1.836 Y-4.530 E5.09453
G1 X2.068 Y-4.332 F12000.000
G1 X4.332 Y-4.332 F360.000 E5.11420
G1 X4.332 Y-2.068 E5.13387
G1 X2.068 Y-2.068 E5.15355
G1 X2.068 Y-4.297 E5.17292
G1 X2.300 Y-4.100 F12000.000
G1 X4.100 Y-4.100 F360.000 E5.18856
G1 X4.100 Y-2.300 E5.20419
G1 X2.300 Y-2.300 E5.21983
G1 X2.300 Y-4.065 E5.23517
G1 X2.300 Y-4.332 F12000.000
G1 F60000.000 E0.23517
G1 Z0.410
G92 E0
G1 X1.836 Y-1.364 F12000.000
G1 Z0.110
G1 F60000.000 E5.00000
G1 X4.564 Y-1.364 F360.000 E5.02371
G1 X4.564 Y1.364 E5.04742
G1 X1.836 Y1.364 E5.07112
G1 X1.836 Y-1.330 E5.09453
G1 X2.068 Y-1.132 F12000.000
G1 X4.332 Y-1.132 F360.000 E5.11420
G1 X4.332 Y1.132 E5.13387
G1 X2.068 Y1.132 E5.15355
G1 X2.068 Y-1.097 E5.17292
G1 X2.300 Y-0.900 F12000.000
G1 X4.100 Y-0.900 F360.000 E5.18856
G1 X4.100 Y0.900 E5.20419
G1 X2.300 Y0.900 E5.21983
G1 X2.300 Y-0.865 E5.23517
G1 X2.300 Y-1.132 F12000.000
G1 F60000.000 E0.23517
G1 Z0.410
G92 E0
G1 X1.836 Y1.836 F12000.000
G1 Z0.110
G1 F60000.000 E5.00000
G1 X4.564 Y1.836 F360.000 E5.02371
G1 X4.564 Y4.564 E5.04742
G1 X1.836 Y4.564 E5.07112
G1 X1.836 Y1.870 E5.09453
G1 X2.068 Y2.068 F12000.000
G1 X4.332 Y2.068 F360.000 E5.11420
G1 X4.332 Y4.332 E5.13387
G1 X2.068 Y4.332 E5.15355
G1 X2.068 Y2.103 E5.17292
G1 X2.300 Y2.300 F12000.000
G1 X4.100 Y2.300 F360.000 E5.18856
G1 X4.100 Y4.100 E5.20419
G1 X2.300 Y4.100 E5.21983
G1 X2.300 Y2.335 E5.23517
G1 X2.300 Y2.068 F12000.000
G1 X1.364 Y1.836
G1 X1.364 Y4.564 F360.000 E5.25888
G1 X-1.364 Y4.564 E5.28258
G1 X-1.364 Y1.836 E5.30629
G1 X1.330 Y1.836 E5.32970
G1 X1.132 Y2.068 F12000.000
G1 X1.132 Y4.332 F360.000 E5.34937
G1 X-1.132 Y4.332 E5.36904
G1 X-1.132 Y2.068 E5.38871
G1 X1.097 Y2.068 E5.40808
G1 X0.900 Y2.300 F12000.000
G1 X0.900 Y4.100 F360.000 E5.42372
G1 X-0.900 Y4.100 E5.43936
G1 X-0.900 Y2.300 E5.45500
G1 X0.865 Y2.300 E5.47034
G1 X1.132 Y2.300 F12000.000
G1 X1.364 Y1.364
G1 X-1.364 Y1.364 F360.000 E5.49404
G1 X-1.364 Y-1.364 E5.51775
G1 X1.364 Y-1.364 E5.54146
G1 X1.364 Y1.330 E5.56486
G1 X1.132 Y1.132 F12000.000
G1 X-1.132 Y1.132 F360.000 E5.58454
G1 X-1.132 Y-1.132 E5.60421
G1 X1.132 Y-1.132 E5.62388
G1 X1.132 Y1.097 E5.64325
G1 X0.900 Y0.900 F12000.000
G1 X-0.900 Y0.900 F360.000 E5.65889
G1 X-0.900 Y-0.900 E5.67453
G1 X0.900 Y-0.900 E5.69017
G1 X0.900 Y0.865 E5.70550
G1 X0.900 Y1.132 F12000.000
G1 F60000.000 E0.70550
G1 Z0.410
G92 E0
G1 X1.364 Y-1.836 F12000.000
G1 Z0.110
G1 F60000.000 E5.00000
G1 X-1.364 Y-1.836 F360.000 E5.02371
G1 X-1.364 Y-4.564 E5.04742
G1 X1.364 Y-4.564 E5.07112
G1 X1.364 Y-1.870 E5.09453
G1 X1.132 Y-2.068 F12000.000
G1 X-1.132 Y-2.068 F360.000 E5.11420
G1 X-1.132 Y-4.332 E5.13387
G1 X1.132 Y-4.332 E5.15355
G1 X1.132 Y-2.103 E5.17292
G1 X0.900 Y-2.300 F12000.000
G1 X-0.900 Y-2.300 F360.000 E5.18856
G1 X-0.900 Y-4.100 E5.20419
G1 X0.900 Y-4.100 E5.21983
G1 X0.900 Y-2.335 E5.23517
G1 X0.900 Y-2.068 F12000.000
G1 F60000.000 E0.23517
G1 Z0.410
G92 E0
G1 X-1.836 Y-1.836 F12000.000
G1 Z0.110
G1 F60000.000 E5.00000
G1 X-4.564 Y-1.836 F360.000 E5.02371
G1 X-4.564 Y-4.564 E5.04742
G1 X-1.836 Y-4.564 E5.07112
G1 X-1.836 Y-1.870 E5.09453
G1 X-2.068 Y-2.068 F12000.000
G1 X-4.332 Y-2.068 F360.000 E5.11420
G1 X-4.332 Y-4.332 E5.13387
G1 X-2.068 Y-4.332 E5.15355
G1 X-2.068 Y-2.103 E5.17292
G1 X-2.300 Y-2.300 F12000.000
G1 X-4.100 Y-2.300 F360.000 E5.18856
G1 X-4.100 Y-4.100 E5.20419
G1 X-2.300 Y-4.100 E5.21983
G1 X-2.300 Y-2.335 E5.23517
G1 X-2.300 Y-2.068 F12000.000
G1 X-1.836 Y-1.364
G1 X-1.836 Y1.364 F360.000 E5.25888
G1 X-4.564 Y1.364 E5.28258
G1 X-4.564 Y-1.364 E5.30629
G1 X-1.870 Y-1.364 E5.32970
G1 X-2.068 Y-1.132 F12000.000
G1 X-2.068 Y1.132 F360.000 E5.34937
G1 X-4.332 Y1.132 E5.36904
G1 X-4.332 Y-1.132 E5.38871
G1 X-2.103 Y-1.132 E5.40808
G1 X-2.300 Y-0.900 F12000.000
G1 X-2.300 Y0.900 F360.000 E5.42372
G1 X-4.100 Y0.900 E5.43936
G1 X-4.100 Y-0.900 E5.45500
G1 X-2.335 Y-0.900 E5.47034
G1 X-2.068 Y-0.900 F12000.000
G1 F60000.000 E0.47034
G1 Z0.410
G92 E0
G1 X-1.836 Y1.836 F12000.000
G1 Z0.110
G1 F60000.000 E5.00000
G1 X-1.836 Y4.564 F360.000 E5.02371
G1 X-4.564 Y4.564 E5.04742
G1 X-4.564 Y1.836 E5.07112
G1 X-1.870 Y1.836 E5.09453
G1 X-2.068 Y2.068 F12000.000
G1 X-2.068 Y4.332 F360.000 E5.11420
G1 X-4.332 Y4.332 E5.13387
G1 X-4.332 Y2.068 E5.15355
G1 X-2.103 Y2.068 E5.17292
G1 X-2.300 Y2.300 F12000.000
G1 X-2.300 Y4.100 F360.000 E5.18856
G1 X-4.100 Y4.100 E5.20419
G1 X-4.100 Y2.300 E5.21983
G1 X-2.335 Y2.300 E5.23517
G1 X-2.068 Y2.300 F12000.000
G1 F60000.000 E0.23517
G1 Z0.410
G92 E0
G1 X5.036 Y-5.036 F12000.000
G1 Z0.110
G1 F60000.000 E5.00000
G1 X5.036 Y5.036 F360.000 E5.08750
G1 X-5.036 Y5.036 E5.17500
G1 X-5.036 Y-5.036 E5.26250
G1 X5.001 Y-5.036 E5.34969
G1 X5.268 Y-5.268 F12000.000
G1 X5.268 Y5.268 F360.000 E5.44123
G1 X-5.268 Y5.268 E5.53276
G1 X-5.268 Y-5.268 E5.62429
G1 X5.233 Y-5.268 E5.71553
G1 X5.500 Y-5.500 F12000.000
G1 X5.500 Y5.500 F360.000 E5.81109
G1 X-5.500 Y5.500 E5.90666
G1 X-5.500 Y-5.500 E6.00223
G1 X5.465 Y-5.500 E6.09750
G1 X5.384 Y-5.299 F12000.000
G1 F60000.000 E1.09750
G1 Z0.410
G92 E0
G1 X-4.746 Y4.894 F12000.000
G1 Z0.110
G1 F60000.000 E5.00000
G1 X-4.894 Y4.746 F240.000 E5.00184
G1 X-4.706 Y4.600 E5.00392
G1 X-4.894 Y4.413 E5.00625
G1 X-4.706 Y4.268 E5.00833
G1 X-4.894 Y4.081 E5.01066
G1 X-4.706 Y3.935 E5.01274
G1 X-4.894 Y3.748 E5.01507
G1 X-4.706 Y3.603 E5.01715
G1 X-4.894 Y3.416 E5.01948
G1 X-4.706 Y3.271 E5.02156
G1 X-4.894 Y3.084 E5.02388
G1 X-4.706 Y2.938 E5.02597
G1 X-4.894 Y2.751 E5.02829
G1 X-4.706 Y2.606 E5.03038
G1 X-4.894 Y2.419 E5.03270
G1 X-4.706 Y2.274 E5.03479
G1 X-4.894 Y2.086 E5.03711
G1 X-4.706 Y1.941 E5.03919
G1 X-4.894 Y1.754 E5.04152
G1 X-4.706 Y1.609 E5.04360
G1 X-4.894 Y1.422 E5.04593
G1 F60000.000 E0.04593
G1 Z0.410
G92 E0
G1 X-1.422 Y4.894 F12000.000
G1 Z0.110
G1 F60000.000 E5.00000
G1 X-1.609 Y4.706 F240.000 E5.00233
G1 X-1.754 Y4.894 E5.00441
G1 X-1.941 Y4.706 E5.00673
G1 X-2.086 Y4.894 E5.00882
G1 X-2.274 Y4.706 E5.01114
G1 X-2.419 Y4.894 E5.01323
G1 X-2.606 Y4.706 E5.01555
G1 X-2.751 Y4.894 E5.01764
G1 X-2.938 Y4.706 E5.01996
G1 X-3.084 Y4.894 E5.02204
G1 X-3.271 Y4.706 E5.02437
G1 X-3.416 Y4.894 E5.02645
G1 X-3.603 Y4.706 E5.02878
G1 X-3.748 Y4.894 E5.03086
G1 X-3.935 Y4.706 E5.03319
G1 X-4.081 Y4.894 E5.03527
G1 X-4.268 Y4.706 E5.03760
G1 X-4.413 Y4.894 E5.03968
G1 X-4.600 Y4.706 E5.04201
G1 F60000.000 E0.04201
G1 Z0.410
G92 E0
G1 X-1.276 Y4.706 F12000.000
G1 Z0.110
G1 F60000.000 E5.00000
G1 X-1.089 Y4.894 F240.000 E5.00233
G1 X-0.944 Y4.706 E5.00441
G1 X-0.757 Y4.894 E5.00673
G1 X-0.612 Y4.706 E5.00882
G1 X-0.425 Y4.894 E5.01114
G1 X-0.279 Y4.706 E5.01323
G1 X-0.092 Y4.894 E5.01555
G1 X0.053 Y4.706 E5.01764
G1 X0.240 Y4.894 E5.01996
G1 X0.386 Y4.706 E5.02204
G1 X0.573 Y4.894 E5.02437
G1 X0.718 Y4.706 E5.02645
G1 X0.905 Y4.894 E5.02878
G1 X1.050 Y4.706 E5.03086
G1 X1.237 Y4.894 E5.03319
G1 X1.383 Y4.706 E5.03527
G1 X1.570 Y4.894 E5.03760
G1 X1.715 Y4.706 E5.03968
G1 X1.902 Y4.894 E5.04201
G1 X2.047 Y4.706 E5.04409
G1 X2.234 Y4.894 E5.04642
G1 X2.380 Y4.706 E5.04850
G1 X2.567 Y4.894 E5.05082
G1 X2.712 Y4.706 E5.05291
G1 X2.899 Y4.894 E5.05523
G1 X3.045 Y4.706 E5.05732
G1 X3.232 Y4.894 E5.05964
G1 X3.377 Y4.706 E5.06173
G1 X3.564 Y4.894 E5.06405
G1 X3.709 Y4.706 E5.06613
G1 X3.896 Y4.894 E5.06846
G1 X4.042 Y4.706 E5.07054
G1 X4.229 Y4.894 E5.07287
G1 X4.374 Y4.706 E5.07495
G1 X4.561 Y4.894 E5.07728
G1 X4.706 Y4.706 E5.07936
G1 X4.893 Y4.893 E5.08169
G1 X4.894 Y4.561 E5.08461
G1 X4.706 Y4.374 E5.08693
G1 X4.894 Y4.229 E5.08902
G1 X4.706 Y4.042 E5.09134
G1 X4.894 Y3.896 E5.09343
G1 X4.706 Y3.709 E5.09575
G1 X4.894 Y3.564 E5.09784
G1 X4.706 Y3.377 E5.10016
G1 X4.894 Y3.232 E5.10224
G1 X4.706 Y3.045 E5.10457
G1 X4.894 Y2.899 E5.10665
G1 X4.706 Y2.712 E5.10898
G1 X4.894 Y2.567 E5.11106
G1 X4.706 Y2.380 E5.11339
G1 X4.894 Y2.234 E5.11547
G1 X4.706 Y2.047 E5.11780
G1 X4.894 Y1.902 E5.11988
G1 X4.706 Y1.715 E5.12221
G1 F60000.000 E0.12221
G1 Z0.410
G92 E0
G1 X-1.694 Y1.630 F12000.000
G1 Z0.110
G1 F60000.000 E5.00000
G1 X-1.506 Y1.817 F240.000 E5.00233
G1 X-1.694 Y1.963 E5.00441
G1 X-1.506 Y2.150 E5.00673
G1 X-1.694 Y2.295 E5.00882
G1 X-1.506 Y2.482 E5.01114
G1 X-1.694 Y2.627 E5.01323
G1 X-1.506 Y2.814 E5.01555
G1 X-1.694 Y2.960 E5.01764
G1 X-1.506 Y3.147 E5.01996
G1 X-1.694 Y3.292 E5.02204
G1 X-1.506 Y3.479 E5.02437
G1 X-1.694 Y3.625 E5.02645
G1 X-1.506 Y3.812 E5.02878
G1 X-1.694 Y3.957 E5.03086
G1 X-1.506 Y4.144 E5.03319
G1 X-1.694 Y4.289 E5.03527
G1 X-1.506 Y4.476 E5.03760
G1 X-1.694 Y4.622 E5.03968
G1 X-1.506 Y4.809 E5.04201
G1 F60000.000 E0.04201
G1 Z0.410
G92 E0
G1 X-1.485 Y1.506 F12000.000
G1 Z0.110
G1 F60000.000 E5.00000
G1 X-1.298 Y1.694 F240.000 E5.00233
G1 X-1.153 Y1.506 E5.00441
G1 X-0.966 Y1.694 E5.00673
G1 X-0.820 Y1.506 E5.00882
G1 X-0.633 Y1.694 E5.01114
G1 X-0.488 Y1.506 E5.01323
G1 X-0.301 Y1.694 E5.01555
G1 X-0.155 Y1.506 E5.01764
G1 X0.032 Y1.694 E5.01996
G1 X0.177 Y1.506 E5.02204
G1 X0.364 Y1.694 E5.02437
G1 X0.509 Y1.506 E5.02645
G1 X0.696 Y1.694 E5.02878
G1 X0.842 Y1.506 E5.03086
G1 X1.029 Y1.694 E5.03319
G1 X1.174 Y1.506 E5.03527
G1 X1.361 Y1.694 E5.03760
G1 F60000.000 E0.03760
G1 Z0.410
G92 E0
G1 X-1.694 Y-1.361 F12000.000
G1 Z0.110
G1 F60000.000 E5.00000
G1 X-1.506 Y-1.174 F240.000 E5.00233
G1 X-1.694 Y-1.029 E5.00441
G1 X-1.506 Y-0.842 E5.00673
G1 X-1.694 Y-0.696 E5.00882
G1 X-1.506 Y-0.509 E5.01114
G1 X-1.694 Y-0.364 E5.01323
G1 X-1.506 Y-0.177 E5.01555
G1 X-1.694 Y-0.032 E5.01764
G1 X-1.506 Y0.155 E5.01996
G1 X-1.694 Y0.301 E5.02204
G1 X-1.506 Y0.488 E5.02437
G1 X-1.694 Y0.633 E5.02645
G1 X-1.506 Y0.820 E5.02878
G1 X-1.694 Y0.966 E5.03086
G1 X-1.506 Y1.153 E5.03319
G1 X-1.694 Y1.298 E5.03527
G1 X-1.506 Y1.485 E5.03760
G1 F60000.000 E0.03760
G1 Z0.410
G92 E0
G1 X-1.694 Y-1.694 F12000.000
G1 Z0.110
G1 F60000.000 E5.00000
G1 X-1.506 Y-1.506 F240.000 E5.00233
G1 X-1.506 Y-1.839 F12000.000
G1 X-1.694 Y-2.026 F240.000 E5.00465
G1 X-1.506 Y-2.171 E5.00674
G1 X-1.694 Y-2.358 E5.00906
G1 X-1.506 Y-2.504 E5.01114
G1 X-1.694 Y-2.691 E5.01347
G1 X-1.506 Y-2.836 E5.01555
G1 X-1.694 Y-3.023 E5.01788
G1 X-1.506 Y-3.168 E5.01996
G1 X-1.694 Y-3.355 E5.02229
G1 X-1.506 Y-3.501 E5.02437
G1 X-1.694 Y-3.688 E5.02670
G1 X-1.506 Y-3.833 E5.02878
G1 X-1.694 Y-4.020 E5.03111
G1 X-1.506 Y-4.166 E5.03319
G1 X-1.694 Y-4.353 E5.03551
G1 X-1.506 Y-4.498 E5.03760
G1 X-1.694 Y-4.685 E5.03992
G1 X-1.715 Y-4.706 F12000.000
G1 X-1.902 Y-4.894 F240.000 E5.04225
G1 X-2.047 Y-4.706 E5.04433
G1 X-2.234 Y-4.894 E5.04666
G1 X-2.380 Y-4.706 E5.04874
G1 X-2.567 Y-4.894 E5.05107
G1 X-2.712 Y-4.706 E5.05315
G1 X-2.899 Y-4.894 E5.05548
G1 X-3.045 Y-4.706 E5.05756
G1 X-3.232 Y-4.894 E5.05989
G1 X-3.377 Y-4.706 E5.06197
G1 X-3.564 Y-4.894 E5.06429
G1 X-3.709 Y-4.706 E5.06638
G1 X-3.896 Y-4.894 E5.06870
G1 X-4.042 Y-4.706 E5.07079
G1 X-4.229 Y-4.894 E5.07311
G1 X-4.374 Y-4.706 E5.07520
G1 X-4.561 Y-4.894 E5.07752
G1 X-4.706 Y-4.706 E5.07960
G1 X-4.893 Y-4.893 E5.08193
G1 X-4.894 Y-4.561 E5.08485
G1 X-4.706 Y-4.374 E5.08718
G1 X-4.894 Y-4.229 E5.08926
G1 X-4.706 Y-4.042 E5.09159
G1 X-4.894 Y-3.896 E5.09367
G1 X-4.706 Y-3.709 E5.09599
G1 X-4.894 Y-3.564 E5.09808
G1 X-4.706 Y-3.377 E5.10040
G1 X-4.894 Y-3.232 E5.10249
