; generated by Slic3r 0.9.4-dev on 2013-02-04 at 19:36:17

; This Slic3r config is for the Rostock delta robot 3D printer prototype.

; layer_height = 0.2
; perimeters = 3
; top_solid_layers = 3
; bottom_solid_layers = 3
; fill_density = 0.6
; perimeter_speed = 30
; infill_speed = 60
; travel_speed = 200
; scale = 1
; nozzle_diameter = 0.35
; filament_diameter = 1.75
; extrusion_multiplier = 1
; single wall width = 0.49mm
; first layer single wall width = 0.20mm

M107
G28 ; home all axes
G1 Z10 F24000 ; move to print surface
M302 ; allow cold extrusion
G90 ; use absolute coordinates
G21 ; set units to millimeters
G1 F60000.000
G1 Z0.300 F12000.000
G1 X-38.345 Y-24.010
G1 Z0.000
G1 F60000.000
G1 X-38.135 Y-24.220 F540.000
G1 X-37.915 Y-24.430
G1 X-37.685 Y-24.620
G1 X-37.495 Y-24.770
G1 X-37.305 Y-24.910
G1 X-37.105 Y-25.050
G1 X-36.915 Y-25.180
G1 X-36.705 Y-25.300
G1 X-36.505 Y-25.410
G1 X-36.315 Y-25.510
G1 X-36.055 Y-25.640
G1 X-35.805 Y-25.750
G1 X-35.545 Y-25.850
G1 X-35.275 Y-25.950
G1 X-35.005 Y-26.030
G1 X-34.785 Y-26.090
G1 X-33.765 Y-26.280
G1 X-33.575 Y-26.300
G1 X-32.625 Y-26.330
G1 X-32.395 Y-26.320
G1 X-31.535 Y-26.220
G1 X27.555 Y-15.560
G1 X27.725 Y-15.530
G1 X28.205 Y-15.430
G1 X28.735 Y-15.290
G1 X29.205 Y-15.150
G1 X29.425 Y-15.080
G1 X30.045 Y-14.870
G1 X30.545 Y-14.680
G1 X31.305 Y-14.350
G1 X31.805 Y-14.110
G1 X32.525 Y-13.720
G1 X32.915 Y-13.490
G1 X33.465 Y-13.140
G1 X33.935 Y-12.810
G1 X34.585 Y-12.310
G1 X34.965 Y-12.000
G1 X35.455 Y-11.560
G1 X35.855 Y-11.160
G1 X36.415 Y-10.560
G1 X36.745 Y-10.180
G1 X37.255 Y-9.540
G1 X37.585 Y-9.080
G1 X38.035 Y-8.400
G1 X38.315 Y-7.950
G1 X38.645 Y-7.350
G1 X38.815 Y-7.000
G1 X39.085 Y-6.430
G1 X39.315 Y-5.880
G1 X39.595 Y-5.110
G1 X39.715 Y-4.770
G1 X39.905 Y-4.140
G1 X40.055 Y-3.540
G1 X40.215 Y-2.740
G1 X40.295 Y-2.250
G1 X40.375 Y-1.590
G1 X40.415 Y-1.060
G1 X40.445 Y-0.250
G1 X40.445 Y0.230
G1 X40.415 Y1.050
G1 X40.375 Y1.580
G1 X40.295 Y2.240
G1 X40.215 Y2.730
G1 X40.055 Y3.530
G1 X39.905 Y4.130
G1 X39.715 Y4.760
G1 X39.595 Y5.100
G1 X39.315 Y5.870
G1 X39.085 Y6.430
G1 X38.805 Y7.020
G1 X38.625 Y7.370
G1 X38.305 Y7.950
G1 X38.035 Y8.390
G1 X37.585 Y9.070
G1 X37.255 Y9.530
G1 X36.745 Y10.170
G1 X36.415 Y10.550
G1 X35.855 Y11.150
G1 X35.455 Y11.550
G1 X34.965 Y11.990
G1 X34.585 Y12.300
G1 X33.935 Y12.800
G1 X33.465 Y13.130
G1 X32.915 Y13.480
G1 X32.525 Y13.710
G1 X31.805 Y14.100
G1 X31.305 Y14.340
G1 X30.545 Y14.670
G1 X30.045 Y14.860
G1 X29.425 Y15.070
G1 X29.205 Y15.140
G1 X28.735 Y15.280
G1 X28.205 Y15.420
G1 X27.725 Y15.520
G1 X27.555 Y15.550
G1 X-31.545 Y26.210
G1 X-32.305 Y26.300
G1 X-32.475 Y26.310
G1 X-32.855 Y26.320
G1 X-32.905 Y26.320
G1 X-33.575 Y26.290
G1 X-33.765 Y26.270
G1 X-34.785 Y26.080
G1 X-35.005 Y26.020
G1 X-35.275 Y25.940
G1 X-35.545 Y25.840
G1 X-35.805 Y25.740
G1 X-36.055 Y25.630
G1 X-36.315 Y25.500
G1 X-36.505 Y25.400
G1 X-36.705 Y25.290
G1 X-36.915 Y25.170
G1 X-37.105 Y25.040
G1 X-37.305 Y24.900
G1 X-37.495 Y24.760
G1 X-37.685 Y24.610
G1 X-37.915 Y24.420
G1 X-38.135 Y24.210
G1 X-38.345 Y24.000
G1 X-38.555 Y23.780
G1 X-38.745 Y23.550
G1 X-38.895 Y23.360
G1 X-39.035 Y23.170
G1 X-39.175 Y22.970
G1 X-39.305 Y22.780
G1 X-39.425 Y22.570
G1 X-39.535 Y22.370
G1 X-39.635 Y22.180
G1 X-39.765 Y21.920
G1 X-39.875 Y21.670
G1 X-39.975 Y21.410
G1 X-40.075 Y21.140
G1 X-40.155 Y20.870
G1 X-40.215 Y20.650
G1 X-40.405 Y19.630
G1 X-40.425 Y19.440
G1 X-40.455 Y18.770
G1 X-40.455 Y-18.780
G1 X-40.425 Y-19.450
G1 X-40.405 Y-19.640
G1 X-40.215 Y-20.660
G1 X-40.155 Y-20.880
G1 X-40.075 Y-21.150
G1 X-39.975 Y-21.420
G1 X-39.875 Y-21.680
G1 X-39.765 Y-21.930
G1 X-39.635 Y-22.190
G1 X-39.535 Y-22.380
G1 X-39.425 Y-22.580
G1 X-39.305 Y-22.790
G1 X-39.175 Y-22.980
G1 X-39.035 Y-23.180
G1 X-38.895 Y-23.370
G1 X-38.745 Y-23.560
G1 X-38.673 Y-23.647
G1 X-38.575 Y-23.420 F12000.000
G1 X-38.385 Y-23.650 F540.000
G1 X-38.195 Y-23.860
G1 X-37.985 Y-24.070
G1 X-37.775 Y-24.260
G1 X-37.545 Y-24.450
G1 X-37.355 Y-24.600
G1 X-37.175 Y-24.740
G1 X-36.985 Y-24.870
G1 X-36.605 Y-25.110
G1 X-36.405 Y-25.220
G1 X-36.215 Y-25.320
G1 X-35.965 Y-25.440
G1 X-35.715 Y-25.550
G1 X-35.465 Y-25.650
G1 X-35.215 Y-25.740
G1 X-34.955 Y-25.820
G1 X-34.735 Y-25.880
G1 X-33.745 Y-26.060
G1 X-33.555 Y-26.080
G1 X-32.635 Y-26.110
G1 X-32.405 Y-26.100
G1 X-31.575 Y-26.010
G1 X27.515 Y-15.350
G1 X27.685 Y-15.320
G1 X28.165 Y-15.220
G1 X28.665 Y-15.090
G1 X29.135 Y-14.950
G1 X29.355 Y-14.880
G1 X29.975 Y-14.670
G1 X30.465 Y-14.480
G1 X31.225 Y-14.150
G1 X31.705 Y-13.920
G1 X32.425 Y-13.530
G1 X32.805 Y-13.300
G1 X33.355 Y-12.950
G1 X33.805 Y-12.640
G1 X34.455 Y-12.140
G1 X34.815 Y-11.840
G1 X35.305 Y-11.400
G1 X35.695 Y-11.010
G1 X36.255 Y-10.410
G1 X36.575 Y-10.040
G1 X37.085 Y-9.400
G1 X37.405 Y-8.960
G1 X37.855 Y-8.280
G1 X38.125 Y-7.850
G1 X38.455 Y-7.250
G1 X38.625 Y-6.910
G1 X38.895 Y-6.340
G1 X39.115 Y-5.800
G1 X39.395 Y-5.030
G1 X39.505 Y-4.700
G1 X39.695 Y-4.070
G1 X39.845 Y-3.500
G1 X40.005 Y-2.700
G1 X40.075 Y-2.230
G1 X40.155 Y-1.570
G1 X40.195 Y-1.050
G1 X40.225 Y-0.240
G1 X40.225 Y0.220
G1 X40.195 Y1.040
G1 X40.155 Y1.560
G1 X40.075 Y2.220
G1 X40.005 Y2.690
G1 X39.845 Y3.490
G1 X39.695 Y4.060
G1 X39.505 Y4.690
G1 X39.395 Y5.020
G1 X39.115 Y5.790
G1 X38.895 Y6.340
G1 X38.615 Y6.930
G1 X38.435 Y7.260
G1 X38.115 Y7.840
G1 X37.855 Y8.270
G1 X37.405 Y8.950
G1 X37.085 Y9.390
G1 X36.575 Y10.030
G1 X36.255 Y10.400
G1 X35.695 Y11.000
G1 X35.305 Y11.390
G1 X34.815 Y11.830
G1 X34.455 Y12.130
G1 X33.805 Y12.630
G1 X33.355 Y12.940
G1 X32.805 Y13.290
G1 X32.425 Y13.520
G1 X31.705 Y13.910
G1 X31.225 Y14.140
G1 X30.465 Y14.470
G1 X29.975 Y14.660
G1 X29.355 Y14.870
G1 X29.135 Y14.940
G1 X28.665 Y15.080
G1 X28.165 Y15.210
G1 X27.685 Y15.310
G1 X27.515 Y15.340
G1 X-31.585 Y26.000
G1 X-32.315 Y26.090
G1 X-32.485 Y26.100
G1 X-32.855 Y26.110
G1 X-32.905 Y26.110
G1 X-33.555 Y26.070
G1 X-33.745 Y26.050
G1 X-34.735 Y25.870
G1 X-34.955 Y25.810
G1 X-35.215 Y25.730
G1 X-35.465 Y25.640
G1 X-35.715 Y25.540
G1 X-35.965 Y25.430
G1 X-36.215 Y25.310
G1 X-36.405 Y25.210
G1 X-36.605 Y25.100
G1 X-36.985 Y24.860
G1 X-37.175 Y24.730
G1 X-37.355 Y24.590
G1 X-37.545 Y24.440
G1 X-37.775 Y24.250
G1 X-37.985 Y24.060
G1 X-38.195 Y23.850
G1 X-38.385 Y23.640
G1 X-38.575 Y23.410
G1 X-38.725 Y23.220
G1 X-38.865 Y23.040
G1 X-38.995 Y22.850
G1 X-39.235 Y22.470
G1 X-39.345 Y22.270
G1 X-39.445 Y22.080
G1 X-39.565 Y21.830
G1 X-39.675 Y21.580
G1 X-39.775 Y21.330
G1 X-39.865 Y21.080
G1 X-39.945 Y20.820
G1 X-40.005 Y20.600
G1 X-40.185 Y19.610
G1 X-40.205 Y19.420
G1 X-40.245 Y18.770
G1 X-40.245 Y-18.780
G1 X-40.205 Y-19.430
G1 X-40.185 Y-19.620
G1 X-40.005 Y-20.610
G1 X-39.945 Y-20.830
G1 X-39.865 Y-21.090
G1 X-39.775 Y-21.340
G1 X-39.675 Y-21.590
G1 X-39.565 Y-21.840
G1 X-39.445 Y-22.090
G1 X-39.345 Y-22.280
G1 X-39.235 Y-22.480
G1 X-38.995 Y-22.860
G1 X-38.876 Y-23.034
G1 F60000.000
G1 Z0.300 F12000.000
G1 X-26.806 Y-10.134
G1 Z0.000
G1 F60000.000
G1 X-26.787 Y-10.152 F540.000
G1 X-26.756 Y-10.178
G1 X-26.734 Y-10.196
G1 X-26.713 Y-10.212
G1 X-26.671 Y-10.243
G1 X-26.648 Y-10.258
G1 X-26.625 Y-10.273
G1 X-26.593 Y-10.293
G1 X-26.569 Y-10.307
G1 X-26.532 Y-10.328
G1 X-26.485 Y-10.353
G1 X-26.466 Y-10.362
G1 X-26.457 Y-10.366
G1 X-26.432 Y-10.378
G1 X-26.409 Y-10.388
G1 X-26.369 Y-10.405
G1 X-26.325 Y-10.422
G1 X-26.264 Y-10.443
G1 X-26.239 Y-10.451
G1 X-26.214 Y-10.458
G1 X-26.199 Y-10.462
G1 X-26.103 Y-10.491
G1 X-26.037 Y-10.501
G1 X-25.957 Y-10.519
G1 X-25.957 Y-10.519
G1 X-25.956 Y-10.519
G1 X-25.253 Y-10.563
G1 X-25.253 Y-10.494
G1 X-21.909 Y-10.092
G1 X-21.909 Y-10.465
G1 X-20.526 Y-9.679
G1 X-20.526 Y-9.679
G1 X-20.470 Y-9.647
G1 X-19.972 Y-9.373
G1 X-19.466 Y-9.105
G1 X-19.270 Y-9.005
G1 X-19.270 Y-9.005
G1 X-18.954 Y-8.843
G1 X-18.435 Y-8.586
G1 X-17.757 Y-8.264
G1 X-17.757 Y-8.267
G1 X-17.376 Y-8.092
G1 X-16.838 Y-7.855
G1 X-16.292 Y-7.623
G1 X-15.594 Y-7.338
G1 X-15.594 Y-7.340
G1 X-15.184 Y-7.179
G1 X-14.621 Y-6.967
G1 X-14.052 Y-6.761
G1 X-13.478 Y-6.562
G1 X-12.899 Y-6.370
G1 X-12.315 Y-6.184
G1 X-11.726 Y-6.005
G1 X-11.133 Y-5.833
G1 X-10.534 Y-5.667
G1 X-9.932 Y-5.509
G1 X-9.325 Y-5.358
G1 X-8.715 Y-5.214
G1 X-8.100 Y-5.077
G1 X-7.483 Y-4.948
G1 X-6.861 Y-4.825
G1 X-6.237 Y-4.709
G1 X-5.610 Y-4.601
G1 X-4.843 Y-4.478
G1 X-4.843 Y4.478
G1 X-5.610 Y4.601
G1 X-6.237 Y4.709
G1 X-6.861 Y4.825
G1 X-7.483 Y4.948
G1 X-8.100 Y5.077
G1 X-8.366 Y5.137
G1 X-8.366 Y5.136
G1 X-8.715 Y5.214
G1 X-8.984 Y5.278
G1 X-8.984 Y5.278
G1 X-9.325 Y5.358
G1 X-9.932 Y5.509
G1 X-10.534 Y5.667
G1 X-11.133 Y5.833
G1 X-11.590 Y5.965
G1 X-11.590 Y5.963
G1 X-12.315 Y6.184
G1 X-12.899 Y6.370
G1 X-13.478 Y6.562
G1 X-14.052 Y6.761
G1 X-14.621 Y6.967
G1 X-15.184 Y7.179
G1 X-15.741 Y7.398
G1 X-15.811 Y7.426
G1 X-15.811 Y7.426
G1 X-16.292 Y7.623
G1 X-16.838 Y7.855
G1 X-17.376 Y8.092
G1 X-17.757 Y8.267
G1 X-17.757 Y8.264
G1 X-18.435 Y8.586
G1 X-18.954 Y8.843
G1 X-19.466 Y9.105
G1 X-19.785 Y9.274
G1 X-19.785 Y9.274
G1 X-19.972 Y9.373
G1 X-20.470 Y9.647
G1 X-20.966 Y9.929
G1 X-20.967 Y9.930
G1 X-21.076 Y9.992
G1 X-25.253 Y10.494
G1 X-25.253 Y10.563
G1 X-25.843 Y10.526
G1 X-25.844 Y10.526
G1 X-25.920 Y10.521
G1 X-25.920 Y10.520
G1 X-26.022 Y10.503
G1 X-26.068 Y10.494
G1 X-26.095 Y10.489
G1 X-26.119 Y10.483
G1 X-26.133 Y10.479
G1 X-26.149 Y10.476
G1 X-26.182 Y10.467
G1 X-26.199 Y10.462
G1 X-26.214 Y10.458
G1 X-26.239 Y10.450
G1 X-26.264 Y10.443
G1 X-26.325 Y10.422
G1 X-26.369 Y10.405
G1 X-26.409 Y10.388
G1 X-26.432 Y10.378
G1 X-26.457 Y10.366
G1 X-26.466 Y10.362
G1 X-26.485 Y10.353
G1 X-26.532 Y10.328
G1 X-26.569 Y10.307
G1 X-26.593 Y10.293
G1 X-26.625 Y10.273
G1 X-26.648 Y10.258
G1 X-26.670 Y10.243
G1 X-26.713 Y10.212
G1 X-26.734 Y10.196
G1 X-26.756 Y10.178
G1 X-26.787 Y10.152
G1 X-26.807 Y10.134
G1 X-26.836 Y10.106
G1 X-26.861 Y10.081
G1 X-26.874 Y10.066
G1 X-26.886 Y10.054
G1 X-26.915 Y10.021
G1 X-26.948 Y9.980
G1 X-26.961 Y9.961
G1 X-26.974 Y9.944
G1 X-26.998 Y9.906
G1 X-27.013 Y9.884
G1 X-27.033 Y9.849
G1 X-27.048 Y9.821
G1 X-27.057 Y9.801
G1 X-27.067 Y9.782
G1 X-27.084 Y9.743
G1 X-27.097 Y9.711
G1 X-27.111 Y9.670
G1 X-27.118 Y9.648
G1 X-27.126 Y9.617
G1 X-27.137 Y9.572
G1 X-27.142 Y9.547
G1 X-27.146 Y9.523
G1 X-27.149 Y9.503
G1 X-27.152 Y9.480
G1 X-27.155 Y9.445
G1 X-27.157 Y9.398
G1 X-27.157 Y-9.398
G1 X-27.155 Y-9.445
G1 X-27.152 Y-9.480
G1 X-27.149 Y-9.503
G1 X-27.146 Y-9.523
G1 X-27.142 Y-9.547
G1 X-27.137 Y-9.572
G1 X-27.126 Y-9.617
G1 X-27.118 Y-9.648
G1 X-27.111 Y-9.670
G1 X-27.097 Y-9.711
G1 X-27.086 Y-9.737
G1 X-26.885 Y-9.659 F12000.000
G1 X-26.871 Y-9.691 F540.000
G1 X-26.863 Y-9.707
G1 X-26.855 Y-9.723
G1 X-26.844 Y-9.743
G1 X-26.827 Y-9.772
G1 X-26.817 Y-9.790
G1 X-26.797 Y-9.820
G1 X-26.786 Y-9.835
G1 X-26.775 Y-9.850
G1 X-26.749 Y-9.882
G1 X-26.725 Y-9.909
G1 X-26.715 Y-9.920
G1 X-26.704 Y-9.933
G1 X-26.686 Y-9.951
G1 X-26.660 Y-9.975
G1 X-26.645 Y-9.989
G1 X-26.618 Y-10.012
G1 X-26.601 Y-10.026
G1 X-26.584 Y-10.039
G1 X-26.545 Y-10.067
G1 X-26.527 Y-10.079
G1 X-26.509 Y-10.091
G1 X-26.480 Y-10.109
G1 X-26.461 Y-10.120
G1 X-26.429 Y-10.139
G1 X-26.390 Y-10.159
G1 X-26.373 Y-10.166
G1 X-26.363 Y-10.172
G1 X-26.342 Y-10.181
G1 X-26.323 Y-10.190
G1 X-26.288 Y-10.204
G1 X-26.250 Y-10.219
G1 X-26.197 Y-10.237
G1 X-26.176 Y-10.244
G1 X-26.155 Y-10.250
G1 X-26.140 Y-10.254
G1 X-26.056 Y-10.280
G1 X-25.997 Y-10.289
G1 X-25.925 Y-10.305
G1 X-25.703 Y-10.318
G1 X-25.703 Y-10.318
G1 X-25.469 Y-10.333
G1 X-25.469 Y-10.302
G1 X-21.692 Y-9.848
G1 X-21.692 Y-10.094
G1 X-20.575 Y-9.458
G1 X-20.074 Y-9.183
G1 X-19.569 Y-8.915
G1 X-19.569 Y-8.915
G1 X-19.566 Y-8.913
G1 X-19.054 Y-8.652
G1 X-19.054 Y-8.652
G1 X-19.051 Y-8.650
G1 X-18.529 Y-8.392
G1 X-18.001 Y-8.141
G1 X-17.465 Y-7.895
G1 X-16.923 Y-7.657
G1 X-16.375 Y-7.424
G1 X-15.821 Y-7.197
G1 X-15.261 Y-6.977
G1 X-14.696 Y-6.764
G1 X-14.125 Y-6.557
G1 X-13.548 Y-6.357
G1 X-12.966 Y-6.164
G1 X-12.380 Y-5.977
G1 X-11.788 Y-5.798
G1 X-11.191 Y-5.625
G1 X-10.591 Y-5.459
G1 X-9.854 Y-5.265
G1 X-9.854 Y-5.267
G1 X-9.376 Y-5.148
G1 X-8.763 Y-5.004
G1 X-8.146 Y-4.866
G1 X-7.397 Y-4.709
G1 X-7.397 Y-4.710
G1 X-6.902 Y-4.612
G1 X-6.275 Y-4.496
G1 X-5.645 Y-4.388
G1 X-5.059 Y-4.294
G1 X-5.059 Y4.294
G1 X-5.645 Y4.388
G1 X-6.275 Y4.496
G1 X-6.902 Y4.612
G1 X-7.526 Y4.736
G1 X-8.146 Y4.866
G1 X-8.150 Y4.867
G1 X-8.150 Y4.867
G1 X-8.763 Y5.004
G1 X-8.767 Y5.005
G1 X-8.767 Y5.005
G1 X-9.376 Y5.148
G1 X-9.986 Y5.300
G1 X-10.591 Y5.459
G1 X-11.191 Y5.625
G1 X-11.788 Y5.798
G1 X-12.380 Y5.977
G1 X-12.966 Y6.164
G1 X-13.044 Y6.190
G1 X-13.044 Y6.190
G1 X-13.548 Y6.357
G1 X-14.124 Y6.557
G1 X-14.128 Y6.559
G1 X-14.128 Y6.559
G1 X-14.696 Y6.764
G1 X-15.261 Y6.978
G1 X-15.821 Y7.197
G1 X-16.375 Y7.424
G1 X-16.923 Y7.657
G1 X-17.465 Y7.895
G1 X-18.001 Y8.141
G1 X-18.529 Y8.392
G1 X-19.051 Y8.650
G1 X-19.566 Y8.913
G1 X-19.569 Y8.915
G1 X-19.569 Y8.915
G1 X-20.074 Y9.183
G1 X-20.575 Y9.458
G1 X-21.072 Y9.741
G1 X-21.072 Y9.741
G1 X-21.145 Y9.782
G1 X-25.469 Y10.302
G1 X-25.469 Y10.333
G1 X-25.703 Y10.318
G1 X-25.703 Y10.318
G1 X-25.826 Y10.311
G1 X-25.850 Y10.309
G1 X-25.887 Y10.304
G1 X-25.927 Y10.299
G1 X-25.947 Y10.296
G1 X-25.963 Y10.294
G1 X-25.985 Y10.290
G1 X-26.025 Y10.283
G1 X-26.047 Y10.278
G1 X-26.068 Y10.273
G1 X-26.082 Y10.269
G1 X-26.098 Y10.266
G1 X-26.124 Y10.259
G1 X-26.140 Y10.254
G1 X-26.155 Y10.250
G1 X-26.176 Y10.244
G1 X-26.197 Y10.237
G1 X-26.250 Y10.219
G1 X-26.288 Y10.204
G1 X-26.323 Y10.190
G1 X-26.342 Y10.181
G1 X-26.363 Y10.172
G1 X-26.373 Y10.166
G1 X-26.390 Y10.159
G1 X-26.429 Y10.139
G1 X-26.461 Y10.121
G1 X-26.480 Y10.109
G1 X-26.509 Y10.091
G1 X-26.527 Y10.079
G1 X-26.545 Y10.067
G1 X-26.584 Y10.039
G1 X-26.601 Y10.026
G1 X-26.618 Y10.012
G1 X-26.645 Y9.989
G1 X-26.660 Y9.975
G1 X-26.685 Y9.951
G1 X-26.704 Y9.933
G1 X-26.715 Y9.920
G1 X-26.725 Y9.909
G1 X-26.749 Y9.882
G1 X-26.775 Y9.850
G1 X-26.786 Y9.834
G1 X-26.797 Y9.820
G1 X-26.817 Y9.790
G1 X-26.827 Y9.772
G1 X-26.844 Y9.743
G1 X-26.855 Y9.723
G1 X-26.863 Y9.707
G1 X-26.871 Y9.691
G1 X-26.885 Y9.659
G1 X-26.894 Y9.636
G1 X-26.905 Y9.603
G1 X-26.911 Y9.585
G1 X-26.917 Y9.563
G1 X-26.925 Y9.527
G1 X-26.929 Y9.508
G1 X-26.932 Y9.489
G1 X-26.935 Y9.473
G1 X-26.937 Y9.455
G1 X-26.939 Y9.430
G1 X-26.941 Y9.393
G1 X-26.941 Y-9.177
G1 X-26.725 Y-9.388 F12000.000
G1 X-26.724 Y-9.415 F540.000
G1 X-26.722 Y-9.430
G1 X-26.721 Y-9.443
G1 X-26.719 Y-9.456
G1 X-26.716 Y-9.469
G1 X-26.714 Y-9.483
G1 X-26.708 Y-9.509
G1 X-26.704 Y-9.523
G1 X-26.700 Y-9.536
G1 X-26.691 Y-9.561
G1 X-26.685 Y-9.576
G1 X-26.675 Y-9.600
G1 X-26.669 Y-9.612
G1 X-26.663 Y-9.624
G1 X-26.656 Y-9.637
G1 X-26.642 Y-9.661
G1 X-26.635 Y-9.673
G1 X-26.620 Y-9.696
G1 X-26.611 Y-9.708
G1 X-26.603 Y-9.719
G1 X-26.584 Y-9.742
G1 X-26.565 Y-9.764
G1 X-26.556 Y-9.774
G1 X-26.547 Y-9.784
G1 X-26.535 Y-9.796
G1 X-26.514 Y-9.816
G1 X-26.502 Y-9.826
G1 X-26.480 Y-9.845
G1 X-26.467 Y-9.856
G1 X-26.455 Y-9.865
G1 X-26.420 Y-9.890
G1 X-26.406 Y-9.900
G1 X-26.393 Y-9.909
G1 X-26.367 Y-9.925
G1 X-26.353 Y-9.934
G1 X-26.325 Y-9.949
G1 X-26.296 Y-9.964
G1 X-26.281 Y-9.971
G1 X-26.269 Y-9.977
G1 X-26.253 Y-9.985
G1 X-26.238 Y-9.991
G1 X-26.208 Y-10.004
G1 X-26.176 Y-10.016
G1 X-26.130 Y-10.032
G1 X-26.113 Y-10.037
G1 X-26.096 Y-10.042
G1 X-26.081 Y-10.046
G1 X-26.008 Y-10.068
G1 X-25.956 Y-10.076
G1 X-25.895 Y-10.090
G1 X-25.791 Y-10.096
G1 X-25.776 Y-10.097
G1 X-25.686 Y-10.103
G1 X-25.686 Y-10.102
G1 X-25.565 Y-10.095
G1 X-25.547 Y-10.094
G1 X-25.513 Y-10.090
G1 X-21.476 Y-9.604
G1 X-21.476 Y-9.722
G1 X-20.681 Y-9.270
G1 X-20.233 Y-9.023
G1 X-20.233 Y-9.023
G1 X-20.177 Y-8.992
G1 X-19.666 Y-8.722
G1 X-19.148 Y-8.457
G1 X-18.623 Y-8.197
G1 X-18.092 Y-7.945
G1 X-17.558 Y-7.700
G1 X-17.558 Y-7.700
G1 X-17.554 Y-7.698
G1 X-17.009 Y-7.458
G1 X-16.458 Y-7.224
G1 X-15.902 Y-6.997
G1 X-15.339 Y-6.776
G1 X-14.771 Y-6.561
G1 X-14.197 Y-6.354
G1 X-13.617 Y-6.153
G1 X-13.033 Y-5.959
G1 X-12.444 Y-5.771
G1 X-11.850 Y-5.590
G1 X-11.128 Y-5.381
G1 X-11.128 Y-5.383
G1 X-10.647 Y-5.250
G1 X-10.039 Y-5.090
G1 X-9.308 Y-4.909
G1 X-9.308 Y-4.910
G1 X-8.694 Y-4.765
G1 X-8.694 Y-4.767
G1 X-8.192 Y-4.655
G1 X-7.569 Y-4.524
G1 X-6.943 Y-4.400
G1 X-6.313 Y-4.283
G1 X-5.569 Y-4.156
G1 X-5.569 Y-4.157
