; generated by Slic3r 0.9.4-dev on 2013-01-29 at 19:43:50

; layer_height = 0.4
; perimeters = 3
; top_solid_layers = 3
; bottom_solid_layers = 3
; fill_density = 0.4
; perimeter_speed = 30
; infill_speed = 60
; travel_speed = 400
; scale = 1
; nozzle_diameter = 0.5
; filament_diameter = 1.75
; extrusion_multiplier = 1
; single wall width = 0.53mm
; first layer single wall width = 0.80mm

G28 ; home all axes
G1 Z10 F25000
G1 Z5 F2000
G90 ; use absolute coordinates
G21 ; set units to millimeters
G1 F1800.000
G1 X-38.385 Y-24.030 F24000.000
G1 F1800.000
G1 X-38.155 Y-24.260 F540.000
G1 X-37.915 Y-24.480
G1 X-37.665 Y-24.680
G1 X-37.525 Y-24.790
G1 X-37.275 Y-24.980
G1 X-37.025 Y-25.150
G1 X-36.485 Y-25.470
G1 X-36.205 Y-25.600
G1 X-36.055 Y-25.670
G1 X-35.335 Y-25.960
G1 X-35.185 Y-26.010
G1 X-34.855 Y-26.110
G1 X-34.515 Y-26.200
G1 X-34.185 Y-26.260
G1 X-33.835 Y-26.310
G1 X-33.495 Y-26.340
G1 X-33.345 Y-26.350
G1 X-32.475 Y-26.350
G1 X-32.315 Y-26.340
G1 X-31.535 Y-26.250
G1 X27.375 Y-15.640
G1 X27.765 Y-15.560
G1 X28.715 Y-15.330
G1 X29.235 Y-15.180
G1 X29.995 Y-14.930
G1 X30.565 Y-14.720
G1 X31.145 Y-14.470
G1 X31.535 Y-14.280
G1 X32.105 Y-13.990
G1 X32.565 Y-13.730
G1 X33.235 Y-13.320
G1 X33.715 Y-13.000
G1 X34.355 Y-12.530
G1 X34.805 Y-12.170
G1 X35.285 Y-11.750
G1 X35.655 Y-11.400
G1 X36.215 Y-10.830
G1 X36.615 Y-10.380
G1 X37.115 Y-9.770
G1 X37.395 Y-9.400
G1 X37.765 Y-8.880
G1 X38.085 Y-8.390
G1 X38.485 Y-7.710
G1 X38.775 Y-7.170
G1 X39.115 Y-6.450
G1 X39.315 Y-5.970
G1 X39.605 Y-5.210
G1 X39.825 Y-4.540
G1 X40.025 Y-3.790
G1 X40.125 Y-3.340
G1 X40.245 Y-2.720
G1 X40.315 Y-2.280
G1 X40.395 Y-1.650
G1 X40.445 Y-1.060
G1 X40.475 Y-0.270
G1 X40.475 Y0.240
G1 X40.445 Y1.040
G1 X40.395 Y1.640
G1 X40.315 Y2.270
G1 X40.245 Y2.710
G1 X40.125 Y3.330
G1 X40.025 Y3.780
G1 X39.825 Y4.530
G1 X39.605 Y5.200
G1 X39.315 Y5.960
G1 X39.115 Y6.440
G1 X38.775 Y7.160
G1 X38.485 Y7.700
G1 X38.085 Y8.380
G1 X37.765 Y8.870
G1 X37.395 Y9.390
G1 X37.115 Y9.760
G1 X36.615 Y10.370
G1 X36.215 Y10.820
G1 X35.655 Y11.390
G1 X35.285 Y11.740
G1 X34.805 Y12.160
G1 X34.355 Y12.520
G1 X33.715 Y12.990
G1 X33.235 Y13.310
G1 X32.565 Y13.720
G1 X32.105 Y13.980
G1 X31.535 Y14.270
G1 X31.145 Y14.460
G1 X30.565 Y14.710
G1 X29.995 Y14.920
G1 X29.235 Y15.170
G1 X28.715 Y15.320
G1 X27.765 Y15.550
G1 X27.375 Y15.630
G1 X-31.535 Y26.240
G1 X-32.215 Y26.330
G1 X-32.345 Y26.340
G1 X-32.865 Y26.360
G1 X-32.895 Y26.360
G1 X-33.345 Y26.340
G1 X-33.495 Y26.330
G1 X-33.835 Y26.300
G1 X-34.185 Y26.250
G1 X-34.515 Y26.190
G1 X-34.855 Y26.100
G1 X-35.185 Y26.000
G1 X-35.335 Y25.950
G1 X-36.055 Y25.660
G1 X-36.205 Y25.590
G1 X-36.485 Y25.460
G1 X-37.025 Y25.140
G1 X-37.275 Y24.970
G1 X-37.525 Y24.780
G1 X-37.665 Y24.670
G1 X-37.915 Y24.470
G1 X-38.155 Y24.250
G1 X-38.385 Y24.020
G1 X-38.605 Y23.780
G1 X-38.805 Y23.530
G1 X-38.915 Y23.390
G1 X-39.105 Y23.140
G1 X-39.275 Y22.890
G1 X-39.595 Y22.350
G1 X-39.725 Y22.070
G1 X-39.795 Y21.920
G1 X-40.085 Y21.200
G1 X-40.135 Y21.050
G1 X-40.235 Y20.720
G1 X-40.325 Y20.380
G1 X-40.385 Y20.050
G1 X-40.435 Y19.700
G1 X-40.465 Y19.360
G1 X-40.475 Y19.210
G1 X-40.495 Y18.760
G1 X-40.495 Y-18.770
G1 X-40.475 Y-19.220
G1 X-40.465 Y-19.370
G1 X-40.435 Y-19.710
G1 X-40.385 Y-20.060
G1 X-40.325 Y-20.390
G1 X-40.235 Y-20.730
G1 X-40.135 Y-21.060
G1 X-40.085 Y-21.210
G1 X-39.795 Y-21.930
G1 X-39.725 Y-22.080
G1 X-39.595 Y-22.360
G1 X-39.275 Y-22.900
G1 X-39.105 Y-23.150
G1 X-38.915 Y-23.400
G1 X-38.805 Y-23.540
G1 X-38.730 Y-23.634
G1 F1800.000
G1 Z5.400 F24000.000
G1 X20.928 Y-1.350
G1 F1800.000
G1 X20.973 Y-1.468 F540.000
G1 X21.003 Y-1.541
G1 X21.032 Y-1.606
G1 X21.059 Y-1.666
G1 X21.085 Y-1.720
G1 X21.114 Y-1.779
G1 X21.153 Y-1.854
G1 X21.212 Y-1.959
G1 X21.251 Y-2.026
G1 X21.285 Y-2.082
G1 X21.324 Y-2.144
G1 X21.365 Y-2.205
G1 X21.402 Y-2.259
G1 X21.440 Y-2.312
G1 X21.479 Y-2.365
G1 X21.524 Y-2.424
G1 X21.570 Y-2.481
G1 X21.612 Y-2.532
G1 X21.647 Y-2.573
G1 X21.702 Y-2.637
G1 X21.797 Y-2.737
G1 X21.888 Y-2.828
G1 X21.988 Y-2.923
G1 X22.052 Y-2.978
G1 X22.093 Y-3.013
G1 X22.144 Y-3.055
G1 X22.201 Y-3.101
G1 X22.260 Y-3.146
G1 X22.313 Y-3.185
G1 X22.366 Y-3.223
G1 X22.420 Y-3.260
G1 X22.481 Y-3.301
G1 X22.543 Y-3.340
G1 X22.599 Y-3.374
G1 X22.666 Y-3.413
G1 X22.771 Y-3.472
G1 X22.846 Y-3.511
G1 X22.905 Y-3.540
G1 X22.959 Y-3.566
G1 X23.019 Y-3.593
G1 X23.084 Y-3.622
G1 X23.157 Y-3.652
G1 X23.275 Y-3.697
G1 X23.349 Y-3.723
G1 X23.411 Y-3.744
G1 X23.470 Y-3.762
G1 X23.532 Y-3.781
G1 X23.609 Y-3.802
G1 X23.681 Y-3.821
G1 X23.795 Y-3.848
G1 X23.883 Y-3.865
G1 X23.943 Y-3.876
G1 X24.007 Y-3.887
G1 X24.084 Y-3.898
G1 X24.147 Y-3.906
G1 X24.207 Y-3.913
G1 X24.284 Y-3.921
G1 X24.409 Y-3.930
G1 X24.499 Y-3.934
G1 X24.625 Y-3.936
G1 X24.751 Y-3.934
G1 X24.841 Y-3.930
G1 X24.966 Y-3.921
G1 X25.043 Y-3.913
G1 X25.103 Y-3.906
G1 X25.166 Y-3.898
G1 X25.243 Y-3.887
G1 X25.306 Y-3.876
G1 X25.367 Y-3.865
G1 X25.455 Y-3.848
G1 X25.569 Y-3.821
G1 X25.641 Y-3.802
G1 X25.718 Y-3.781
G1 X25.780 Y-3.762
G1 X25.839 Y-3.744
G1 X25.901 Y-3.723
G1 X25.975 Y-3.697
G1 X26.093 Y-3.652
G1 X26.166 Y-3.622
G1 X26.231 Y-3.593
G1 X26.291 Y-3.566
G1 X26.345 Y-3.540
G1 X26.404 Y-3.511
G1 X26.479 Y-3.472
G1 X26.584 Y-3.413
G1 X26.651 Y-3.374
G1 X26.707 Y-3.340
G1 X26.769 Y-3.301
G1 X26.830 Y-3.260
G1 X26.884 Y-3.223
G1 X26.937 Y-3.185
G1 X26.990 Y-3.146
G1 X27.049 Y-3.101
G1 X27.106 Y-3.055
G1 X27.157 Y-3.013
G1 X27.198 Y-2.978
G1 X27.262 Y-2.923
G1 X27.362 Y-2.828
G1 X27.453 Y-2.737
G1 X27.548 Y-2.637
G1 X27.603 Y-2.573
G1 X27.638 Y-2.532
G1 X27.680 Y-2.481
G1 X27.726 Y-2.424
G1 X27.771 Y-2.365
G1 X27.810 Y-2.312
G1 X27.848 Y-2.259
G1 X27.885 Y-2.205
G1 X27.926 Y-2.144
G1 X27.965 Y-2.082
G1 X27.999 Y-2.026
G1 X28.038 Y-1.959
G1 X28.097 Y-1.854
G1 X28.136 Y-1.779
G1 X28.165 Y-1.720
G1 X28.191 Y-1.666
G1 X28.218 Y-1.606
G1 X28.247 Y-1.541
G1 X28.277 Y-1.468
G1 X28.322 Y-1.350
G1 X28.348 Y-1.276
G1 X28.369 Y-1.214
G1 X28.387 Y-1.155
G1 X28.406 Y-1.093
G1 X28.427 Y-1.016
G1 X28.446 Y-0.944
G1 X28.473 Y-0.830
G1 X28.490 Y-0.742
G1 X28.501 Y-0.681
G1 X28.512 Y-0.618
G1 X28.523 Y-0.541
G1 X28.531 Y-0.478
G1 X28.538 Y-0.418
G1 X28.546 Y-0.341
G1 X28.555 Y-0.216
G1 X28.559 Y-0.126
G1 X28.561 Y0.000
G1 X28.559 Y0.126
G1 X28.555 Y0.216
G1 X28.546 Y0.341
G1 X28.538 Y0.418
G1 X28.531 Y0.478
G1 X28.523 Y0.541
G1 X28.512 Y0.618
G1 X28.501 Y0.681
G1 X28.490 Y0.742
G1 X28.473 Y0.830
G1 X28.446 Y0.944
G1 X28.427 Y1.016
G1 X28.406 Y1.093
G1 X28.387 Y1.155
G1 X28.369 Y1.214
G1 X28.348 Y1.276
G1 X28.322 Y1.350
G1 X28.277 Y1.468
G1 X28.247 Y1.541
G1 X28.218 Y1.606
G1 X28.191 Y1.666
G1 X28.165 Y1.720
G1 X28.136 Y1.779
G1 X28.097 Y1.854
G1 X28.038 Y1.959
G1 X27.999 Y2.026
G1 X27.965 Y2.082
G1 X27.926 Y2.144
G1 X27.885 Y2.205
G1 X27.848 Y2.259
G1 X27.810 Y2.312
G1 X27.771 Y2.365
G1 X27.726 Y2.424
G1 X27.680 Y2.481
G1 X27.638 Y2.531
G1 X27.603 Y2.573
G1 X27.548 Y2.637
G1 X27.453 Y2.737
G1 X27.362 Y2.828
G1 X27.262 Y2.923
G1 X27.198 Y2.978
G1 X27.157 Y3.013
G1 X27.106 Y3.055
G1 X27.049 Y3.101
G1 X26.990 Y3.146
G1 X26.937 Y3.185
G1 X26.884 Y3.223
G1 X26.830 Y3.260
G1 X26.769 Y3.301
G1 X26.707 Y3.340
G1 X26.651 Y3.374
G1 X26.584 Y3.414
G1 X26.479 Y3.472
G1 X26.404 Y3.511
G1 X26.345 Y3.540
G1 X26.291 Y3.565
G1 X26.231 Y3.593
G1 X26.166 Y3.622
G1 X26.093 Y3.652
G1 X25.975 Y3.697
G1 X25.901 Y3.723
G1 X25.839 Y3.744
G1 X25.780 Y3.762
G1 X25.718 Y3.781
G1 X25.641 Y3.802
G1 X25.569 Y3.821
G1 X25.455 Y3.848
G1 X25.367 Y3.865
G1 X25.306 Y3.876
G1 X25.243 Y3.887
G1 X25.166 Y3.898
G1 X25.103 Y3.906
G1 X25.043 Y3.913
G1 X24.966 Y3.921
G1 X24.841 Y3.930
G1 X24.751 Y3.934
G1 X24.625 Y3.936
G1 X24.499 Y3.934
G1 X24.409 Y3.930
G1 X24.284 Y3.921
G1 X24.207 Y3.913
G1 X24.147 Y3.906
G1 X24.084 Y3.898
G1 X24.007 Y3.887
G1 X23.944 Y3.876
G1 X23.883 Y3.865
G1 X23.795 Y3.848
G1 X23.681 Y3.821
G1 X23.609 Y3.802
G1 X23.532 Y3.781
G1 X23.470 Y3.762
G1 X23.411 Y3.744
G1 X23.349 Y3.723
G1 X23.275 Y3.697
G1 X23.157 Y3.652
G1 X23.084 Y3.622
G1 X23.019 Y3.593
G1 X22.959 Y3.565
G1 X22.905 Y3.540
G1 X22.846 Y3.511
G1 X22.771 Y3.472
G1 X22.666 Y3.414
G1 X22.599 Y3.374
G1 X22.543 Y3.340
G1 X22.481 Y3.301
G1 X22.420 Y3.260
G1 X22.366 Y3.223
G1 X22.313 Y3.185
G1 X22.260 Y3.146
G1 X22.201 Y3.101
G1 X22.144 Y3.055
G1 X22.093 Y3.013
G1 X22.052 Y2.978
G1 X21.988 Y2.923
G1 X21.888 Y2.828
G1 X21.797 Y2.737
G1 X21.702 Y2.637
G1 X21.647 Y2.573
G1 X21.612 Y2.531
G1 X21.570 Y2.481
G1 X21.524 Y2.424
G1 X21.479 Y2.365
G1 X21.440 Y2.312
G1 X21.402 Y2.259
G1 X21.365 Y2.205
G1 X21.324 Y2.144
G1 X21.285 Y2.082
G1 X21.251 Y2.026
G1 X21.212 Y1.959
G1 X21.153 Y1.854
G1 X21.114 Y1.779
G1 X21.085 Y1.720
G1 X21.059 Y1.666
G1 X21.032 Y1.606
G1 X21.003 Y1.541
G1 X20.973 Y1.468
G1 X20.928 Y1.350
G1 X20.902 Y1.276
G1 X20.881 Y1.214
G1 X20.863 Y1.155
G1 X20.844 Y1.093
G1 X20.823 Y1.016
G1 X20.804 Y0.944
G1 X20.777 Y0.830
G1 X20.760 Y0.742
G1 X20.749 Y0.681
G1 X20.738 Y0.618
G1 X20.727 Y0.541
G1 X20.719 Y0.478
G1 X20.712 Y0.418
G1 X20.704 Y0.341
G1 X20.695 Y0.216
G1 X20.691 Y0.126
G1 X20.689 Y0.000
G1 X20.691 Y-0.126
G1 X20.695 Y-0.216
G1 X20.704 Y-0.341
G1 X20.712 Y-0.418
G1 X20.719 Y-0.478
G1 X20.727 Y-0.541
G1 X20.738 Y-0.618
G1 X20.749 Y-0.681
G1 X20.760 Y-0.742
G1 X20.777 Y-0.830
G1 X20.781 Y-0.846
G1 X21.528 Y-0.666 F24000.000
G1 X21.550 Y-0.761 F540.000
G1 X21.565 Y-0.818
G1 X21.581 Y-0.878
G1 X21.596 Y-0.928
G1 X21.612 Y-0.977
G1 X21.629 Y-1.028
G1 X21.649 Y-1.086
G1 X21.686 Y-1.183
G1 X21.710 Y-1.240
G1 X21.733 Y-1.292
G1 X21.755 Y-1.340
G1 X21.776 Y-1.385
G1 X21.800 Y-1.434
G1 X21.830 Y-1.491
G1 X21.879 Y-1.579
G1 X21.909 Y-1.631
G1 X21.937 Y-1.677
G1 X21.968 Y-1.726
G1 X22.001 Y-1.774
G1 X22.030 Y-1.818
G1 X22.062 Y-1.861
G1 X22.093 Y-1.904
G1 X22.129 Y-1.951
G1 X22.165 Y-1.996
G1 X22.199 Y-2.037
G1 X22.229 Y-2.073
G1 X22.272 Y-2.122
G1 X22.348 Y-2.203
G1 X22.422 Y-2.277
G1 X22.503 Y-2.353
G1 X22.552 Y-2.396
G1 X22.588 Y-2.426
G1 X22.629 Y-2.460
G1 X22.674 Y-2.496
G1 X22.721 Y-2.532
G1 X22.764 Y-2.563
G1 X22.807 Y-2.595
G1 X22.851 Y-2.625
G1 X22.899 Y-2.657
G1 X22.948 Y-2.688
G1 X22.994 Y-2.716
G1 X23.046 Y-2.746
G1 X23.134 Y-2.795
G1 X23.191 Y-2.825
G1 X23.240 Y-2.849
G1 X23.285 Y-2.870
G1 X23.333 Y-2.892
G1 X23.385 Y-2.915
G1 X23.442 Y-2.939
G1 X23.539 Y-2.976
G1 X23.597 Y-2.996
G1 X23.648 Y-3.013
G1 X23.697 Y-3.029
G1 X23.747 Y-3.044
G1 X23.807 Y-3.060
G1 X23.864 Y-3.075
G1 X23.959 Y-3.097
G1 X24.026 Y-3.111
G1 X24.076 Y-3.120
G1 X24.128 Y-3.129
G1 X24.188 Y-3.138
G1 X24.240 Y-3.144
G1 X24.290 Y-3.150
G1 X24.350 Y-3.156
G1 X24.454 Y-3.163
G1 X24.521 Y-3.166
G1 X24.625 Y-3.168
G1 X24.729 Y-3.166
G1 X24.796 Y-3.163
G1 X24.900 Y-3.156
G1 X24.960 Y-3.150
G1 X25.010 Y-3.144
G1 X25.062 Y-3.138
G1 X25.122 Y-3.129
G1 X25.174 Y-3.120
G1 X25.224 Y-3.111
G1 X25.291 Y-3.097
G1 X25.386 Y-3.075
G1 X25.443 Y-3.060
G1 X25.503 Y-3.044
G1 X25.553 Y-3.029
G1 X25.602 Y-3.013
G1 X25.653 Y-2.996
G1 X25.711 Y-2.976
G1 X25.808 Y-2.939
G1 X25.865 Y-2.915
G1 X25.917 Y-2.892
G1 X25.965 Y-2.870
G1 X26.010 Y-2.849
G1 X26.059 Y-2.825
G1 X26.116 Y-2.795
G1 X26.204 Y-2.746
G1 X26.256 Y-2.716
G1 X26.302 Y-2.688
G1 X26.351 Y-2.657
G1 X26.399 Y-2.625
G1 X26.443 Y-2.595
G1 X26.486 Y-2.563
G1 X26.529 Y-2.532
G1 X26.576 Y-2.496
G1 X26.621 Y-2.460
G1 X26.662 Y-2.426
G1 X26.698 Y-2.396
G1 X26.747 Y-2.353
G1 X26.828 Y-2.277
G1 X26.902 Y-2.203
G1 X26.978 Y-2.122
G1 X27.021 Y-2.073
G1 X27.051 Y-2.037
G1 X27.085 Y-1.996
G1 X27.121 Y-1.951
G1 X27.157 Y-1.904
G1 X27.188 Y-1.861
G1 X27.220 Y-1.818
G1 X27.249 Y-1.774
G1 X27.282 Y-1.726
G1 X27.313 Y-1.677
G1 X27.341 Y-1.631
G1 X27.371 Y-1.579
G1 X27.420 Y-1.491
G1 X27.450 Y-1.434
G1 X27.474 Y-1.385
G1 X27.495 Y-1.340
G1 X27.517 Y-1.292
G1 X27.540 Y-1.240
G1 X27.564 Y-1.183
G1 X27.601 Y-1.086
G1 X27.621 Y-1.028
G1 X27.638 Y-0.977
G1 X27.654 Y-0.928
G1 X27.669 Y-0.878
G1 X27.685 Y-0.818
G1 X27.700 Y-0.761
G1 X27.722 Y-0.666
G1 X27.736 Y-0.599
G1 X27.745 Y-0.549
G1 X27.754 Y-0.497
G1 X27.763 Y-0.437
G1 X27.769 Y-0.385
G1 X27.775 Y-0.335
G1 X27.781 Y-0.275
G1 X27.788 Y-0.171
G1 X27.791 Y-0.104
G1 X27.793 Y0.000
G1 X27.791 Y0.104
G1 X27.788 Y0.171
G1 X27.781 Y0.275
G1 X27.775 Y0.335
G1 X27.769 Y0.385
G1 X27.763 Y0.437
G1 X27.754 Y0.497
G1 X27.745 Y0.549
G1 X27.736 Y0.599
G1 X27.722 Y0.666
G1 X27.700 Y0.761
G1 X27.685 Y0.818
G1 X27.669 Y0.878
G1 X27.654 Y0.928
G1 X27.638 Y0.977
G1 X27.621 Y1.028
G1 X27.601 Y1.086
G1 X27.564 Y1.183
G1 X27.540 Y1.240
G1 X27.517 Y1.292
G1 X27.495 Y1.340
G1 X27.474 Y1.385
G1 X27.450 Y1.434
G1 X27.420 Y1.491
G1 X27.371 Y1.579
G1 X27.341 Y1.631
G1 X27.313 Y1.677
G1 X27.282 Y1.726
G1 X27.249 Y1.774
G1 X27.220 Y1.818
G1 X27.188 Y1.861
G1 X27.157 Y1.904
G1 X27.121 Y1.951
G1 X27.085 Y1.996
G1 X27.051 Y2.037
G1 X27.021 Y2.073
G1 X26.978 Y2.122
G1 X26.902 Y2.203
G1 X26.828 Y2.277
G1 X26.747 Y2.353
G1 X26.698 Y2.396
G1 X26.662 Y2.426
G1 X26.621 Y2.460
G1 X26.576 Y2.496
G1 X26.529 Y2.532
G1 X26.486 Y2.563
G1 X26.443 Y2.595
G1 X26.399 Y2.625
G1 X26.351 Y2.657
G1 X26.302 Y2.688
G1 X26.256 Y2.716
G1 X26.204 Y2.746
G1 X26.116 Y2.795
G1 X26.059 Y2.825
G1 X26.010 Y2.849
G1 X25.965 Y2.870
G1 X25.917 Y2.892
G1 X25.865 Y2.915
G1 X25.808 Y2.939
G1 X25.711 Y2.976
G1 X25.653 Y2.996
G1 X25.602 Y3.013
G1 X25.553 Y3.029
G1 X25.503 Y3.044
G1 X25.443 Y3.060
G1 X25.386 Y3.075
G1 X25.291 Y3.097
G1 X25.224 Y3.111
G1 X25.174 Y3.120
G1 X25.122 Y3.129
G1 X25.062 Y3.138
G1 X25.010 Y3.144
G1 X24.960 Y3.150
G1 X24.900 Y3.156
G1 X24.796 Y3.163
G1 X24.729 Y3.166
G1 X24.625 Y3.168
G1 X24.521 Y3.166
G1 X24.454 Y3.163
G1 X24.350 Y3.156
G1 X24.290 Y3.150
G1 X24.240 Y3.144
G1 X24.188 Y3.138
G1 X24.128 Y3.129
G1 X24.076 Y3.120
G1 X24.026 Y3.111
G1 X23.959 Y3.097
G1 X23.864 Y3.075
G1 X23.807 Y3.060
G1 X23.747 Y3.044
G1 X23.697 Y3.029
G1 X23.648 Y3.013
G1 X23.597 Y2.996
G1 X23.539 Y2.976
G1 X23.442 Y2.939
G1 X23.385 Y2.915
G1 X23.333 Y2.892
G1 X23.285 Y2.870
G1 X23.240 Y2.849
G1 X23.191 Y2.825
G1 X23.134 Y2.795
G1 X23.046 Y2.746
G1 X22.994 Y2.716
G1 X22.948 Y2.688
G1 X22.899 Y2.657
G1 X22.851 Y2.624
G1 X22.807 Y2.595
G1 X22.764 Y2.563
G1 X22.721 Y2.532
G1 X22.674 Y2.496
G1 X22.629 Y2.460
G1 X22.588 Y2.426
G1 X22.552 Y2.396
G1 X22.503 Y2.353
G1 X22.422 Y2.277
G1 X22.348 Y2.203
G1 X22.272 Y2.122
G1 X22.229 Y2.073
G1 X22.199 Y2.037
G1 X22.165 Y1.996
G1 X22.129 Y1.951
G1 X22.093 Y1.904
G1 X22.062 Y1.861
G1 X22.030 Y1.818
G1 X22.001 Y1.774
G1 X21.968 Y1.726
G1 X21.937 Y1.677
G1 X21.909 Y1.631
G1 X21.879 Y1.579
G1 X21.830 Y1.491
G1 X21.800 Y1.434
G1 X21.776 Y1.385
G1 X21.755 Y1.340
G1 X21.733 Y1.292
G1 X21.710 Y1.240
G1 X21.686 Y1.183
G1 X21.649 Y1.086
G1 X21.629 Y1.028
G1 X21.612 Y0.977
G1 X21.596 Y0.928
G1 X21.581 Y0.878
G1 X21.565 Y0.818
G1 X21.550 Y0.761
G1 X21.528 Y0.666
G1 X21.514 Y0.599
G1 X21.505 Y0.549
G1 X21.496 Y0.497
G1 X21.487 Y0.437
G1 X21.481 Y0.385
G1 X21.475 Y0.335
G1 X21.469 Y0.275
G1 X21.462 Y0.171
G1 X21.459 Y0.104
G1 X21.457 Y0.000
G1 X21.459 Y-0.104
G1 X21.460 Y-0.146
G1 X22.228 Y-0.127 F24000.000
G1 X22.234 Y-0.209 F540.000
G1 X22.238 Y-0.252
G1 X22.243 Y-0.292
G1 X22.248 Y-0.333
G1 X22.254 Y-0.376
G1 X22.261 Y-0.416
G1 X22.268 Y-0.456
G1 X22.278 Y-0.502
G1 X22.296 Y-0.579
G1 X22.306 Y-0.621
G1 X22.318 Y-0.663
G1 X22.330 Y-0.702
G1 X22.342 Y-0.741
G1 X22.355 Y-0.780
G1 X22.370 Y-0.822
G1 X22.399 Y-0.898
G1 X22.416 Y-0.938
G1 X22.433 Y-0.977
G1 X22.450 Y-1.015
G1 X22.467 Y-1.051
G1 X22.486 Y-1.088
G1 X22.506 Y-1.128
G1 X22.546 Y-1.198
G1 X22.567 Y-1.236
G1 X22.589 Y-1.271
G1 X22.612 Y-1.307
G1 X22.636 Y-1.343
G1 X22.659 Y-1.377
G1 X22.683 Y-1.410
G1 X22.707 Y-1.443
G1 X22.734 Y-1.478
G1 X22.760 Y-1.511
G1 X22.787 Y-1.543
G1 X22.812 Y-1.573
G1 X22.842 Y-1.607
G1 X22.899 Y-1.668
G1 X22.957 Y-1.726
G1 X23.018 Y-1.783
G1 X23.052 Y-1.813
G1 X23.082 Y-1.838
G1 X23.114 Y-1.865
G1 X23.147 Y-1.891
G1 X23.182 Y-1.918
G1 X23.215 Y-1.942
G1 X23.248 Y-1.966
G1 X23.282 Y-1.989
G1 X23.318 Y-2.013
G1 X23.354 Y-2.036
G1 X23.389 Y-2.058
G1 X23.427 Y-2.079
G1 X23.497 Y-2.119
G1 X23.537 Y-2.139
G1 X23.574 Y-2.158
G1 X23.610 Y-2.175
G1 X23.648 Y-2.192
G1 X23.687 Y-2.209
G1 X23.727 Y-2.226
G1 X23.803 Y-2.255
G1 X23.845 Y-2.270
G1 X23.884 Y-2.283
G1 X23.923 Y-2.295
G1 X23.962 Y-2.307
G1 X24.004 Y-2.319
G1 X24.046 Y-2.329
G1 X24.123 Y-2.347
