; generated by Slic3r 0.9.9-dev on 2013-02-21 at 22:14:50

; This Slic3r config is for the Rostock delta robot 3D printer prototype.

; layer_height = 0.1
; perimeters = 3
; top_solid_layers = 3
; bottom_solid_layers = 3
; fill_density = 1
; perimeter_speed = 30
; infill_speed = 45
; travel_speed = 200
; scale = 1
; nozzle_diameter = 0.35
; filament_diameter = 1.75
; extrusion_multiplier = .93
; perimeters extrusion width = 0.56mm
; infill extrusion width = 0.56mm
; first layer extrusion width = 0.20mm

M107
M190 S60 ; wait for bed temperature to be reached
M104 S189 ; set temperature
M109 S189 ; wait for temperature to be reached
G28 ; home all axes
G1 Z10 F24000 ; move to print surface
G90 ; use absolute coordinates
G21 ; set units to millimeters
G92 E0
M82 ; use absolute distances for extrusion
G1 F60000.000 E-5.00000
G1 Z0.500
G92 E0
G1 X7.785 Y13.383 F12000.000
G1 Z0.200
G1 F60000.000 E5.00000
G1 X7.155 Y13.743 F450.000 E5.00651
G1 X6.485 Y14.073 E5.01322
G1 X5.985 Y14.293 E5.01812
G1 X5.295 Y14.563 E5.02478
G1 X4.275 Y14.893 E5.03440
G1 X3.515 Y15.093 E5.04146
G1 X2.265 Y15.333 E5.05288
G1 X1.525 Y15.423 E5.05957
G1 X0.265 Y15.493 E5.07090
G1 X-1.015 Y15.463 E5.08240
G1 X-1.425 Y15.433 E5.08609
G1 X-2.325 Y15.323 E5.09423
G1 X-3.525 Y15.093 E5.10520
G1 X-4.115 Y14.943 E5.11066
G1 X-5.305 Y14.563 E5.12188
G1 X-5.995 Y14.293 E5.12853
G1 X-6.655 Y13.993 E5.13504
G1 X-7.595 Y13.513 E5.14451
G1 X-8.205 Y13.153 E5.15087
G1 X-9.275 Y12.423 E5.16250
G1 X-9.765 Y12.033 E5.16812
G1 X-10.625 Y11.283 E5.17837
G1 X-11.345 Y10.563 E5.18751
G1 X-12.075 Y9.703 E5.19764
G1 X-12.785 Y8.763 E5.20821
G1 X-13.155 Y8.203 E5.21424
G1 X-13.505 Y7.613 E5.22040
G1 X-13.855 Y6.943 E5.22718
G1 X-14.305 Y5.983 E5.23670
G1 X-14.575 Y5.293 E5.24335
G1 X-14.765 Y4.743 E5.24858
G1 X-14.975 Y4.023 E5.25531
G1 X-15.235 Y2.863 E5.26598
G1 X-15.425 Y1.573 E5.27769
G1 X-15.475 Y1.003 E5.28283
G1 X-15.505 Y0.253 E5.28956
G1 X-15.475 Y-1.007 E5.30088
G1 X-15.365 Y-2.107 E5.31080
G1 X-15.235 Y-2.877 E5.31782
G1 X-14.965 Y-4.057 E5.32868
G1 X-14.585 Y-5.267 E5.34007
G1 X-14.315 Y-5.967 E5.34680
G1 X-13.875 Y-6.927 E5.35628
G1 X-13.575 Y-7.507 E5.36215
G1 X-13.095 Y-8.307 E5.37052
G1 X-12.375 Y-9.337 E5.38180
G1 X-11.595 Y-10.287 E5.39284
G1 X-11.225 Y-10.697 E5.39780
G1 X-10.695 Y-11.227 E5.40453
G1 X-10.285 Y-11.597 E5.40949
G1 X-9.335 Y-12.377 E5.42052
G1 X-8.725 Y-12.817 E5.42727
G1 X-8.245 Y-13.137 E5.43245
G1 X-7.605 Y-13.517 E5.43913
G1 X-7.165 Y-13.757 E5.44363
G1 X-6.495 Y-14.087 E5.45034
G1 X-5.385 Y-14.547 E5.46113
G1 X-4.835 Y-14.737 E5.46635
G1 X-4.055 Y-14.967 E5.47365
G1 X-3.525 Y-15.097 E5.47855
G1 X-2.795 Y-15.247 E5.48524
G1 X-1.785 Y-15.397 E5.49441
G1 X-0.785 Y-15.487 E5.50342
G1 X-0.245 Y-15.507 E5.50827
G1 X1.005 Y-15.477 E5.51950
G1 X1.615 Y-15.427 E5.52499
G1 X2.355 Y-15.327 E5.53170
G1 X3.325 Y-15.137 E5.54057
G1 X4.165 Y-14.927 E5.54834
G1 X4.695 Y-14.777 E5.55329
G1 X5.295 Y-14.577 E5.55897
G1 X5.985 Y-14.307 E5.56562
G1 X6.485 Y-14.087 E5.57052
G1 X7.155 Y-13.757 E5.57723
G1 X7.655 Y-13.477 E5.58237
G1 X8.615 Y-12.897 E5.59244
G1 X9.345 Y-12.367 E5.60054
G1 X10.275 Y-11.597 E5.61138
G1 X10.685 Y-11.227 E5.61634
G1 X11.555 Y-10.337 E5.62751
G1 X12.095 Y-9.697 E5.63503
G1 X12.795 Y-8.747 E5.64562
G1 X13.125 Y-8.247 E5.65100
G1 X13.505 Y-7.607 E5.65768
G1 X13.745 Y-7.167 E5.66218
G1 X14.075 Y-6.497 E5.66889
G1 X14.595 Y-5.217 E5.68129
G1 X14.965 Y-4.017 E5.69256
G1 X15.225 Y-2.877 E5.70306
G1 X15.335 Y-2.267 E5.70863
G1 X15.425 Y-1.517 E5.71541
G1 X15.495 Y-0.327 E5.72611
G1 X15.495 Y0.303 E5.73177
G1 X15.465 Y0.983 E5.73788
G1 X15.425 Y1.523 E5.74274
G1 X15.335 Y2.263 E5.74943
G1 X15.225 Y2.863 E5.75491
G1 X14.955 Y4.043 E5.76577
G1 X14.745 Y4.753 E5.77242
G1 X14.425 Y5.653 E5.78100
G1 X14.075 Y6.483 E5.78908
G1 X13.745 Y7.153 E5.79579
G1 X13.145 Y8.203 E5.80664
G1 X12.775 Y8.763 E5.81267
G1 X12.145 Y9.613 E5.82217
G1 X11.845 Y9.983 E5.82645
G1 X11.215 Y10.683 E5.83490
G1 X10.685 Y11.213 E5.84163
G1 X10.325 Y11.543 E5.84601
G1 X9.755 Y12.033 E5.85276
G1 X9.265 Y12.413 E5.85833
G1 X8.615 Y12.873 E5.86548
G1 X7.815 Y13.365 E5.87391
G1 X7.665 Y13.183 F12000.000
G1 X7.045 Y13.533 F450.000 E5.88030
G1 X6.375 Y13.863 E5.88701
G1 X5.895 Y14.073 E5.89171
G1 X4.735 Y14.513 E5.90285
G1 X4.205 Y14.673 E5.90782
G1 X3.465 Y14.863 E5.91468
G1 X2.235 Y15.103 E5.92593
G1 X1.495 Y15.193 E5.93262
G1 X0.255 Y15.263 E5.94377
G1 X-0.995 Y15.233 E5.95500
G1 X-1.405 Y15.203 E5.95869
G1 X-2.295 Y15.093 E5.96674
G1 X-3.475 Y14.863 E5.97753
G1 X-4.045 Y14.723 E5.98280
G1 X-4.765 Y14.503 E5.98956
G1 X-5.905 Y14.073 E6.00050
G1 X-7.045 Y13.543 E6.01178
G1 X-8.085 Y12.953 E6.02252
G1 X-9.135 Y12.233 E6.03395
G1 X-9.615 Y11.863 E6.03939
G1 X-10.465 Y11.113 E6.04957
G1 X-10.985 Y10.603 E6.05610
G1 X-11.425 Y10.123 E6.06195
G1 X-12.165 Y9.233 E6.07234
G1 X-12.605 Y8.633 E6.07902
G1 X-13.305 Y7.503 E6.09096
G1 X-13.855 Y6.413 E6.10192
G1 X-14.085 Y5.893 E6.10702
G1 X-14.355 Y5.203 E6.11367
G1 X-14.535 Y4.683 E6.11861
G1 X-14.855 Y3.543 E6.12924
G1 X-15.015 Y2.813 E6.13595
G1 X-15.125 Y2.103 E6.14240
G1 X-15.245 Y0.993 E6.15243
G1 X-15.275 Y0.243 E6.15916
G1 X-15.245 Y-0.997 E6.17030
G1 X-15.175 Y-1.707 E6.17670
G1 X-15.015 Y-2.827 E6.18686
G1 X-14.745 Y-3.997 E6.19764
G1 X-14.535 Y-4.707 E6.20429
G1 X-14.365 Y-5.177 E6.20878
G1 X-14.095 Y-5.877 E6.21551
G1 X-13.665 Y-6.827 E6.22487
G1 X-13.365 Y-7.397 E6.23066
G1 X-12.895 Y-8.187 E6.23891
G1 X-12.625 Y-8.597 E6.24332
G1 X-11.905 Y-9.567 E6.25416
G1 X-11.065 Y-10.537 E6.26568
G1 X-10.535 Y-11.067 E6.27241
G1 X-10.135 Y-11.427 E6.27724
G1 X-9.565 Y-11.907 E6.28393
G1 X-8.595 Y-12.627 E6.29478
G1 X-8.125 Y-12.937 E6.29983
G1 X-7.485 Y-13.317 E6.30651
G1 X-6.385 Y-13.877 E6.31759
G1 X-5.935 Y-14.077 E6.32201
G1 X-4.765 Y-14.517 E6.33324
G1 X-3.985 Y-14.747 E6.34054
G1 X-3.475 Y-14.867 E6.34524
G1 X-2.295 Y-15.097 E6.35603
G1 X-1.755 Y-15.167 E6.36092
G1 X-0.775 Y-15.257 E6.36976
G1 X-0.235 Y-15.277 E6.37461
G1 X0.995 Y-15.247 E6.38565
G1 X1.575 Y-15.197 E6.39088
G1 X2.315 Y-15.097 E6.39758
G1 X3.565 Y-14.847 E6.40903
G1 X4.105 Y-14.707 E6.41404
G1 X4.635 Y-14.557 E6.41898
G1 X5.895 Y-14.087 E6.43106
G1 X6.375 Y-13.877 E6.43576
G1 X7.045 Y-13.547 E6.44246
G1 X7.535 Y-13.277 E6.44749
G1 X8.475 Y-12.707 E6.45736
G1 X9.215 Y-12.177 E6.46553
G1 X10.125 Y-11.427 E6.47611
G1 X10.525 Y-11.067 E6.48095
G1 X11.055 Y-10.537 E6.48767
G1 X11.375 Y-10.187 E6.49193
G1 X11.915 Y-9.547 E6.49945
G1 X12.605 Y-8.617 E6.50985
G1 X12.925 Y-8.127 E6.51510
G1 X13.305 Y-7.487 E6.52178
G1 X13.865 Y-6.387 E6.53286
G1 X14.065 Y-5.947 E6.53720
G1 X14.375 Y-5.147 E6.54490
G1 X14.745 Y-3.957 E6.55609
G1 X15.005 Y-2.827 E6.56650
G1 X15.105 Y-2.237 E6.57187
G1 X15.195 Y-1.487 E6.57866
G1 X15.235 Y-0.977 E6.58325
G1 X15.265 Y0.293 E6.59465
G1 X15.235 Y0.973 E6.60076
G1 X15.195 Y1.493 E6.60545
G1 X15.105 Y2.233 E6.61214
G1 X15.005 Y2.813 E6.61742
G1 X14.735 Y3.983 E6.62820
G1 X14.525 Y4.693 E6.63485
G1 X14.375 Y5.123 E6.63894
G1 X14.065 Y5.933 E6.64672
G1 X13.865 Y6.373 E6.65106
G1 X13.325 Y7.443 E6.66182
G1 X12.945 Y8.093 E6.66858
G1 X12.595 Y8.633 E6.67436
G1 X12.155 Y9.233 E6.68104
G1 X11.665 Y9.843 E6.68806
G1 X11.055 Y10.523 E6.69627
G1 X10.525 Y11.053 E6.70299
G1 X10.175 Y11.373 E6.70725
G1 X9.605 Y11.863 E6.71400
G1 X9.135 Y12.223 E6.71932
G1 X8.495 Y12.673 E6.72634
G1 X7.695 Y13.165 E6.73477
G1 F60000.000 E1.73477
G1 Z0.500
G92 E0
G1 X1.655 Y2.867 F12000.000
G1 Z0.200
G1 F60000.000 E5.00000
G1 X1.132 Y3.111 F450.000 E5.00518
G1 X0.575 Y3.260 E5.01036
G1 X-0.000 Y3.311 E5.01554
G1 X-0.575 Y3.260 E5.02072
G1 X-1.132 Y3.111 E5.02590
G1 X-1.655 Y2.867 E5.03108
G1 X-2.128 Y2.536 E5.03626
G1 X-2.536 Y2.128 E5.04145
G1 X-2.867 Y1.655 E5.04663
G1 X-3.111 Y1.132 E5.05181
G1 X-3.260 Y0.575 E5.05699
G1 X-3.311 Y0.000 E5.06217
G1 X-3.260 Y-0.575 E5.06735
G1 X-3.111 Y-1.132 E5.07253
G1 X-2.867 Y-1.655 E5.07771
G1 X-2.536 Y-2.128 E5.08289
G1 X-2.128 Y-2.536 E5.08807
G1 X-1.655 Y-2.867 E5.09325
G1 X-1.132 Y-3.111 E5.09843
G1 X-0.575 Y-3.260 E5.10361
G1 X-0.000 Y-3.311 E5.10879
G1 X0.575 Y-3.260 E5.11397
G1 X1.132 Y-3.111 E5.11916
G1 X1.655 Y-2.867 E5.12434
G1 X2.128 Y-2.536 E5.12952
G1 X2.536 Y-2.128 E5.13470
G1 X2.867 Y-1.655 E5.13988
G1 X3.111 Y-1.132 E5.14506
G1 X3.260 Y-0.575 E5.15024
G1 X3.311 Y0.000 E5.15542
G1 X3.260 Y0.575 E5.16060
G1 X3.111 Y1.132 E5.16578
G1 X2.867 Y1.655 E5.17096
G1 X2.536 Y2.128 E5.17614
G1 X2.128 Y2.536 E5.18132
G1 X1.684 Y2.847 E5.18619
G1 X1.539 Y2.665 F12000.000
G1 X1.053 Y2.892 F450.000 E5.19101
G1 X0.534 Y3.031 E5.19582
G1 X-0.000 Y3.077 E5.20064
G1 X-0.534 Y3.031 E5.20545
G1 X-1.053 Y2.892 E5.21027
G1 X-1.539 Y2.665 E5.21509
G1 X-1.978 Y2.357 E5.21990
G1 X-2.357 Y1.978 E5.22472
G1 X-2.665 Y1.539 E5.22953
G1 X-2.892 Y1.053 E5.23435
G1 X-3.031 Y0.534 E5.23917
G1 X-3.077 Y0.000 E5.24398
G1 X-3.031 Y-0.534 E5.24880
G1 X-2.892 Y-1.053 E5.25361
G1 X-2.665 Y-1.539 E5.25843
G1 X-2.357 Y-1.978 E5.26325
G1 X-1.978 Y-2.357 E5.26806
G1 X-1.539 Y-2.665 E5.27288
G1 X-1.053 Y-2.892 E5.27769
G1 X-0.534 Y-3.031 E5.28251
G1 X-0.000 Y-3.077 E5.28733
G1 X0.534 Y-3.031 E5.29214
G1 X1.053 Y-2.892 E5.29696
G1 X1.539 Y-2.665 E5.30177
G1 X1.978 Y-2.357 E5.30659
G1 X2.357 Y-1.978 E5.31141
G1 X2.665 Y-1.539 E5.31622
G1 X2.892 Y-1.053 E5.32104
G1 X3.031 Y-0.534 E5.32585
G1 X3.077 Y0.000 E5.33067
G1 X3.031 Y0.534 E5.33549
G1 X2.892 Y1.053 E5.34030
G1 X2.665 Y1.539 E5.34512
G1 X2.357 Y1.978 E5.34993
G1 X1.978 Y2.357 E5.35475
G1 X1.567 Y2.645 E5.35925
G1 X1.422 Y2.463 F12000.000
G1 X0.973 Y2.673 F450.000 E5.36370
G1 X0.494 Y2.801 E5.36815
G1 X-0.000 Y2.844 E5.37261
G1 X-0.494 Y2.801 E5.37706
G1 X-0.973 Y2.673 E5.38151
G1 X-1.422 Y2.463 E5.38596
G1 X-1.828 Y2.179 E5.39041
G1 X-2.179 Y1.828 E5.39486
G1 X-2.463 Y1.422 E5.39931
G1 X-2.673 Y0.973 E5.40376
G1 X-2.801 Y0.494 E5.40821
G1 X-2.844 Y0.000 E5.41267
G1 X-2.801 Y-0.494 E5.41712
G1 X-2.673 Y-0.973 E5.42157
G1 X-2.463 Y-1.422 E5.42602
G1 X-2.179 Y-1.828 E5.43047
G1 X-1.828 Y-2.179 E5.43492
G1 X-1.422 Y-2.463 E5.43937
G1 X-0.973 Y-2.673 E5.44382
G1 X-0.494 Y-2.801 E5.44828
G1 X-0.000 Y-2.844 E5.45273
G1 X0.494 Y-2.801 E5.45718
G1 X0.973 Y-2.673 E5.46163
G1 X1.422 Y-2.463 E5.46608
G1 X1.828 Y-2.179 E5.47053
G1 X2.179 Y-1.828 E5.47498
G1 X2.463 Y-1.422 E5.47943
G1 X2.673 Y-0.973 E5.48388
G1 X2.801 Y-0.494 E5.48834
G1 X2.844 Y0.000 E5.49279
G1 X2.801 Y0.494 E5.49724
G1 X2.673 Y0.973 E5.50169
G1 X2.463 Y1.422 E5.50614
G1 X2.179 Y1.828 E5.51059
G1 X1.828 Y2.179 E5.51504
G1 X1.451 Y2.443 E5.51918
G1 X1.415 Y2.695 F12000.000
G1 F60000.000 E0.51918
G1 Z0.500
G92 E0
G1 X-8.313 Y2.105 F12000.000
G1 Z0.200
G1 F60000.000 E5.00000
G1 X-8.330 Y2.025 F450.000 E5.00074
G1 X-8.121 Y1.631 E5.00474
G1 X-8.452 Y1.410 E5.00831
G1 X-8.211 Y1.094 E5.01189
G1 X-8.536 Y0.790 E5.01589
G1 X-8.575 Y0.000 E5.02299
G1 X-8.536 Y-0.790 E5.03008
G1 X-8.210 Y-1.094 E5.03408
G1 X-8.452 Y-1.410 E5.03766
G1 X-8.121 Y-1.631 E5.04123
G1 X-8.330 Y-2.025 E5.04523
G1 X-8.111 Y-2.784 E5.05233
G1 X-7.817 Y-3.519 E5.05943
G1 X-7.410 Y-3.701 E5.06343
G1 X-7.536 Y-4.078 E5.06700
G1 X-7.151 Y-4.179 E5.07058
G1 X-7.221 Y-4.620 E5.07458
G1 X-7.179 Y-4.690 E5.07532
G1 X-6.767 Y-5.267 E5.08168
G1 X-6.251 Y-5.866 E5.08878
G1 X-5.807 Y-5.907 E5.09278
G1 X-5.804 Y-6.305 E5.09635
G1 X-5.407 Y-6.275 E5.09992
G1 X-5.330 Y-6.714 E5.10392
G1 X-4.690 Y-7.179 E5.11102
G1 X-4.007 Y-7.578 E5.11812
G1 X-3.575 Y-7.472 E5.12212
G1 X-3.442 Y-7.847 E5.12569
G1 X-3.076 Y-7.691 E5.12927
G1 X-2.861 Y-8.081 E5.13327
G1 X-2.105 Y-8.313 E5.14037
G1 X-1.330 Y-8.468 E5.14747
G1 X-0.955 Y-8.228 E5.15147
G1 X-0.708 Y-8.540 E5.15504
G1 X-0.412 Y-8.273 E5.15861
G1 X-0.082 Y-8.572 E5.16261
G1 X-0.021 Y-8.574 E5.16316
G1 X0.708 Y-8.546 E5.16971
G1 X1.411 Y-8.458 E5.17608
G1 X1.492 Y-8.441 E5.17681
G1 X1.768 Y-8.092 E5.18081
G1 X2.104 Y-8.307 E5.18439
G1 X2.296 Y-7.959 E5.18796
G1 X2.705 Y-8.134 E5.19196
G1 X3.445 Y-7.853 E5.19906
G1 X4.152 Y-7.499 E5.20616
G1 X4.300 Y-7.079 E5.21016
G1 X4.687 Y-7.174 E5.21373
G1 X4.756 Y-6.782 E5.21731
G1 X5.200 Y-6.815 E5.22131
G1 X5.808 Y-6.309 E5.22840
G1 X6.362 Y-5.745 E5.23550
G1 X6.366 Y-5.300 E5.23950
G1 X6.762 Y-5.263 E5.24308
G1 X6.700 Y-4.870 E5.24665
G1 X7.131 Y-4.757 E5.25065
G1 X7.542 Y-4.081 E5.25775
G1 X7.883 Y-3.368 E5.26485
G1 X7.742 Y-2.945 E5.26885
G1 X8.105 Y-2.782 E5.27242
G1 X7.918 Y-2.431 E5.27600
G1 X8.289 Y-2.184 E5.28000
G1 X8.313 Y-2.105 E5.28073
G1 X8.458 Y-1.411 E5.28710
G1 X8.546 Y-0.708 E5.29346
G1 X8.549 Y-0.626 E5.29420
G1 X8.279 Y-0.272 E5.29820
G1 X8.569 Y0.000 E5.30177
G1 X8.279 Y0.272 E5.30535
G1 X8.549 Y0.626 E5.30935
G1 X8.458 Y1.411 E5.31644
G1 X8.289 Y2.184 E5.32355
G1 X7.917 Y2.433 E5.32757
G1 X8.032 Y2.815 E5.33115
G1 X7.742 Y2.945 E5.33401
G1 X7.883 Y3.368 E5.33801
G1 X7.542 Y4.081 E5.34511
G1 X7.179 Y4.690 E5.35148
G1 X6.770 Y5.263 E5.35779
G1 X6.366 Y5.300 E5.36143
G1 X6.362 Y5.745 E5.36543
G1 X5.808 Y6.309 E5.37253
G1 X5.200 Y6.815 E5.37963
G1 X4.756 Y6.782 E5.38363
G1 X4.687 Y7.174 E5.38720
G1 X4.300 Y7.079 E5.39078
G1 X4.152 Y7.499 E5.39478
G1 X3.445 Y7.853 E5.40188
G1 X2.705 Y8.134 E5.40898
G1 X2.296 Y7.959 E5.41298
G1 X2.100 Y8.314 E5.41662
G1 X1.411 Y8.458 E5.42293
G1 X0.708 Y8.546 E5.42930
G1 X0.000 Y8.575 E5.43566
G1 X-0.082 Y8.572 E5.43640
G1 X-0.412 Y8.273 E5.44040
G1 X-0.708 Y8.540 E5.44397
G1 X-0.955 Y8.228 E5.44755
G1 X-1.330 Y8.468 E5.45154
G1 X-1.411 Y8.458 E5.45228
G1 X-2.105 Y8.313 E5.45865
G1 X-2.861 Y8.081 E5.46574
G1 X-3.076 Y7.691 E5.46974
G1 X-3.442 Y7.848 E5.47332
G1 X-3.575 Y7.472 E5.47689
G1 X-4.007 Y7.578 E5.48089
G1 X-4.081 Y7.542 E5.48163
G1 X-4.690 Y7.179 E5.48799
G1 X-5.330 Y6.714 E5.49509
G1 X-5.407 Y6.275 E5.49909
G1 X-5.804 Y6.305 E5.50266
G1 X-5.807 Y5.907 E5.50624
G1 X-6.251 Y5.866 E5.51024
G1 X-6.309 Y5.808 E5.51098
G1 X-6.767 Y5.267 E5.51734
G1 X-7.221 Y4.619 E5.52444
G1 X-7.151 Y4.179 E5.52844
G1 X-7.536 Y4.078 E5.53201
G1 X-7.457 Y3.842 E5.53425
G1 X-6.876 Y2.547 E5.54700
G1 X-7.991 Y3.091 E5.55814
G1 X-8.111 Y2.784 E5.56110
G1 X-8.303 Y2.139 E5.56715
G1 X-8.529 Y2.192 F12000.000
G1 X-8.574 Y1.990 F450.000 E5.56900
G1 X-8.424 Y1.708 E5.57187
G1 X-8.667 Y1.546 E5.57448
G1 X-8.687 Y1.450 E5.57537
G1 X-8.700 Y1.352 E5.57626
G1 X-8.523 Y1.120 E5.57887
G1 X-8.756 Y0.902 E5.58174
G1 X-8.808 Y0.000 E5.58985
G1 X-8.777 Y-0.727 E5.59639
G1 X-8.756 Y-0.902 E5.59796
G1 X-8.523 Y-1.120 E5.60083
G1 X-8.700 Y-1.352 E5.60345
G1 X-8.667 Y-1.546 E5.60522
G1 X-8.425 Y-1.708 E5.60784
G1 X-8.574 Y-1.990 E5.61070
G1 X-8.538 Y-2.162 E5.61228
G1 X-8.330 Y-2.860 E5.61882
G1 X-7.988 Y-3.696 E5.62693
G1 X-7.697 Y-3.827 E5.62979
G1 X-7.789 Y-4.103 E5.63241
G1 X-7.746 Y-4.192 E5.63330
G1 X-7.695 Y-4.277 E5.63419
G1 X-7.413 Y-4.351 E5.63680
G1 X-7.463 Y-4.666 E5.63967
G1 X-6.950 Y-5.410 E5.64778
G1 X-6.356 Y-6.090 E5.65589
G1 X-6.037 Y-6.119 E5.65876
G1 X-6.035 Y-6.410 E5.66137
G1 X-5.890 Y-6.544 E5.66315
G1 X-5.599 Y-6.522 E5.66576
G1 X-5.544 Y-6.837 E5.66863
G1 X-5.410 Y-6.950 E5.67021
G1 X-4.817 Y-7.373 E5.67674
G1 X-4.034 Y-7.823 E5.68485
G1 X-3.724 Y-7.747 E5.68772
G1 X-3.627 Y-8.022 E5.69033
G1 X-3.538 Y-8.066 E5.69122
G1 X-3.446 Y-8.102 E5.69211
G1 X-3.178 Y-7.987 E5.69473
G1 X-3.024 Y-8.266 E5.69759
G1 X-2.162 Y-8.538 E5.70570
G1 X-1.275 Y-8.709 E5.71381
G1 X-1.006 Y-8.537 E5.71668
G1 X-0.825 Y-8.765 E5.71930
G1 X-0.727 Y-8.777 E5.72018
G1 X-0.629 Y-8.782 E5.72107
G1 X-0.412 Y-8.586 E5.72369
G1 X-0.176 Y-8.800 E5.72655
G1 X0.727 Y-8.777 E5.73466
G1 X1.450 Y-8.687 E5.74120
G1 X1.622 Y-8.651 E5.74278
G1 X1.820 Y-8.401 E5.74564
G1 X2.065 Y-8.558 E5.74826
G1 X2.257 Y-8.510 E5.75003
G1 X2.398 Y-8.255 E5.75265
G1 X2.691 Y-8.380 E5.75552
G1 X2.860 Y-8.330 E5.75710
G1 X3.538 Y-8.066 E5.76363
G1 X4.343 Y-7.656 E5.77174
G1 X4.449 Y-7.355 E5.77461
G1 X4.732 Y-7.424 E5.77722
G1 X4.791 Y-7.389 E5.77784
G1 X4.898 Y-7.316 E5.77900
G1 X4.948 Y-7.029 E5.78161
G1 X5.267 Y-7.053 E5.78448
G1 X5.965 Y-6.480 E5.79259
G1 X6.480 Y-5.965 E5.79913
G1 X6.594 Y-5.831 E5.80070
G1 X6.596 Y-5.512 E5.80357
G1 X6.886 Y-5.485 E5.80619
G1 X6.950 Y-5.410 E5.80707
G1 X7.008 Y-5.329 E5.80796
G1 X6.962 Y-5.041 E5.81058
G1 X7.271 Y-4.960 E5.81345
G1 X7.746 Y-4.192 E5.82155
