; generated by Slic3r 0.9.9-dev on 2013-02-19 at 20:11:32

; This Slic3r config is for the Rostock delta robot 3D printer prototype.

; layer_height = 0.1
; perimeters = 3
; top_solid_layers = 3
; bottom_solid_layers = 3
; fill_density = 1
; perimeter_speed = 30
; infill_speed = 50
; travel_speed = 200
; scale = 1
; nozzle_diameter = 0.35
; filament_diameter = 1.75
; extrusion_multiplier = 1
; perimeters extrusion width = 0.56mm
; infill extrusion width = 0.56mm
; first layer extrusion width = 0.20mm

M107
M190 S60 ; wait for bed temperature to be reached
M104 S200 ; set temperature
M109 S200 ; wait for temperature to be reached
G28 ; home all axes
G1 Z10 F24000 ; move to print surface
G90 ; use absolute coordinates
G21 ; set units to millimeters
G92 E0
M82 ; use absolute distances for extrusion
G1 F60000.000 E-5.00000
G1 Z0.400
G92 E0
G1 X49.350 Y39.995 F12000.000
G1 Z0.100
G1 F60000.000 E5.00000
G1 X49.320 Y40.655 F360.000 E5.00638
G1 X49.110 Y42.715 E5.02637
G1 X49.080 Y42.985 E5.02899
G1 X48.980 Y43.525 E5.03429
G1 X48.830 Y44.055 E5.03961
G1 X48.190 Y46.025 E5.05960
G1 X48.000 Y46.535 E5.06486
G1 X47.630 Y47.275 E5.07284
G1 X46.590 Y49.065 E5.09283
G1 X46.310 Y49.505 E5.09786
G1 X45.990 Y49.925 E5.10296
G1 X44.240 Y51.875 E5.12825
G1 X43.840 Y52.255 E5.13358
G1 X43.400 Y52.605 E5.13901
G1 X41.720 Y53.815 E5.15899
G1 X41.060 Y54.225 E5.16649
G1 X40.590 Y54.465 E5.17159
G1 X38.700 Y55.315 E5.19159
G1 X37.930 Y55.605 E5.19953
G1 X37.400 Y55.735 E5.20480
G1 X35.380 Y56.165 E5.22474
G1 X34.840 Y56.255 E5.23002
G1 X34.300 Y56.305 E5.23526
G1 X-34.310 Y56.305 E5.89758
G1 X-35.120 Y56.215 E5.90544
G1 X-37.410 Y55.735 E5.92803
G1 X-37.940 Y55.605 E5.93330
G1 X-38.710 Y55.315 E5.94124
G1 X-40.600 Y54.465 E5.96125
G1 X-41.290 Y54.095 E5.96880
G1 X-41.730 Y53.815 E5.97384
G1 X-43.410 Y52.605 E5.99382
G1 X-43.850 Y52.255 E5.99925
G1 X-44.250 Y51.875 E6.00458
G1 X-46.000 Y49.925 E6.02987
G1 X-46.320 Y49.505 E6.03497
G1 X-46.600 Y49.065 E6.04000
G1 X-47.640 Y47.275 E6.05999
G1 X-48.010 Y46.535 E6.06797
G1 X-48.200 Y46.025 E6.07323
G1 X-48.840 Y44.055 E6.09322
G1 X-48.990 Y43.525 E6.09854
G1 X-49.090 Y42.985 E6.10384
G1 X-49.120 Y42.715 E6.10646
G1 X-49.330 Y40.655 E6.12645
G1 X-49.360 Y39.995 E6.13283
G1 X-49.360 Y-40.005 E6.90510
G1 X-49.330 Y-40.665 E6.91148
G1 X-49.090 Y-42.995 E6.93409
G1 X-48.990 Y-43.535 E6.93939
G1 X-48.840 Y-44.065 E6.94471
G1 X-48.200 Y-46.035 E6.96470
G1 X-48.010 Y-46.545 E6.96996
G1 X-47.640 Y-47.285 E6.97794
G1 X-46.600 Y-49.075 E6.99793
G1 X-46.320 Y-49.515 E7.00296
G1 X-46.000 Y-49.935 E7.00806
G1 X-44.250 Y-51.885 E7.03335
G1 X-43.850 Y-52.265 E7.03868
G1 X-43.410 Y-52.615 E7.04410
G1 X-41.730 Y-53.825 E7.06409
G1 X-41.290 Y-54.105 E7.06912
G1 X-40.600 Y-54.475 E7.07668
G1 X-38.710 Y-55.325 E7.09669
G1 X-38.450 Y-55.435 E7.09941
G1 X-37.650 Y-55.695 E7.10753
G1 X-35.100 Y-56.225 E7.13268
G1 X-34.830 Y-56.265 E7.13531
G1 X-34.300 Y-56.305 E7.14044
G1 X34.290 Y-56.305 E7.80256
G1 X34.820 Y-56.265 E7.80770
G1 X35.090 Y-56.225 E7.81033
G1 X37.370 Y-55.755 E7.83280
G1 X37.910 Y-55.615 E7.83819
G1 X38.440 Y-55.435 E7.84359
G1 X38.700 Y-55.325 E7.84632
G1 X40.590 Y-54.475 E7.86632
G1 X41.280 Y-54.105 E7.87388
G1 X41.720 Y-53.825 E7.87891
G1 X43.400 Y-52.615 E7.89890
G1 X43.840 Y-52.265 E7.90433
G1 X44.240 Y-51.885 E7.90965
G1 X45.990 Y-49.935 E7.93495
G1 X46.310 Y-49.515 E7.94004
G1 X46.590 Y-49.075 E7.94508
G1 X47.630 Y-47.285 E7.96506
G1 X48.000 Y-46.545 E7.97305
G1 X48.190 Y-46.035 E7.97830
G1 X48.830 Y-44.065 E7.99830
G1 X48.980 Y-43.535 E8.00362
G1 X49.080 Y-42.995 E8.00892
G1 X49.320 Y-40.665 E8.03153
G1 X49.350 Y-40.005 E8.03791
G1 X49.350 Y39.960 E8.80984
G1 X49.120 Y39.995 F12000.000
G1 X49.090 Y40.625 F360.000 E8.81593
G1 X48.880 Y42.685 E8.83592
G1 X48.850 Y42.945 E8.83844
G1 X48.750 Y43.475 E8.84365
G1 X48.610 Y43.985 E8.84875
G1 X47.970 Y45.955 E8.86875
G1 X47.780 Y46.445 E8.87382
G1 X47.560 Y46.925 E8.87892
G1 X46.260 Y49.165 E8.90392
G1 X45.810 Y49.785 E8.91132
G1 X44.080 Y51.715 E8.93634
G1 X43.690 Y52.075 E8.94146
G1 X43.480 Y52.255 E8.94413
G1 X41.580 Y53.625 E8.96674
G1 X40.950 Y54.025 E8.97395
G1 X40.720 Y54.145 E8.97645
G1 X38.610 Y55.095 E8.99879
G1 X38.110 Y55.295 E9.00399
G1 X37.350 Y55.515 E9.01162
G1 X35.330 Y55.945 E9.03156
G1 X34.810 Y56.025 E9.03664
G1 X34.290 Y56.075 E9.04168
G1 X-34.300 Y56.075 E9.70381
G1 X-34.820 Y56.025 E9.70885
G1 X-35.340 Y55.945 E9.71393
G1 X-37.360 Y55.515 E9.73386
G1 X-38.120 Y55.295 E9.74150
G1 X-38.620 Y55.095 E9.74670
G1 X-40.730 Y54.145 E9.76904
G1 X-41.390 Y53.765 E9.77639
G1 X-43.490 Y52.255 E9.80136
G1 X-44.090 Y51.715 E9.80915
G1 X-45.820 Y49.785 E9.83417
G1 X-46.130 Y49.375 E9.83913
G1 X-46.400 Y48.945 E9.84403
G1 X-47.440 Y47.155 E9.86402
G1 X-47.570 Y46.925 E9.86657
G1 X-47.790 Y46.445 E9.87167
G1 X-47.980 Y45.955 E9.87674
G1 X-48.620 Y43.985 E9.89674
G1 X-48.760 Y43.475 E9.90184
G1 X-48.860 Y42.945 E9.90705
G1 X-48.890 Y42.685 E9.90957
G1 X-49.100 Y40.625 E9.92956
G1 X-49.130 Y39.995 E9.93565
G1 X-49.130 Y-40.005 E10.70792
G1 X-49.100 Y-40.635 E10.71401
G1 X-48.860 Y-42.955 E10.73652
G1 X-48.760 Y-43.485 E10.74173
G1 X-48.620 Y-43.995 E10.74683
G1 X-47.980 Y-45.965 E10.76683
G1 X-47.790 Y-46.455 E10.77190
G1 X-47.570 Y-46.935 E10.77700
G1 X-47.440 Y-47.165 E10.77955
G1 X-46.400 Y-48.955 E10.79954
G1 X-46.130 Y-49.385 E10.80444
G1 X-45.820 Y-49.795 E10.80940
G1 X-44.090 Y-51.725 E10.83442
G1 X-43.490 Y-52.265 E10.84221
G1 X-41.390 Y-53.775 E10.86718
G1 X-40.730 Y-54.155 E10.87453
G1 X-38.620 Y-55.105 E10.89687
G1 X-38.370 Y-55.215 E10.89951
G1 X-37.850 Y-55.395 E10.90482
G1 X-37.330 Y-55.525 E10.90999
G1 X-35.060 Y-55.995 E10.93237
G1 X-34.800 Y-56.035 E10.93491
G1 X-34.300 Y-56.075 E10.93975
G1 X34.290 Y-56.075 E11.60187
G1 X34.790 Y-56.035 E11.60672
G1 X35.050 Y-55.995 E11.60926
G1 X37.320 Y-55.525 E11.63163
G1 X37.840 Y-55.395 E11.63681
G1 X38.360 Y-55.215 E11.64212
G1 X38.610 Y-55.105 E11.64476
G1 X40.720 Y-54.155 E11.66710
G1 X41.380 Y-53.775 E11.67445
G1 X43.480 Y-52.265 E11.69942
G1 X44.080 Y-51.725 E11.70721
G1 X45.810 Y-49.795 E11.73223
G1 X46.120 Y-49.385 E11.73719
G1 X46.390 Y-48.955 E11.74209
G1 X47.430 Y-47.165 E11.76208
G1 X47.560 Y-46.935 E11.76463
G1 X47.780 Y-46.455 E11.76972
G1 X47.970 Y-45.965 E11.77480
G1 X48.610 Y-43.995 E11.79479
G1 X48.750 Y-43.485 E11.79990
G1 X48.850 Y-42.955 E11.80510
G1 X49.090 Y-40.635 E11.82762
G1 X49.120 Y-40.005 E11.83371
G1 X49.120 Y39.960 E12.60564
G1 F60000.000 E7.60564
G1 Z0.400
G92 E0
G1 X12.014 Y-49.381 F12000.000
G1 Z0.100
G1 F60000.000 E5.00000
G1 X33.986 Y-49.381 F360.000 E5.21210
G1 X35.915 Y-48.971 E5.23113
G1 X37.716 Y-48.169 E5.25017
G1 X39.311 Y-47.009 E5.26921
G1 X40.631 Y-45.544 E5.28824
G1 X41.617 Y-43.836 E5.30728
G1 X42.226 Y-41.961 E5.32631
G1 X42.432 Y-40.000 E5.34535
G1 X42.226 Y-38.039 E5.36438
G1 X41.602 Y-36.118 E5.38388
G1 X32.436 Y-11.370 E5.63864
G1 X32.436 Y11.370 E5.85816
G1 X41.602 Y36.118 E6.11292
G1 X42.226 Y38.039 E6.13242
G1 X42.432 Y40.000 E6.15145
G1 X42.226 Y41.961 E6.17049
G1 X41.617 Y43.836 E6.18952
G1 X40.631 Y45.544 E6.20856
G1 X39.311 Y47.009 E6.22759
G1 X37.716 Y48.169 E6.24663
G1 X35.915 Y48.971 E6.26567
G1 X33.986 Y49.381 E6.28470
G1 X12.014 Y49.381 E6.49680
G1 X10.085 Y48.971 E6.51584
G1 X8.284 Y48.169 E6.53487
G1 X6.689 Y47.009 E6.55391
G1 X5.369 Y45.544 E6.57294
G1 X4.383 Y43.836 E6.59198
G1 X3.774 Y41.961 E6.61102
G1 X3.568 Y40.000 E6.63005
G1 X3.774 Y38.039 E6.64908
G1 X4.398 Y36.118 E6.66858
G1 X13.564 Y11.370 E6.92334
G1 X13.564 Y-11.370 E7.14286
G1 X4.398 Y-36.118 E7.39763
G1 X3.774 Y-38.039 E7.41712
G1 X3.568 Y-40.000 E7.43616
G1 X3.774 Y-41.961 E7.45519
G1 X4.383 Y-43.836 E7.47422
G1 X5.369 Y-45.544 E7.49326
G1 X6.689 Y-47.009 E7.51229
G1 X8.284 Y-48.169 E7.53133
G1 X10.085 Y-48.971 E7.55037
G1 X11.980 Y-49.373 E7.56907
G1 X11.990 Y-49.613 F12000.000
G1 X34.010 Y-49.613 F360.000 E7.78164
G1 X35.987 Y-49.193 E7.80114
G1 X37.833 Y-48.371 E7.82065
G1 X39.468 Y-47.183 E7.84016
G1 X40.820 Y-45.682 E7.85966
G1 X41.830 Y-43.931 E7.87917
G1 X42.454 Y-42.010 E7.89868
G1 X42.666 Y-40.000 E7.91818
G1 X42.454 Y-37.990 E7.93769
G1 X41.821 Y-36.042 E7.95747
G1 X32.668 Y-11.329 E8.21187
G1 X32.668 Y11.329 E8.43059
G1 X41.821 Y36.042 E8.68500
G1 X42.454 Y37.990 E8.70477
G1 X42.666 Y40.000 E8.72428
G1 X42.454 Y42.010 E8.74378
G1 X41.830 Y43.931 E8.76329
G1 X40.820 Y45.682 E8.78280
G1 X39.468 Y47.183 E8.80230
G1 X37.833 Y48.371 E8.82181
G1 X35.987 Y49.193 E8.84132
G1 X34.010 Y49.613 E8.86083
G1 X11.990 Y49.613 E9.07340
G1 X10.013 Y49.193 E9.09290
G1 X8.167 Y48.371 E9.11241
G1 X6.532 Y47.183 E9.13192
G1 X5.180 Y45.682 E9.15142
G1 X4.170 Y43.931 E9.17093
G1 X3.546 Y42.010 E9.19044
G1 X3.334 Y40.000 E9.20994
G1 X3.546 Y37.990 E9.22945
G1 X4.179 Y36.042 E9.24923
G1 X13.332 Y11.329 E9.50363
G1 X13.332 Y-11.329 E9.72235
G1 X4.179 Y-36.042 E9.97675
G1 X3.546 Y-37.990 E9.99653
G1 X3.334 Y-40.000 E10.01604
G1 X3.546 Y-42.010 E10.03554
G1 X4.170 Y-43.931 E10.05505
G1 X5.180 Y-45.682 E10.07456
G1 X6.532 Y-47.183 E10.09406
G1 X8.167 Y-48.371 E10.11357
G1 X10.013 Y-49.193 E10.13308
G1 X11.956 Y-49.606 E10.15225
G1 X11.942 Y-49.840 F12000.000
G1 X34.035 Y-49.845 F360.000 E10.36552
G1 X36.059 Y-49.415 E10.38550
G1 X37.950 Y-48.573 E10.40548
G1 X39.624 Y-47.356 E10.42545
G1 X41.009 Y-45.819 E10.44543
G1 X42.043 Y-44.026 E10.46541
G1 X42.683 Y-42.058 E10.48539
G1 X42.899 Y-40.000 E10.50536
G1 X42.683 Y-37.942 E10.52534
G1 X42.041 Y-35.966 E10.54540
G1 X32.900 Y-11.287 E10.79945
G1 X32.900 Y11.287 E11.01736
G1 X42.041 Y35.966 E11.27141
G1 X42.683 Y37.942 E11.29147
G1 X42.899 Y40.000 E11.31145
G1 X42.683 Y42.058 E11.33142
G1 X42.043 Y44.026 E11.35140
G1 X41.009 Y45.819 E11.37138
G1 X39.624 Y47.356 E11.39135
G1 X37.950 Y48.573 E11.41133
G1 X36.059 Y49.415 E11.43131
G1 X34.035 Y49.845 E11.45129
G1 X11.965 Y49.845 E11.66433
G1 X9.941 Y49.415 E11.68431
G1 X8.050 Y48.573 E11.70429
G1 X6.376 Y47.356 E11.72427
G1 X4.991 Y45.819 E11.74424
G1 X3.957 Y44.026 E11.76422
G1 X3.317 Y42.058 E11.78420
G1 X3.101 Y40.000 E11.80418
G1 X3.317 Y37.942 E11.82415
G1 X3.959 Y35.966 E11.84421
G1 X13.100 Y11.287 E12.09826
G1 X13.100 Y-11.287 E12.31617
G1 X3.959 Y-35.966 E12.57022
G1 X3.317 Y-37.942 E12.59028
G1 X3.101 Y-40.000 E12.61026
G1 X3.317 Y-42.058 E12.63024
G1 X3.957 Y-44.026 E12.65021
G1 X4.991 Y-45.819 E12.67019
G1 X6.376 Y-47.356 E12.69017
G1 X8.050 Y-48.573 E12.71014
G1 X9.941 Y-49.415 E12.73013
G1 X11.908 Y-49.833 E12.74953
G1 X12.072 Y-49.647 F12000.000
G1 F60000.000 E7.74953
G1 Z0.400
G92 E0
G1 X40.771 Y-44.891 F12000.000
G1 Z0.100
G1 F60000.000 E5.00000
G1 X37.877 Y-47.785 F600.000 E5.03958
G1 X37.106 Y-48.228 E5.04818
G1 X41.220 Y-44.113 E5.10445
G1 X41.545 Y-43.459 E5.11151
G1 X36.512 Y-48.492 E5.18033
G1 X35.919 Y-48.756 E5.18661
G1 X41.703 Y-42.972 E5.26571
G1 X41.862 Y-42.485 E5.27067
G1 X35.457 Y-48.889 E5.35825
G1 X35.039 Y-48.978 E5.36238
G1 X42.020 Y-41.998 E5.45784
G1 X42.098 Y-41.591 E5.46184
G1 X34.622 Y-49.067 E5.56408
G1 X34.204 Y-49.155 E5.56821
G1 X42.136 Y-41.223 E5.67668
G1 X42.175 Y-40.855 E5.68026
G1 X33.808 Y-49.222 E5.79468
G1 X33.479 Y-49.222 E5.79786
G1 X42.214 Y-40.488 E5.91731
G1 X42.253 Y-40.120 E5.92088
G1 X33.150 Y-49.222 E6.04536
G1 X32.821 Y-49.222 E6.04854
G1 X42.258 Y-39.786 E6.17760
G1 X42.227 Y-39.488 E6.18049
G1 X32.492 Y-49.222 E6.31361
G1 X32.164 Y-49.222 E6.31679
G1 X42.196 Y-39.190 E6.45399
G1 X42.164 Y-38.893 E6.45688
G1 X31.835 Y-49.222 E6.59814
G1 X31.506 Y-49.222 E6.60132
G1 X42.133 Y-38.595 E6.74665
G1 X42.101 Y-38.298 E6.74955
G1 X31.177 Y-49.222 E6.89895
G1 X30.848 Y-49.222 E6.90213
G1 X42.068 Y-38.002 E7.05557
G1 X41.987 Y-37.754 E7.05809
G1 X30.519 Y-49.222 E7.21493
G1 X30.190 Y-49.222 E7.21811
G1 X41.907 Y-37.506 E7.37834
G1 X41.826 Y-37.258 E7.38087
G1 X29.861 Y-49.222 E7.54449
G1 X29.532 Y-49.222 E7.54767
G1 X41.745 Y-37.009 E7.71469
G1 X41.664 Y-36.761 E7.71722
G1 X29.203 Y-49.222 E7.88763
G1 X28.874 Y-49.222 E7.89081
G1 X41.584 Y-36.513 E8.06463
G1 X41.503 Y-36.265 E8.06715
G1 X28.545 Y-49.222 E8.24436
G1 X28.216 Y-49.222 E8.24754
G1 X41.419 Y-36.020 E8.42809
G1 X41.330 Y-35.780 E8.43057
G1 X27.887 Y-49.222 E8.61440
G1 X27.558 Y-49.222 E8.61758
G1 X41.241 Y-35.540 E8.80470
G1 X41.152 Y-35.300 E8.80718
G1 X27.229 Y-49.222 E8.99758
G1 X26.901 Y-49.222 E9.00076
G1 X41.063 Y-35.060 E9.19444
G1 X40.975 Y-34.820 E9.19692
G1 X26.572 Y-49.222 E9.39389
G1 X26.243 Y-49.222 E9.39707
G1 X40.886 Y-34.580 E9.59732
G1 X40.797 Y-34.339 E9.59979
G1 X25.914 Y-49.222 E9.80332
G1 X25.585 Y-49.222 E9.80650
G1 X40.708 Y-34.099 E10.01332
G1 X40.619 Y-33.859 E10.01579
G1 X25.256 Y-49.222 E10.22589
G1 X24.927 Y-49.222 E10.22907
G1 X40.530 Y-33.619 E10.44245
G1 X40.441 Y-33.379 E10.44492
G1 X24.598 Y-49.222 E10.66159
G1 X24.269 Y-49.222 E10.66477
G1 X40.352 Y-33.139 E10.88471
G1 X40.263 Y-32.899 E10.88719
G1 X23.940 Y-49.222 E11.11041
G1 X23.611 Y-49.222 E11.11360
G1 X40.174 Y-32.659 E11.34010
G1 X40.085 Y-32.419 E11.34258
G1 X23.282 Y-49.222 E11.57237
G1 X22.953 Y-49.222 E11.57555
G1 X39.997 Y-32.179 E11.80863
G1 X39.908 Y-31.939 E11.81110
G1 X22.624 Y-49.222 E12.04746
G1 X22.295 Y-49.222 E12.05064
G1 X39.819 Y-31.699 E12.29028
G1 X39.730 Y-31.459 E12.29276
G1 X21.967 Y-49.222 E12.53568
G1 X21.638 Y-49.222 E12.53886
G1 X39.641 Y-31.219 E12.78506
G1 X39.552 Y-30.979 E12.78754
G1 X21.309 Y-49.222 E13.03703
G1 X20.980 Y-49.222 E13.04021
G1 X39.463 Y-30.739 E13.29298
G1 X39.374 Y-30.499 E13.29545
G1 X20.651 Y-49.222 E13.55151
G1 X20.322 Y-49.222 E13.55469
G1 X39.285 Y-30.259 E13.81402
G1 X39.196 Y-30.019 E13.81650
G1 X19.993 Y-49.222 E14.07912
G1 X19.664 Y-49.222 E14.08230
G1 X39.108 Y-29.779 E14.34820
G1 X39.019 Y-29.539 E14.35067
G1 X19.335 Y-49.222 E14.61985
G1 X19.006 Y-49.222 E14.62304
G1 X38.930 Y-29.299 E14.89550
G1 X38.841 Y-29.059 E14.89798
G1 X18.677 Y-49.222 E15.17372
G1 X18.348 Y-49.222 E15.17691
G1 X38.752 Y-28.819 E15.45594
G1 X38.663 Y-28.579 E15.45841
G1 X18.019 Y-49.222 E15.74072
G1 X17.690 Y-49.222 E15.74390
G1 X38.574 Y-28.339 E16.02950
G1 X38.485 Y-28.099 E16.03198
G1 X17.361 Y-49.222 E16.32085
G1 X17.033 Y-49.222 E16.32403
G1 X38.396 Y-27.859 E16.61620
G1 X38.307 Y-27.619 E16.61867
G1 X16.704 Y-49.222 E16.91411
G1 X16.375 Y-49.222 E16.91730
G1 X38.219 Y-27.379 E17.21602
G1 X38.130 Y-27.139 E17.21850
G1 X16.046 Y-49.222 E17.52050
G1 X15.717 Y-49.222 E17.52369
G1 X38.041 Y-26.898 E17.82898
G1 X37.952 Y-26.658 E17.83145
G1 X15.388 Y-49.222 E18.14003
G1 X15.059 Y-49.222 E18.14321
G1 X37.863 Y-26.418 E18.45506
G1 X37.774 Y-26.178 E18.45754
G1 X14.730 Y-49.222 E18.77268
G1 X14.401 Y-49.222 E18.77586
G1 X37.685 Y-25.938 E19.09428
G1 X37.596 Y-25.698 E19.09675
G1 X14.072 Y-49.222 E19.41846
G1 X13.743 Y-49.222 E19.42164
G1 X37.507 Y-25.458 E19.74662
G1 X37.418 Y-25.218 E19.74910
G1 X13.414 Y-49.222 E20.07737
G1 X13.085 Y-49.222 E20.08055
G1 X37.330 Y-24.978 E20.41210
G1 X37.241 Y-24.738 E20.41458
G1 X12.756 Y-49.222 E20.74941
G1 X12.427 Y-49.222 E20.75259
G1 X37.152 Y-24.498 E21.09071
G1 X37.063 Y-24.258 E21.09318
G1 X12.099 Y-49.222 E21.43458
G1 X11.804 Y-49.188 E21.43745
G1 X36.974 Y-24.018 E21.78167
G1 X36.885 Y-23.778 E21.78414
G1 X11.532 Y-49.131 E22.13085
G1 X11.261 Y-49.073 E22.13353
G1 X36.796 Y-23.538 E22.48274
G1 X36.707 Y-23.298 E22.48521
G1 X10.990 Y-49.016 E22.83691
G1 X10.718 Y-48.958 E22.83960
G1 X36.618 Y-23.058 E23.19379
G1 X36.529 Y-22.818 E23.19627
G1 X10.447 Y-48.900 E23.55296
G1 X10.176 Y-48.843 E23.55564
G1 X36.440 Y-22.578 E23.91482
G1 X36.352 Y-22.338 E23.91730
G1 X9.933 Y-48.756 E24.27858
G1 X9.706 Y-48.655 E24.28099
G1 X36.263 Y-22.098 E24.64417
G1 X36.174 Y-21.858 E24.64665
G1 X9.478 Y-48.553 E25.01172
G1 X9.251 Y-48.452 E25.01413
G1 X36.085 Y-21.618 E25.38110
G1 X35.996 Y-21.378 E25.38358
G1 X9.023 Y-48.351 E25.75245
G1 X8.795 Y-48.249 E25.75486
G1 X35.907 Y-21.138 E26.12562
G1 X35.818 Y-20.898 E26.12810
G1 X8.568 Y-48.148 E26.50076
G1 X8.340 Y-48.047 E26.50317
G1 X35.729 Y-20.658 E26.87772
G1 X35.640 Y-20.418 E26.88020
G1 X8.148 Y-47.910 E27.25617
G1 X7.957 Y-47.772 E27.25845
G1 X35.551 Y-20.178 E27.63582
G1 X35.463 Y-19.938 E27.63829
G1 X7.767 Y-47.633 E28.01705
